; generated by Slic3r Prusa Edition 1.41.2+win64 on 2019-01-31 at 13:39:11

; 

; external perimeters extrusion width = 0.45mm
; perimeters extrusion width = 0.45mm
; infill extrusion width = 0.45mm
; solid infill extrusion width = 0.45mm
; top infill extrusion width = 0.40mm
; support material extrusion width = 0.35mm
; first layer extrusion width = 0.42mm

M73 P0 R200
M73 Q0 S200
M201 X1000 Y1000 Z1000 E5000 ; sets maximum accelerations, mm/sec^2
M203 X200 Y200 Z12 E120 ; sets maximum feedrates, mm/sec
M204 P1250 R1250 T1250 ; sets acceleration (P, T) and retract acceleration (R), mm/sec^2
M205 X8.00 Y8.00 Z0.40 E1.50 ; sets the jerk limits, mm/sec
M205 S0 T0 ; sets the minimum extruding and travel feed rate, mm/sec
M107
M115 U3.5.1 ; tell printer latest fw version
M83  ; extruder relative mode
M104 S240 ; set extruder temp
M140 S85 ; set bed temp
M190 S85 ; wait for bed temp
M109 S240 ; wait for extruder temp
G28 W ; home all without mesh bed level
G80 ; mesh bed leveling
G1 Y-3.0 F1000.0 ; go outside print area
G92 E0.0
G1 X60.0 E9.0  F1000.0 ; intro line
M73 Q0 S200
M73 P0 R200
G1 X100.0 E12.5  F1000.0 ; intro line
G92 E0.0
M221 S95
M900 K45; Filament gcode
G21 ; set units to millimeters
G90 ; use absolute coordinates
M83 ; use relative distances for extrusion
;BEFORE_LAYER_CHANGE
G92 E0.0
;0.2


G1 E-0.80000 F2100.00000
G1 Z0.600 F10800.000
;AFTER_LAYER_CHANGE
;0.2
G1 X91.027 Y63.893
G1 Z0.200
G1 E0.80000 F2100.00000
M204 S1000
G1 F1200
G1 X91.429 Y63.326 E0.02179
G1 X91.989 Y62.914 E0.02179
G1 X92.649 Y62.698 E0.02179
G1 X102.798 Y62.671 E0.31820
G1 X146.857 Y62.865 E1.38146
G1 X147.507 Y63.068 E0.02134
G1 X152.377 Y65.599 E0.17209
G1 X155.423 Y68.143 E0.12444
G1 X157.456 Y70.847 E0.10607
G1 X157.692 Y71.388 E0.01851
G1 X157.774 Y71.973 E0.01851
G1 X157.769 Y138.499 E2.08587
G1 X157.621 Y139.160 E0.02123
G1 X157.276 Y139.746 E0.02134
G1 X153.133 Y144.315 E0.19336
G1 X152.670 Y144.692 E0.01873
G1 X152.213 Y144.902 E0.01578
G1 X144.932 Y147.227 E0.23966
G1 X144.328 Y147.328 E0.01919
G1 X123.163 Y147.498 E0.66363
G1 X94.455 Y147.498 E0.90014
G1 X92.695 Y147.309 E0.05550
G1 X92.238 Y147.195 E0.01475
G1 X91.603 Y146.833 E0.02293
G1 X91.121 Y146.278 E0.02304
G1 X90.885 Y145.737 E0.01851
G1 X90.802 Y145.149 E0.01862
G1 X90.823 Y64.558 E2.52690
G1 X91.009 Y63.951 E0.01991
; PURGING FINISHED
G1 F8640
G1 X91.429 Y63.326 E-0.17371
G1 X91.989 Y62.914 E-0.16050
G1 X92.649 Y62.698 E-0.16050
G1 X93.798 Y62.695 E-0.26528
G1 E-0.04000 F2100.00000
G1 Z0.800 F10800.000
G1 X92.990 Y64.860
G1 Z0.200
G1 E0.80000 F2100.00000
G1 F1200
G1 X92.990 Y145.140 E2.51713
G1 X93.744 Y145.140 E0.02365
G1 X93.744 Y65.030 E2.51181
G1 X94.499 Y65.030 E0.02365
G1 X94.499 Y145.310 E2.51713
G1 F8640
G1 X94.499 Y142.018 E-0.76000
G1 E-0.04000 F2100.00000
G1 Z0.800 F10800.000
G1 X95.253 Y142.313
G1 Z0.200
G1 E0.80000 F2100.00000
G1 F1200
G1 X95.253 Y68.000 E1.89749
G1 X95.770 Y68.000 E0.01322
G1 X95.770 Y142.170 E1.89384
G1 X96.288 Y142.170 E0.01322
G1 X96.288 Y68.000 E1.89384
G1 X96.806 Y68.000 E0.01322
G1 X96.806 Y142.313 E1.89749
G1 F8640
G1 X96.806 Y139.021 E-0.76000
G1 E-0.04000 F2100.00000
G1 Z0.800 F10800.000
G1 X99.395 Y142.313
G1 Z0.200
G1 E0.80000 F2100.00000
G1 F1200
G1 X99.395 Y142.064 E0.00635
G1 X99.173 Y142.057 E0.00568
G1 X98.982 Y141.986 E0.00520
G1 X98.877 Y141.993 E0.00267
G1 X98.877 Y142.170 E0.00452
G1 X98.360 Y142.170 E0.01322
G1 X98.360 Y141.812 E0.00913
G1 X98.072 Y141.592 E0.00924
G1 X97.903 Y141.548 E0.00447
G1 X97.842 Y141.504 E0.00193
G1 X97.842 Y142.170 E0.01699
G1 X97.324 Y142.170 E0.01322
G1 X97.324 Y68.000 E1.89384
G1 X97.842 Y68.000 E0.01322
G1 X97.842 Y68.597 E0.01525
G1 X98.047 Y68.390 E0.00745
G1 X98.212 Y68.286 E0.00498
G1 X98.360 Y68.149 E0.00515
G1 X98.360 Y67.857 E0.00745
G1 F8640
G1 X98.360 Y68.149 E-0.06734
G1 X98.212 Y68.286 E-0.04653
G1 X98.047 Y68.390 E-0.04502
G1 X97.842 Y68.597 E-0.06738
G1 X97.842 Y68.000 E-0.13789
G1 X97.324 Y68.000 E-0.11956
G1 X97.324 Y69.196 E-0.27627
G1 E-0.04000 F2100.00000
G1 Z0.800 F10800.000
G1 X102.794 Y64.860
G1 Z0.200
G1 E0.80000 F2100.00000
G1 F1200
G1 X102.794 Y68.154 E0.10329
G1 X102.040 Y68.155 E0.02365
G1 X102.040 Y65.030 E0.09798
G1 X101.286 Y65.030 E0.02365
G1 X101.286 Y68.155 E0.09799
G1 X100.532 Y68.155 E0.02365
G1 X100.532 Y65.030 E0.09801
G1 X99.778 Y65.030 E0.02365
G1 X99.778 Y67.652 E0.08223
G1 X99.023 Y67.652 E0.02365
G1 X99.023 Y65.030 E0.08223
G1 X98.269 Y65.030 E0.02365
G1 X98.269 Y67.652 E0.08223
G1 X97.515 Y67.652 E0.02365
G1 X97.515 Y65.030 E0.08224
G1 X96.761 Y65.030 E0.02365
G1 X96.761 Y67.652 E0.08224
G1 X96.007 Y67.652 E0.02365
G1 X96.007 Y65.030 E0.08224
G1 X95.253 Y65.030 E0.02365
G1 X95.253 Y67.652 E0.08224
G1 X94.905 Y67.652 E0.01090
G1 X94.905 Y142.517 E2.34734
G1 X95.253 Y142.517 E0.01090
G1 X95.253 Y145.140 E0.08223
G1 X96.007 Y145.140 E0.02365
G1 X96.007 Y142.517 E0.08223
G1 X96.761 Y142.517 E0.02365
G1 X96.761 Y145.140 E0.08223
G1 X97.515 Y145.140 E0.02365
G1 X97.515 Y142.517 E0.08224
G1 X98.269 Y142.517 E0.02365
G1 X98.269 Y145.140 E0.08224
G1 X99.023 Y145.140 E0.02365
G1 X99.023 Y142.517 E0.08224
G1 X99.778 Y142.517 E0.02365
G1 X99.778 Y145.140 E0.08224
G1 X100.532 Y145.140 E0.02365
G1 X100.532 Y141.849 E0.10319
G1 X101.286 Y141.849 E0.02365
G1 X101.286 Y145.140 E0.10319
G1 X102.040 Y145.140 E0.02365
G1 X102.040 Y141.849 E0.10320
G1 X102.794 Y141.849 E0.02365
G1 X102.794 Y145.310 E0.10852
G1 F8640
G1 X102.794 Y142.018 E-0.76000
G1 E-0.04000 F2100.00000
G1 Z0.800 F10800.000
G1 X123.157 Y145.310
G1 Z0.200
G1 E0.80000 F2100.00000
G1 F1200
G1 X123.157 Y99.797 E1.42703
M73 Q0 S199
M73 P0 R199
G1 X123.911 Y99.797 E0.02365
G1 X123.911 Y145.140 E1.42171
G1 X124.665 Y145.140 E0.02365
G1 X124.665 Y65.030 E2.51181
G1 X125.419 Y65.030 E0.02365
G1 X125.419 Y145.140 E2.51181
G1 X126.173 Y145.140 E0.02365
G1 X126.173 Y65.030 E2.51181
G1 X126.927 Y65.030 E0.02365
G1 X126.927 Y145.140 E2.51181
G1 X127.682 Y145.140 E0.02365
G1 X127.682 Y65.030 E2.51181
G1 X128.436 Y65.030 E0.02365
G1 X128.436 Y145.140 E2.51181
G1 X129.190 Y145.140 E0.02365
G1 X129.190 Y65.030 E2.51181
G1 X129.944 Y65.030 E0.02365
G1 X129.944 Y145.140 E2.51181
G1 X130.698 Y145.140 E0.02365
G1 X130.698 Y65.030 E2.51181
G1 X131.452 Y65.030 E0.02365
G1 X131.452 Y145.140 E2.51181
G1 X132.206 Y145.140 E0.02365
G1 X132.206 Y65.030 E2.51181
G1 X132.961 Y65.030 E0.02365
G1 X132.961 Y145.140 E2.51181
G1 X133.715 Y145.140 E0.02365
G1 X133.715 Y65.030 E2.51181
G1 X134.469 Y65.030 E0.02365
G1 X134.469 Y145.140 E2.51181
G1 X135.223 Y145.140 E0.02365
G1 X135.223 Y65.030 E2.51181
M73 Q1 S198
M73 P1 R198
G1 X135.977 Y65.030 E0.02365
G1 X135.977 Y145.140 E2.51181
G1 X136.731 Y145.140 E0.02365
G1 X136.731 Y65.030 E2.51181
G1 X137.486 Y65.030 E0.02365
G1 X137.486 Y145.140 E2.51181
G1 X138.240 Y145.140 E0.02365
G1 X138.240 Y65.030 E2.51181
G1 X138.994 Y65.030 E0.02365
G1 X138.994 Y145.140 E2.51181
G1 X139.748 Y145.140 E0.02365
G1 X139.748 Y65.030 E2.51181
G1 X140.502 Y65.030 E0.02365
G1 X140.502 Y145.140 E2.51181
G1 X141.256 Y145.140 E0.02365
G1 X141.256 Y65.030 E2.51181
G1 X142.011 Y65.030 E0.02365
G1 X142.011 Y145.140 E2.51181
G1 X142.765 Y145.140 E0.02365
G1 X142.765 Y65.030 E2.51181
G1 X143.519 Y65.030 E0.02365
G1 X143.519 Y145.140 E2.51181
G1 X144.273 Y145.140 E0.02365
G1 X144.273 Y65.030 E2.51181
G1 X145.027 Y65.030 E0.02365
G1 X145.027 Y142.822 E2.43913
G1 X145.781 Y142.822 E0.02365
G1 X145.781 Y65.030 E2.43913
G1 X146.535 Y65.030 E0.02365
G1 X146.535 Y142.822 E2.43913
M73 Q1 S197
M73 P1 R197
G1 X147.290 Y142.822 E0.02365
G1 X147.290 Y67.348 E2.36646
G1 X148.044 Y67.348 E0.02365
G1 X148.044 Y142.822 E2.36646
G1 X148.798 Y142.822 E0.02365
G1 X148.798 Y67.348 E2.36646
G1 X149.552 Y67.348 E0.02365
G1 X149.552 Y142.822 E2.36646
G1 X150.306 Y142.822 E0.02365
G1 X150.306 Y67.348 E2.36646
G1 X151.060 Y67.348 E0.02365
G1 X151.060 Y142.822 E2.36646
G1 X151.533 Y142.822 E0.01480
G1 X151.533 Y140.505 E0.07267
G1 X151.815 Y140.505 E0.00884
G1 X151.815 Y69.665 E2.22111
G1 X152.569 Y69.665 E0.02365
G1 X152.569 Y140.505 E2.22111
G1 X153.323 Y140.505 E0.02365
G1 X153.323 Y69.665 E2.22111
G1 X153.850 Y69.665 E0.01654
G1 X153.850 Y71.983 E0.07267
G1 X154.077 Y71.983 E0.00711
G1 X154.077 Y138.187 E2.07577
G1 X154.831 Y138.187 E0.02365
G1 X154.831 Y71.983 E2.07577
G1 X155.585 Y71.983 E0.02365
G1 X155.585 Y138.356 E2.08109
G1 F8640
G1 X155.585 Y135.065 E-0.76000
G1 E-0.04000 F2100.00000
G1 Z0.800 F10800.000
G1 X123.911 Y98.954
G1 Z0.200
G1 E0.80000 F2100.00000
G1 F1200
G1 X123.911 Y65.030 E1.06366
G1 X123.157 Y65.030 E0.02365
G1 X123.157 Y98.954 E1.06366
G1 F8640
G1 X123.157 Y95.662 E-0.76000
G1 E-0.04000 F2100.00000
G1 Z0.800 F10800.000
G1 X111.243 Y126.390
G1 Z0.200
G1 E0.80000 F2100.00000
G1 F1200
G1 X111.838 Y126.703 E0.02110
G1 X112.342 Y127.149 E0.02110
G1 X112.725 Y127.704 E0.02113
G1 X112.964 Y128.340 E0.02132
G1 X113.044 Y129.000 E0.02084
G1 X112.963 Y129.668 E0.02110
G1 X112.724 Y130.297 E0.02110
G1 X112.342 Y130.851 E0.02110
G1 X111.838 Y131.297 E0.02110
G1 X111.243 Y131.610 E0.02110
G1 X110.589 Y131.771 E0.02110
G1 X109.916 Y131.771 E0.02110
G1 X109.263 Y131.610 E0.02110
G1 X108.667 Y131.297 E0.02110
G1 X108.163 Y130.851 E0.02110
G1 X107.780 Y130.296 E0.02113
G1 X107.541 Y129.660 E0.02132
G1 X107.461 Y129.000 E0.02084
G1 X107.542 Y128.332 E0.02110
G1 X107.781 Y127.703 E0.02110
G1 X108.163 Y127.149 E0.02110
G1 X108.667 Y126.703 E0.02110
G1 X109.263 Y126.390 E0.02110
G1 X109.916 Y126.229 E0.02110
G1 X110.589 Y126.229 E0.02110
G1 X111.184 Y126.376 E0.01922
G1 X111.094 Y126.742 F10800.000
G1 F1200
G1 X111.623 Y127.015 E0.01866
G1 X112.058 Y127.401 E0.01823
G1 X112.388 Y127.880 E0.01824
G1 X112.595 Y128.431 E0.01845
G1 X112.664 Y129.000 E0.01799
G1 X112.594 Y129.577 E0.01823
G1 X112.388 Y130.121 E0.01823
G1 X112.058 Y130.599 E0.01823
G1 X111.623 Y130.985 E0.01823
G1 X111.108 Y131.255 E0.01823
G1 X110.543 Y131.394 E0.01823
G1 X109.962 Y131.394 E0.01823
G1 X109.398 Y131.255 E0.01823
G1 X108.883 Y130.985 E0.01823
G1 X108.448 Y130.599 E0.01823
G1 X108.117 Y130.120 E0.01824
G1 X107.910 Y129.569 E0.01845
G1 X107.841 Y129.000 E0.01799
G1 X107.911 Y128.423 E0.01823
G1 X108.117 Y127.879 E0.01823
G1 X108.448 Y127.401 E0.01823
G1 X108.883 Y127.015 E0.01823
G1 X109.398 Y126.745 E0.01823
G1 X109.962 Y126.606 E0.01823
G1 X110.543 Y126.606 E0.01823
G1 X111.036 Y126.727 E0.01590
G1 X111.403 Y126.487 F10800.000
G1 F8640
G1 X111.623 Y127.015 E-0.15093
G1 X112.058 Y127.401 E-0.13424
G1 X112.388 Y127.880 E-0.13432
G1 X112.595 Y128.431 E-0.13589
G1 X112.664 Y129.000 E-0.13246
G1 X112.627 Y129.310 E-0.07217
G1 E-0.04000 F2100.00000
G1 Z0.800 F10800.000
G1 X110.588 Y83.771
G1 Z0.200
G1 E0.80000 F2100.00000
G1 F1200
G1 X109.908 Y83.769 E0.02132
G1 X109.263 Y83.610 E0.02084
G1 X108.667 Y83.297 E0.02110
G1 X108.163 Y82.851 E0.02110
G1 X107.780 Y82.296 E0.02113
G1 X107.541 Y81.660 E0.02132
G1 X107.461 Y81.000 E0.02084
G1 X107.542 Y80.332 E0.02110
G1 X107.781 Y79.703 E0.02110
G1 X108.164 Y79.148 E0.02113
G1 X108.674 Y78.699 E0.02132
G1 X109.263 Y78.390 E0.02084
G1 X109.917 Y78.229 E0.02113
G1 X110.597 Y78.231 E0.02132
G1 X111.243 Y78.390 E0.02084
G1 X111.838 Y78.703 E0.02110
G1 X112.342 Y79.149 E0.02110
G1 X112.725 Y79.704 E0.02113
G1 X112.964 Y80.340 E0.02132
G1 X113.044 Y81.000 E0.02084
G1 X112.963 Y81.668 E0.02110
G1 X112.724 Y82.297 E0.02110
G1 X112.342 Y82.852 E0.02113
G1 X111.831 Y83.301 E0.02132
G1 X111.243 Y83.610 E0.02084
G1 X110.646 Y83.757 E0.01925
G1 X110.556 Y83.391 F10800.000
G1 F1200
G1 X109.955 Y83.392 E0.01887
G1 X109.398 Y83.255 E0.01799
G1 X108.883 Y82.985 E0.01823
G1 X108.448 Y82.599 E0.01823
G1 X108.117 Y82.120 E0.01824
G1 X107.910 Y81.569 E0.01845
G1 X107.841 Y81.000 E0.01799
G1 X107.911 Y80.423 E0.01823
G1 X108.117 Y79.879 E0.01823
G1 X108.448 Y79.401 E0.01824
G1 X108.890 Y79.012 E0.01845
G1 X109.398 Y78.745 E0.01799
G1 X109.962 Y78.606 E0.01824
G1 X110.551 Y78.608 E0.01845
G1 X111.108 Y78.745 E0.01799
G1 X111.623 Y79.015 E0.01823
G1 X112.058 Y79.401 E0.01823
G1 X112.388 Y79.880 E0.01824
G1 X112.595 Y80.431 E0.01845
G1 X112.664 Y81.000 E0.01799
G1 X112.594 Y81.577 E0.01823
G1 X112.388 Y82.121 E0.01823
G1 X112.058 Y82.599 E0.01824
G1 X111.616 Y82.988 E0.01845
G1 X111.108 Y83.255 E0.01799
G1 X110.614 Y83.376 E0.01593
G1 X110.400 Y83.759 F10800.000
G1 F8640
G1 X109.955 Y83.392 E-0.15243
G1 X109.398 Y83.255 E-0.13246
G1 X108.883 Y82.985 E-0.13424
G1 X108.448 Y82.599 E-0.13424
G1 X108.117 Y82.120 E-0.13432
G1 X108.007 Y81.827 E-0.07232
G1 E-0.04000 F2100.00000
G1 Z0.800 F10800.000
G1 X119.761 Y69.280
G1 Z0.200
G1 E0.80000 F2100.00000
G1 F1200
G1 X119.765 Y140.847 E2.24393
G1 X99.576 Y140.848 E0.63299
G1 X99.551 Y140.754 E0.00305
G1 X98.990 Y140.568 E0.01853
G1 X98.988 Y69.343 E2.23321
M73 Q2 S196
M73 P2 R196
G1 X99.141 Y69.209 E0.00636
G1 X99.332 Y69.157 E0.00621
G1 X119.758 Y69.157 E0.64045
G1 X119.760 Y69.220 E0.00199
G1 X120.128 Y68.926 F10800.000
G1 F1200
G1 X120.142 Y140.931 E2.25766
G1 X120.102 Y141.177 E0.00782
G1 X120.079 Y141.224 E0.00165
G1 X99.314 Y141.225 E0.65105
G1 X99.283 Y141.205 E0.00117
G1 X99.240 Y141.049 E0.00508
G1 X98.612 Y140.839 E0.02075
G1 X98.611 Y69.172 E2.24708
G1 X98.957 Y68.868 E0.01444
G1 X99.281 Y68.780 E0.01052
G1 X120.079 Y68.780 E0.65211
G1 X120.113 Y68.868 E0.00297
G1 X119.927 Y69.272 F10800.000
G1 F8640
G1 X120.115 Y72.159 E-0.76000
G1 E-0.04000 F2100.00000
G1 Z0.800 F10800.000
G1 X119.645 Y70.033
G1 Z0.200
G1 E0.80000 F2100.00000
G1 F1200
G1 X119.051 Y69.440 E0.02635
G1 X118.517 Y69.440 E0.01676
G1 X119.475 Y70.397 E0.04252
G1 X119.475 Y70.931 E0.01676
G1 X117.983 Y69.440 E0.06622
G1 X117.449 Y69.440 E0.01676
G1 X119.475 Y71.465 E0.08993
G1 X119.475 Y71.999 E0.01676
G1 X116.916 Y69.439 E0.11363
G1 X116.382 Y69.439 E0.01676
G1 X119.475 Y72.533 E0.13733
G1 X119.475 Y73.067 E0.01676
G1 X115.848 Y69.439 E0.16103
G1 X115.314 Y69.439 E0.01676
G1 X119.475 Y73.601 E0.18474
G1 X119.475 Y74.135 E0.01676
G1 X114.780 Y69.439 E0.20844
G1 X114.246 Y69.439 E0.01676
G1 X119.476 Y74.669 E0.23214
G1 X119.476 Y75.203 E0.01676
G1 X113.712 Y69.439 E0.25585
G1 X113.178 Y69.439 E0.01676
G1 X119.476 Y75.737 E0.27955
G1 X119.476 Y76.271 E0.01676
G1 X112.645 Y69.439 E0.30325
G1 X112.111 Y69.439 E0.01676
G1 X119.476 Y76.805 E0.32695
G1 X119.476 Y77.338 E0.01676
G1 X111.577 Y69.439 E0.35066
G1 X111.043 Y69.439 E0.01676
G1 X119.476 Y77.872 E0.37436
G1 X119.476 Y78.406 E0.01676
G1 X110.509 Y69.439 E0.39806
G1 X109.975 Y69.439 E0.01676
G1 X119.476 Y78.940 E0.42177
G1 X119.476 Y79.474 E0.01676
G1 X109.441 Y69.439 E0.44547
G1 X108.907 Y69.439 E0.01676
G1 X119.476 Y80.008 E0.46917
G1 X119.476 Y80.542 E0.01676
G1 X108.373 Y69.439 E0.49287
G1 X107.840 Y69.439 E0.01676
G1 X119.476 Y81.076 E0.51658
G1 X119.476 Y81.610 E0.01676
G1 X107.306 Y69.439 E0.54028
G1 X106.772 Y69.439 E0.01676
G1 X119.476 Y82.144 E0.56398
G1 X119.476 Y82.678 E0.01676
G1 X106.238 Y69.439 E0.58769
G1 X105.704 Y69.439 E0.01676
G1 X119.476 Y83.212 E0.61139
G1 X119.476 Y83.746 E0.01676
G1 X105.170 Y69.439 E0.63509
G1 X104.636 Y69.439 E0.01676
G1 X119.476 Y84.280 E0.65879
G1 X119.477 Y84.814 E0.01676
G1 X104.102 Y69.439 E0.68250
G1 X103.568 Y69.439 E0.01676
G1 X119.477 Y85.348 E0.70620
G1 X119.477 Y85.881 E0.01676
G1 X103.035 Y69.439 E0.72990
G1 X102.501 Y69.439 E0.01676
G1 X111.133 Y78.072 E0.38321
G1 X110.632 Y77.948 E0.01620
G1 X110.475 Y77.948 E0.00492
G1 X101.967 Y69.439 E0.37771
G1 X101.433 Y69.439 E0.01676
G1 X109.940 Y77.946 E0.37763
G1 X109.500 Y78.040 E0.01411
G1 X100.899 Y69.439 E0.38182
G1 X100.365 Y69.439 E0.01676
G1 X109.088 Y78.162 E0.38723
G1 X108.738 Y78.346 E0.01241
G1 X99.831 Y69.439 E0.39539
G1 X99.370 Y69.439 E0.01449
G1 X99.313 Y69.455 E0.00185
G1 X108.411 Y78.554 E0.40391
G1 X108.128 Y78.803 E0.01187
G1 X99.271 Y69.947 E0.39317
G1 X99.271 Y70.481 E0.01676
G1 X107.868 Y79.078 E0.38167
G1 X107.650 Y79.394 E0.01205
G1 X99.271 Y71.014 E0.37200
G1 X99.271 Y71.548 E0.01676
G1 X107.464 Y79.741 E0.36371
G1 X107.317 Y80.129 E0.01300
G1 X99.271 Y72.082 E0.35720
G1 X99.271 Y72.616 E0.01676
G1 X107.228 Y80.574 E0.35325
G1 X107.176 Y81.000 E0.01349
G1 X107.184 Y81.063 E0.00200
G1 X99.271 Y73.150 E0.35129
