; generated by Slic3r Prusa Edition 1.41.2+win64 on 2019-02-04 at 08:44:44

; 

; external perimeters extrusion width = 0.45mm
; perimeters extrusion width = 0.45mm
; infill extrusion width = 0.45mm
; solid infill extrusion width = 0.45mm
; top infill extrusion width = 0.40mm
; first layer extrusion width = 0.42mm

M73 P0 R73
M73 Q0 S73
M201 X1000 Y1000 Z1000 E5000 ; sets maximum accelerations, mm/sec^2
M203 X200 Y200 Z12 E120 ; sets maximum feedrates, mm/sec
M204 P1250 R1250 T1250 ; sets acceleration (P, T) and retract acceleration (R), mm/sec^2
M205 X8.00 Y8.00 Z0.40 E1.50 ; sets the jerk limits, mm/sec
M205 S0 T0 ; sets the minimum extruding and travel feed rate, mm/sec
M107
M115 U3.5.1 ; tell printer latest fw version
M83  ; extruder relative mode
M104 S215 ; set extruder temp
M140 S60 ; set bed temp
M190 S60 ; wait for bed temp
M109 S215 ; wait for extruder temp
G28 W ; home all without mesh bed level
G80 ; mesh bed leveling
G1 Y-3.0 F1000.0 ; go outside print area
G92 E0.0
G1 X60.0 E9.0  F1000.0 ; intro line
M73 Q0 S73
M73 P0 R72
G1 X100.0 E12.5  F1000.0 ; intro line
G92 E0.0
M221 S95
M900 K30; Filament gcode
G21 ; set units to millimeters
G90 ; use absolute coordinates
M83 ; use relative distances for extrusion
;BEFORE_LAYER_CHANGE
G92 E0.0
;0.2


G1 E-0.80000 F2100.00000
G1 Z0.600 F10800.000
;AFTER_LAYER_CHANGE
;0.2
G1 X107.503 Y90.443
G1 Z0.200
G1 E0.80000 F2100.00000
M204 S1000
G1 F1200
G1 X108.219 Y90.312 E0.02281
G1 X141.754 Y90.311 E1.05147
G1 X142.567 Y90.470 E0.02597
G1 X143.260 Y90.916 E0.02586
G1 X143.741 Y91.591 E0.02597
G1 X143.936 Y92.395 E0.02597
G1 X143.938 Y117.566 E0.78920
G1 X143.873 Y118.032 E0.01475
G1 X143.712 Y118.470 E0.01464
G1 X143.461 Y118.864 E0.01464
G1 X143.130 Y119.198 E0.01475
G1 X142.497 Y119.557 E0.02281
G1 X141.781 Y119.688 E0.02281
G1 X108.232 Y119.688 E1.05193
G1 X107.757 Y119.632 E0.01498
G1 X107.303 Y119.473 E0.01510
G1 X106.894 Y119.218 E0.01510
G1 X106.552 Y118.880 E0.01510
G1 X106.195 Y118.254 E0.02259
G1 X106.062 Y117.542 E0.02270
G1 X106.062 Y92.474 E0.78599
G1 X106.119 Y92.000 E0.01498
G1 X106.279 Y91.550 E0.01498
G1 X106.532 Y91.144 E0.01498
G1 X106.870 Y90.802 E0.01510
G1 X107.451 Y90.472 E0.02093
; PURGING FINISHED
G1 F8640
G1 X108.219 Y90.312 E-0.18114
G1 X110.725 Y90.312 E-0.57886
G1 E-0.04000 F2100.00000
G1 Z0.800 F10800.000
G1 X108.837 Y93.087
G1 Z0.200
G1 E0.80000 F2100.00000
G1 F1200
G1 X141.163 Y93.087 E1.01355
G1 X141.163 Y116.913 E0.74704
G1 X108.837 Y116.913 E1.01355
G1 X108.837 Y93.147 E0.74516
G1 X108.460 Y92.710 F10800.000
G1 F1200
G1 X141.540 Y92.710 E1.03720
G1 X141.540 Y117.290 E0.77069
G1 X108.460 Y117.290 E1.03720
G1 X108.460 Y92.770 E0.76881
G1 X108.851 Y92.795 F10800.000
G1 F8640
G1 X111.751 Y92.764 E-0.76000
G1 E-0.04000 F2100.00000
G1 Z0.800 F10800.000
G1 X109.717 Y116.800
G1 Z0.200
G1 E0.80000 F2100.00000
G1 F1200
G1 X109.120 Y116.203 E0.02663
G1 X109.120 Y115.666 E0.01691
G1 X110.084 Y116.630 E0.04298
G1 X110.620 Y116.630 E0.01691
G1 X109.120 Y115.130 E0.06689
G1 X109.120 Y114.594 E0.01691
G1 X111.156 Y116.630 E0.09081
G1 X111.692 Y116.630 E0.01691
G1 X109.120 Y114.058 E0.11472
G1 X109.120 Y113.521 E0.01691
G1 X112.229 Y116.630 E0.13864
G1 X112.765 Y116.630 E0.01691
G1 X109.120 Y112.985 E0.16255
G1 X109.120 Y112.449 E0.01691
G1 X113.301 Y116.630 E0.18646
G1 X113.838 Y116.630 E0.01691
G1 X109.120 Y111.912 E0.21038
G1 X109.120 Y111.376 E0.01691
G1 X114.374 Y116.630 E0.23429
G1 X114.910 Y116.630 E0.01691
G1 X109.120 Y110.840 E0.25821
G1 X109.120 Y110.303 E0.01691
G1 X115.447 Y116.630 E0.28212
G1 X115.983 Y116.630 E0.01691
G1 X109.120 Y109.767 E0.30604
G1 X109.120 Y109.231 E0.01691
G1 X116.519 Y116.630 E0.32995
G1 X117.055 Y116.630 E0.01691
G1 X109.120 Y108.695 E0.35387
G1 X109.120 Y108.158 E0.01691
G1 X117.592 Y116.630 E0.37778
G1 X118.128 Y116.630 E0.01691
G1 X109.120 Y107.622 E0.40170
G1 X109.120 Y107.086 E0.01691
G1 X118.664 Y116.630 E0.42561
G1 X119.201 Y116.630 E0.01691
G1 X109.120 Y106.549 E0.44953
G1 X109.120 Y106.013 E0.01691
G1 X119.737 Y116.630 E0.47344
G1 X120.273 Y116.630 E0.01691
G1 X109.120 Y105.477 E0.49736
G1 X109.120 Y104.941 E0.01691
G1 X120.809 Y116.630 E0.52127
G1 X121.346 Y116.630 E0.01691
G1 X109.120 Y104.404 E0.54519
G1 X109.120 Y103.868 E0.01691
G1 X121.882 Y116.630 E0.56910
G1 X122.418 Y116.630 E0.01691
G1 X109.120 Y103.332 E0.59302
G1 X109.120 Y102.795 E0.01691
G1 X122.955 Y116.630 E0.61693
G1 X123.491 Y116.630 E0.01691
G1 X109.120 Y102.259 E0.64085
G1 X109.120 Y101.723 E0.01691
G1 X124.027 Y116.630 E0.66476
G1 X124.564 Y116.630 E0.01691
G1 X109.120 Y101.186 E0.68868
G1 X109.120 Y100.650 E0.01691
G1 X125.100 Y116.630 E0.71259
G1 X125.636 Y116.630 E0.01691
G1 X109.120 Y100.114 E0.73651
G1 X109.120 Y99.578 E0.01691
G1 X126.172 Y116.630 E0.76042
G1 X126.709 Y116.630 E0.01691
G1 X109.120 Y99.041 E0.78434
G1 X109.120 Y98.505 E0.01691
G1 X127.245 Y116.630 E0.80825
G1 X127.781 Y116.630 E0.01691
G1 X109.120 Y97.969 E0.83217
G1 X109.120 Y97.432 E0.01691
G1 X128.318 Y116.630 E0.85608
G1 X128.854 Y116.630 E0.01691
G1 X109.120 Y96.896 E0.88000
G1 X109.120 Y96.360 E0.01691
G1 X129.390 Y116.630 E0.90391
G1 X129.926 Y116.630 E0.01691
G1 X109.120 Y95.824 E0.92783
G1 X109.120 Y95.287 E0.01691
G1 X130.463 Y116.630 E0.95174
G1 X130.999 Y116.630 E0.01691
G1 X109.120 Y94.751 E0.97566
G1 X109.120 Y94.215 E0.01691
G1 X131.535 Y116.630 E0.99957
G1 X132.072 Y116.630 E0.01691
G1 X109.120 Y93.678 E1.02349
G1 X109.120 Y93.370 E0.00973
G1 X109.348 Y93.370 E0.00718
G1 X132.608 Y116.630 E1.03725
M73 Q1 S72
M73 P1 R71
G1 X133.144 Y116.630 E0.01691
G1 X109.884 Y93.370 E1.03725
G1 X110.420 Y93.370 E0.01691
G1 X133.681 Y116.630 E1.03725
G1 X134.217 Y116.630 E0.01691
G1 X110.957 Y93.370 E1.03725
G1 X111.493 Y93.370 E0.01691
G1 X134.753 Y116.630 E1.03725
G1 X135.289 Y116.630 E0.01691
G1 X112.029 Y93.370 E1.03725
G1 X112.565 Y93.370 E0.01691
G1 X135.826 Y116.630 E1.03725
G1 X136.362 Y116.630 E0.01691
G1 X113.102 Y93.370 E1.03725
G1 X113.638 Y93.370 E0.01691
G1 X136.898 Y116.630 E1.03725
G1 X137.435 Y116.630 E0.01691
G1 X114.174 Y93.370 E1.03725
G1 X114.711 Y93.370 E0.01691
G1 X137.971 Y116.630 E1.03725
G1 X138.507 Y116.630 E0.01691
G1 X115.247 Y93.370 E1.03725
G1 X115.783 Y93.370 E0.01691
G1 X139.043 Y116.630 E1.03725
G1 X139.580 Y116.630 E0.01691
G1 X116.319 Y93.370 E1.03725
G1 X116.856 Y93.370 E0.01691
G1 X140.116 Y116.630 E1.03725
G1 X140.652 Y116.630 E0.01691
G1 X117.392 Y93.370 E1.03725
G1 X117.928 Y93.370 E0.01691
G1 X140.880 Y116.322 E1.02349
G1 X140.880 Y115.785 E0.01691
G1 X118.465 Y93.370 E0.99957
G1 X119.001 Y93.370 E0.01691
G1 X140.880 Y115.249 E0.97566
G1 X140.880 Y114.713 E0.01691
G1 X119.537 Y93.370 E0.95174
G1 X120.074 Y93.370 E0.01691
G1 X140.880 Y114.176 E0.92783
G1 X140.880 Y113.640 E0.01691
G1 X120.610 Y93.370 E0.90391
G1 X121.146 Y93.370 E0.01691
G1 X140.880 Y113.104 E0.88000
G1 X140.880 Y112.568 E0.01691
G1 X121.682 Y93.370 E0.85608
G1 X122.219 Y93.370 E0.01691
G1 X140.880 Y112.031 E0.83217
G1 X140.880 Y111.495 E0.01691
G1 X122.755 Y93.370 E0.80825
G1 X123.291 Y93.370 E0.01691
G1 X140.880 Y110.959 E0.78434
G1 X140.880 Y110.422 E0.01691
G1 X123.828 Y93.370 E0.76042
G1 X124.364 Y93.370 E0.01691
G1 X140.880 Y109.886 E0.73651
G1 X140.880 Y109.350 E0.01691
G1 X124.900 Y93.370 E0.71259
G1 X125.436 Y93.370 E0.01691
G1 X140.880 Y108.814 E0.68868
G1 X140.880 Y108.277 E0.01691
G1 X125.973 Y93.370 E0.66476
G1 X126.509 Y93.370 E0.01691
G1 X140.880 Y107.741 E0.64085
G1 X140.880 Y107.205 E0.01691
G1 X127.045 Y93.370 E0.61693
G1 X127.582 Y93.370 E0.01691
G1 X140.880 Y106.668 E0.59302
G1 X140.880 Y106.132 E0.01691
G1 X128.118 Y93.370 E0.56910
G1 X128.654 Y93.370 E0.01691
G1 X140.880 Y105.596 E0.54519
G1 X140.880 Y105.059 E0.01691
G1 X129.191 Y93.370 E0.52127
G1 X129.727 Y93.370 E0.01691
G1 X140.880 Y104.523 E0.49736
G1 X140.880 Y103.987 E0.01691
G1 X130.263 Y93.370 E0.47344
G1 X130.799 Y93.370 E0.01691
G1 X140.880 Y103.451 E0.44953
G1 X140.880 Y102.914 E0.01691
G1 X131.336 Y93.370 E0.42561
G1 X131.872 Y93.370 E0.01691
G1 X140.880 Y102.378 E0.40170
G1 X140.880 Y101.842 E0.01691
G1 X132.408 Y93.370 E0.37778
G1 X132.945 Y93.370 E0.01691
G1 X140.880 Y101.305 E0.35387
G1 X140.880 Y100.769 E0.01691
G1 X133.481 Y93.370 E0.32996
G1 X134.017 Y93.370 E0.01691
G1 X140.880 Y100.233 E0.30604
G1 X140.880 Y99.697 E0.01691
G1 X134.553 Y93.370 E0.28213
G1 X135.090 Y93.370 E0.01691
G1 X140.880 Y99.160 E0.25821
M73 Q2 S71
M73 P2 R70
G1 X140.880 Y98.624 E0.01691
G1 X135.626 Y93.370 E0.23430
G1 X136.162 Y93.370 E0.01691
G1 X140.880 Y98.088 E0.21038
G1 X140.880 Y97.551 E0.01691
G1 X136.699 Y93.370 E0.18647
G1 X137.235 Y93.370 E0.01691
G1 X140.880 Y97.015 E0.16255
G1 X140.880 Y96.479 E0.01691
G1 X137.771 Y93.370 E0.13864
G1 X138.308 Y93.370 E0.01691
G1 X140.880 Y95.942 E0.11472
G1 X140.880 Y95.406 E0.01691
G1 X138.844 Y93.370 E0.09081
G1 X139.380 Y93.370 E0.01691
G1 X140.880 Y94.870 E0.06689
G1 X140.880 Y94.334 E0.01691
G1 X139.916 Y93.370 E0.04298
G1 X140.453 Y93.370 E0.01691
G1 X141.050 Y93.967 E0.02663
M106 S255
;BEFORE_LAYER_CHANGE
G92 E0.0
;0.35


G1 F8640
G1 X140.453 Y93.370 E-0.19499
G1 X139.916 Y93.370 E-0.12383
G1 X140.880 Y94.334 E-0.31470
G1 X140.880 Y94.870 E-0.12383
G1 X140.872 Y94.862 E-0.00265
G1 E-0.04000 F2100.00000
G1 Z0.800 F10800.000
;AFTER_LAYER_CHANGE
;0.35
G1 X143.741 Y91.591
G1 Z0.350
G1 E0.80000 F2100.00000
G1 F3000
G1 X143.936 Y92.395 E0.02003
G1 X143.938 Y117.566 E0.60874
G1 X143.873 Y118.032 E0.01138
G1 X143.712 Y118.470 E0.01129
G1 X143.461 Y118.864 E0.01129
G1 X143.130 Y119.198 E0.01138
G1 X142.497 Y119.557 E0.01760
G1 X141.781 Y119.688 E0.01760
G1 X108.232 Y119.688 E0.81140
G1 X107.757 Y119.632 E0.01156
G1 X107.303 Y119.473 E0.01164
G1 X106.894 Y119.218 E0.01164
G1 X106.552 Y118.880 E0.01164
G1 X106.195 Y118.254 E0.01742
G1 X106.062 Y117.542 E0.01751
G1 X106.062 Y92.474 E0.60627
G1 X106.119 Y92.000 E0.01156
G1 X106.279 Y91.550 E0.01156
G1 X106.532 Y91.144 E0.01156
G1 X106.870 Y90.802 E0.01164
G1 X107.503 Y90.443 E0.01760
G1 X108.219 Y90.312 E0.01760
G1 X141.754 Y90.311 E0.81104
G1 X142.567 Y90.470 E0.02003
G1 X143.260 Y90.916 E0.01994
G1 X143.706 Y91.542 E0.01858
; PURGING FINISHED
G1 F8640
G1 X143.936 Y92.395 E-0.20418
G1 X143.936 Y94.803 E-0.55582
G1 E-0.04000 F2100.00000
G1 Z0.950 F10800.000
G1 X141.107 Y93.143
G1 Z0.350
G1 E0.80000 F2100.00000
M204 S800
G1 F2700
G1 X141.107 Y116.857 E0.61790
G1 X108.893 Y116.857 E0.83937
G1 X108.893 Y93.143 E0.61790
G1 X141.047 Y93.143 E0.83781
M204 S1000
G1 X141.525 Y92.725 F10800.000
M204 S800
G1 F2100
G1 X141.525 Y117.275 E0.63967
G1 X108.475 Y117.275 E0.86114
G1 X108.475 Y92.725 E0.63967
G1 X141.465 Y92.725 E0.85958
M204 S1000
G1 X141.403 Y93.106 F10800.000
G1 F8640
G1 X141.473 Y96.016 E-0.76000
G1 E-0.04000 F2100.00000
G1 Z0.950 F10800.000
G1 X140.128 Y116.732
G1 Z0.350
G1 E0.80000 F2100.00000
M204 S1250
G1 F11217
G1 X140.794 Y116.066 E0.02478
G1 X140.794 Y115.469 E0.01571
G1 X139.719 Y116.544 E0.04000
G1 X139.122 Y116.544 E0.01571
G1 X140.794 Y114.872 E0.06222
G1 X140.794 Y114.276 E0.01571
G1 X138.526 Y116.544 E0.08443
G1 X137.929 Y116.544 E0.01571
G1 X140.794 Y113.679 E0.10665
G1 X140.794 Y113.082 E0.01571
G1 X137.332 Y116.544 E0.12887
G1 X136.735 Y116.544 E0.01571
G1 X140.794 Y112.485 E0.15109
G1 X140.794 Y111.888 E0.01571
G1 X136.138 Y116.544 E0.17331
G1 X135.541 Y116.544 E0.01571
G1 X140.794 Y111.291 E0.19553
G1 X140.794 Y110.694 E0.01571
G1 X134.944 Y116.544 E0.21775
G1 X134.347 Y116.544 E0.01571
G1 X140.794 Y110.097 E0.23996
G1 X140.794 Y109.500 E0.01571
G1 X133.750 Y116.544 E0.26218
G1 X133.154 Y116.544 E0.01571
G1 X140.794 Y108.904 E0.28440
G1 X140.794 Y108.307 E0.01571
G1 X132.557 Y116.544 E0.30662
G1 X131.960 Y116.544 E0.01571
G1 X140.794 Y107.710 E0.32884
G1 X140.794 Y107.113 E0.01571
G1 X131.363 Y116.544 E0.35106
G1 X130.766 Y116.544 E0.01571
G1 X140.794 Y106.516 E0.37328
G1 X140.794 Y105.919 E0.01571
G1 X130.169 Y116.544 E0.39549
G1 X129.572 Y116.544 E0.01571
G1 X140.794 Y105.322 E0.41771
G1 X140.794 Y104.725 E0.01571
G1 X128.975 Y116.544 E0.43993
G1 X128.378 Y116.544 E0.01571
G1 X140.794 Y104.128 E0.46215
G1 X140.794 Y103.532 E0.01571
G1 X127.782 Y116.544 E0.48437
G1 X127.185 Y116.544 E0.01571
G1 X140.794 Y102.935 E0.50659
G1 X140.794 Y102.338 E0.01571
G1 X126.588 Y116.544 E0.52881
G1 X125.991 Y116.544 E0.01571
G1 X140.794 Y101.741 E0.55102
G1 X140.794 Y101.144 E0.01571
G1 X125.394 Y116.544 E0.57324
G1 X124.797 Y116.544 E0.01571
G1 X140.794 Y100.547 E0.59546
G1 X140.794 Y99.950 E0.01571
G1 X124.200 Y116.544 E0.61768
G1 X123.603 Y116.544 E0.01571
G1 X140.794 Y99.353 E0.63990
G1 X140.794 Y98.756 E0.01571
G1 X123.006 Y116.544 E0.66212
G1 X122.409 Y116.544 E0.01571
G1 X140.794 Y98.160 E0.68434
G1 X140.794 Y97.563 E0.01571
G1 X121.813 Y116.544 E0.70655
G1 X121.216 Y116.544 E0.01571
G1 X140.794 Y96.966 E0.72877
G1 X140.794 Y96.369 E0.01571
G1 X120.619 Y116.544 E0.75099
G1 X120.022 Y116.544 E0.01571
G1 X140.794 Y95.772 E0.77321
G1 X140.794 Y95.175 E0.01571
G1 X119.425 Y116.544 E0.79543
G1 X118.828 Y116.544 E0.01571
G1 X140.794 Y94.578 E0.81765
G1 X140.794 Y93.981 E0.01571
G1 X118.231 Y116.544 E0.83986
G1 X117.634 Y116.544 E0.01571
G1 X140.722 Y93.456 E0.85941
G1 X140.125 Y93.456 E0.01571
G1 X117.037 Y116.544 E0.85941
G1 X116.441 Y116.544 E0.01571
G1 X139.528 Y93.456 E0.85941
G1 X138.931 Y93.456 E0.01571
G1 X115.844 Y116.544 E0.85941
G1 X115.247 Y116.544 E0.01571
G1 X138.335 Y93.456 E0.85941
G1 X137.738 Y93.456 E0.01571
G1 X114.650 Y116.544 E0.85941
G1 X114.053 Y116.544 E0.01571
G1 X137.141 Y93.456 E0.85941
G1 X136.544 Y93.456 E0.01571
G1 X113.456 Y116.544 E0.85941
G1 X112.859 Y116.544 E0.01571
G1 X135.947 Y93.456 E0.85941
G1 X135.350 Y93.456 E0.01571
G1 X112.262 Y116.544 E0.85941
G1 X111.665 Y116.544 E0.01571
G1 X134.753 Y93.456 E0.85941
G1 X134.156 Y93.456 E0.01571
G1 X111.069 Y116.544 E0.85941
G1 X110.472 Y116.544 E0.01571
G1 X133.559 Y93.456 E0.85941
G1 X132.962 Y93.456 E0.01571
G1 X109.875 Y116.544 E0.85941
G1 X109.278 Y116.544 E0.01571
G1 X132.366 Y93.456 E0.85941
G1 X131.769 Y93.456 E0.01571
G1 X109.206 Y116.019 E0.83986
G1 X109.206 Y115.422 E0.01571
G1 X131.172 Y93.456 E0.81764
G1 X130.575 Y93.456 E0.01571
G1 X109.206 Y114.825 E0.79543
G1 X109.206 Y114.228 E0.01571
G1 X129.978 Y93.456 E0.77321
G1 X129.381 Y93.456 E0.01571
G1 X109.206 Y113.631 E0.75099
G1 X109.206 Y113.034 E0.01571
G1 X128.784 Y93.456 E0.72877
G1 X128.187 Y93.456 E0.01571
G1 X109.206 Y112.437 E0.70655
G1 X109.206 Y111.840 E0.01571
G1 X127.590 Y93.456 E0.68433
G1 X126.994 Y93.456 E0.01571
G1 X109.206 Y111.244 E0.66211
G1 X109.206 Y110.647 E0.01571
G1 X126.397 Y93.456 E0.63990
G1 X125.800 Y93.456 E0.01571
G1 X109.206 Y110.050 E0.61768
G1 X109.206 Y109.453 E0.01571
G1 X125.203 Y93.456 E0.59546
G1 X124.606 Y93.456 E0.01571
G1 X109.206 Y108.856 E0.57324
G1 X109.206 Y108.259 E0.01571
G1 X124.009 Y93.456 E0.55102
G1 X123.412 Y93.456 E0.01571
G1 X109.206 Y107.662 E0.52880
G1 X109.206 Y107.065 E0.01571
G1 X122.815 Y93.456 E0.50658
G1 X122.218 Y93.456 E0.01571
G1 X109.206 Y106.468 E0.48437
G1 X109.206 Y105.872 E0.01571
G1 X121.622 Y93.456 E0.46215
G1 X121.025 Y93.456 E0.01571
G1 X109.206 Y105.275 E0.43993
G1 X109.206 Y104.678 E0.01571
G1 X120.428 Y93.456 E0.41771
G1 X119.831 Y93.456 E0.01571
G1 X109.206 Y104.081 E0.39549
G1 X109.206 Y103.484 E0.01571
G1 X119.234 Y93.456 E0.37327
G1 X118.637 Y93.456 E0.01571
G1 X109.206 Y102.887 E0.35105
G1 X109.206 Y102.290 E0.01571
G1 X118.040 Y93.456 E0.32884
G1 X117.443 Y93.456 E0.01571
G1 X109.206 Y101.693 E0.30662
G1 X109.206 Y101.096 E0.01571
G1 X116.846 Y93.456 E0.28440
G1 X116.250 Y93.456 E0.01571
G1 X109.206 Y100.500 E0.26218
G1 X109.206 Y99.903 E0.01571
G1 X115.653 Y93.456 E0.23996
G1 X115.056 Y93.456 E0.01571
G1 X109.206 Y99.306 E0.21774
G1 X109.206 Y98.709 E0.01571
G1 X114.459 Y93.456 E0.19552
G1 X113.862 Y93.456 E0.01571
G1 X109.206 Y98.112 E0.17331
G1 X109.206 Y97.515 E0.01571
G1 X113.265 Y93.456 E0.15109
G1 X112.668 Y93.456 E0.01571
G1 X109.206 Y96.918 E0.12887
G1 X109.206 Y96.321 E0.01571
G1 X112.071 Y93.456 E0.10665
G1 X111.474 Y93.456 E0.01571
G1 X109.206 Y95.724 E0.08443
G1 X109.206 Y95.127 E0.01571
G1 X110.877 Y93.456 E0.06221
