; generated by Slic3r Prusa Edition 1.41.2+win64 on 2019-03-09 at 13:01:15

; 

; external perimeters extrusion width = 0.45mm
; perimeters extrusion width = 0.45mm
; infill extrusion width = 0.45mm
; solid infill extrusion width = 0.45mm
; top infill extrusion width = 0.40mm
; first layer extrusion width = 0.42mm

M73 P0 R43
M73 Q0 S43
M201 X1000 Y1000 Z1000 E5000 ; sets maximum accelerations, mm/sec^2
M203 X200 Y200 Z12 E120 ; sets maximum feedrates, mm/sec
M204 P1250 R1250 T1250 ; sets acceleration (P, T) and retract acceleration (R), mm/sec^2
M205 X8.00 Y8.00 Z0.40 E1.50 ; sets the jerk limits, mm/sec
M205 S0 T0 ; sets the minimum extruding and travel feed rate, mm/sec
M107
M115 U3.5.1 ; tell printer latest fw version
M83  ; extruder relative mode
M104 S230 ; set extruder temp
M140 S85 ; set bed temp
M190 S85 ; wait for bed temp
M109 S230 ; wait for extruder temp
G28 W ; home all without mesh bed level
G80 ; mesh bed leveling
G1 Y-3.0 F1000.0 ; go outside print area
G92 E0.0
G1 X60.0 E9.0  F1000.0 ; intro line
M73 Q0 S43
M73 P0 R43
G1 X100.0 E12.5  F1000.0 ; intro line
G92 E0.0
M221 S95
M900 K45; Filament gcode
G21 ; set units to millimeters
G90 ; use absolute coordinates
M83 ; use relative distances for extrusion
;BEFORE_LAYER_CHANGE
G92 E0.0
;0.2


G1 E-0.80000 F2100.00000
G1 Z0.600 F10800.000
;AFTER_LAYER_CHANGE
;0.2
G1 X99.917 Y72.328
G1 Z0.200
G1 E0.80000 F2100.00000
M204 S1000
G1 F1200
G1 X100.218 Y71.729 E0.02100
G1 X100.561 Y71.351 E0.01601
G1 X100.979 Y71.064 E0.01589
G1 X101.452 Y70.881 E0.01589
G1 X101.958 Y70.812 E0.01601
G1 X148.004 Y70.811 E1.44374
G1 X148.823 Y70.972 E0.02620
G1 X149.526 Y71.431 E0.02631
G1 X150.004 Y72.121 E0.02631
G1 X150.188 Y72.939 E0.02631
G1 X150.188 Y135.393 E1.95820
G1 X150.083 Y136.051 E0.02089
G1 X149.782 Y136.650 E0.02100
G1 X149.439 Y137.028 E0.01601
G1 X149.014 Y137.318 E0.01612
G1 X148.534 Y137.501 E0.01612
G1 X148.024 Y137.567 E0.01612
G1 X101.982 Y137.567 E1.44363
G1 X101.324 Y137.460 E0.02089
G1 X100.729 Y137.160 E0.02089
G1 X100.349 Y136.815 E0.01612
G1 X100.059 Y136.390 E0.01612
G1 X99.877 Y135.909 E0.01612
G1 X99.812 Y135.396 E0.01623
G1 X99.812 Y72.985 E1.95683
G1 X99.908 Y72.387 E0.01901
; PURGING FINISHED
G1 F8640
G1 X100.218 Y71.729 E-0.16793
G1 X100.561 Y71.351 E-0.11788
G1 X100.979 Y71.064 E-0.11704
G1 X101.452 Y70.881 E-0.11704
G1 X101.958 Y70.812 E-0.11788
G1 X102.487 Y70.812 E-0.12223
G1 E-0.04000 F2100.00000
G1 Z0.800 F10800.000
G1 X128.587 Y101.587
G1 Z0.200
G1 E0.80000 F2100.00000
G1 F1200
G1 X147.413 Y101.587 E0.59027
G1 X147.413 Y106.392 E0.15064
G1 X141.587 Y106.392 E0.18267
G1 X141.587 Y102.413 E0.12475
G1 X134.413 Y102.413 E0.22494
G1 X134.413 Y106.392 E0.12475
G1 X128.587 Y106.392 E0.18267
G1 X128.587 Y101.647 E0.14876
G1 F8640
G1 X131.878 Y101.637 E-0.76000
G1 E-0.04000 F2100.00000
G1 Z0.800 F10800.000
G1 X141.210 Y102.790
G1 Z0.200
G1 E0.80000 F2100.00000
G1 F1200
G1 X134.790 Y102.790 E0.20129
G1 X134.790 Y106.769 E0.12475
G1 X128.210 Y106.769 E0.20631
G1 X128.210 Y101.210 E0.17429
G1 X147.790 Y101.210 E0.61392
G1 X147.790 Y106.769 E0.17429
G1 X141.210 Y106.769 E0.20631
G1 X141.210 Y102.850 E0.12287
G1 X141.076 Y102.413 F10800.000
G1 F8640
G1 X137.919 Y102.819 E-0.76000
G1 E-0.04000 F2100.00000
G1 Z0.800 F10800.000
G1 X142.452 Y106.278
G1 Z0.200
G1 E0.80000 F2100.00000
G1 F1200
G1 X141.870 Y105.696 E0.02619
G1 X141.870 Y105.155 E0.01719
G1 X142.823 Y106.109 E0.04287
G1 X143.364 Y106.109 E0.01719
G1 X141.870 Y104.615 E0.06719
G1 X141.870 Y104.074 E0.01719
G1 X143.905 Y106.109 E0.09150
G1 X144.446 Y106.109 E0.01719
G1 X141.870 Y103.533 E0.11582
G1 X141.870 Y102.992 E0.01719
G1 X145.156 Y106.278 E0.14777
G1 F8640
G1 X142.829 Y103.951 E-0.76000
G1 E-0.04000 F2100.00000
G1 Z0.800 F10800.000
G1 X147.300 Y102.474
G1 Z0.200
G1 E0.80000 F2100.00000
G1 F1200
G1 X146.696 Y101.870 E0.02715
G1 X146.155 Y101.870 E0.01719
G1 X147.130 Y102.845 E0.04384
G1 X147.130 Y103.386 E0.01719
G1 X145.614 Y101.870 E0.06815
G1 X145.074 Y101.870 E0.01719
G1 X147.130 Y103.926 E0.09247
G1 X147.130 Y104.467 E0.01719
G1 X144.533 Y101.870 E0.11679
G1 X143.992 Y101.870 E0.01719
G1 X147.130 Y105.008 E0.14110
G1 X147.130 Y105.549 E0.01719
G1 X143.451 Y101.870 E0.16542
G1 X142.911 Y101.870 E0.01719
G1 X147.130 Y106.089 E0.18974
G1 X147.130 Y106.109 E0.00062
G1 X146.609 Y106.109 E0.01658
G1 X142.370 Y101.870 E0.19061
G1 X141.829 Y101.870 E0.01719
G1 X146.068 Y106.109 E0.19061
G1 X145.527 Y106.109 E0.01719
G1 X141.288 Y101.870 E0.19061
G1 X140.747 Y101.870 E0.01719
G1 X141.008 Y102.130 E0.01170
G1 X140.467 Y102.130 E0.01719
G1 X140.207 Y101.870 E0.01170
G1 X139.666 Y101.870 E0.01719
G1 X139.926 Y102.130 E0.01170
G1 X139.385 Y102.130 E0.01719
G1 X139.125 Y101.870 E0.01170
G1 X138.584 Y101.870 E0.01719
G1 X138.845 Y102.130 E0.01170
G1 X138.304 Y102.130 E0.01719
G1 X138.044 Y101.870 E0.01170
G1 X137.503 Y101.870 E0.01719
G1 X137.763 Y102.130 E0.01170
G1 X137.222 Y102.130 E0.01719
G1 X136.962 Y101.870 E0.01170
G1 X136.421 Y101.870 E0.01719
G1 X136.682 Y102.130 E0.01170
G1 X136.141 Y102.130 E0.01719
G1 X135.880 Y101.870 E0.01170
G1 X135.340 Y101.870 E0.01719
G1 X135.600 Y102.130 E0.01170
G1 X135.059 Y102.130 E0.01719
G1 X134.799 Y101.870 E0.01170
G1 X134.258 Y101.870 E0.01719
G1 X134.518 Y102.130 E0.01170
G1 X134.130 Y102.130 E0.01235
G1 X134.130 Y102.283 E0.00485
G1 X133.717 Y101.870 E0.01856
G1 X133.177 Y101.870 E0.01719
G1 X134.130 Y102.823 E0.04288
G1 X134.130 Y103.364 E0.01719
G1 X132.636 Y101.870 E0.06719
G1 X132.095 Y101.870 E0.01719
G1 X134.130 Y103.905 E0.09151
G1 X134.130 Y104.446 E0.01719
G1 X131.554 Y101.870 E0.11583
G1 X131.013 Y101.870 E0.01719
G1 X134.130 Y104.987 E0.14014
G1 X134.130 Y105.527 E0.01719
G1 X130.473 Y101.870 E0.16446
G1 X129.932 Y101.870 E0.01719
G1 X134.130 Y106.068 E0.18877
G1 X134.130 Y106.109 E0.00130
G1 X133.630 Y106.109 E0.01590
G1 X129.391 Y101.870 E0.19061
G1 X128.870 Y101.870 E0.01657
G1 X128.870 Y101.889 E0.00062
G1 X133.089 Y106.109 E0.18973
G1 X132.549 Y106.109 E0.01719
G1 X128.870 Y102.430 E0.16541
G1 X128.870 Y102.971 E0.01719
G1 X132.008 Y106.109 E0.14110
G1 X131.467 Y106.109 E0.01719
G1 X128.870 Y103.512 E0.11678
G1 X128.870 Y104.052 E0.01719
G1 X130.926 Y106.109 E0.09247
G1 X130.385 Y106.109 E0.01719
G1 X128.870 Y104.593 E0.06815
G1 X128.870 Y105.134 E0.01719
G1 X129.845 Y106.109 E0.04383
G1 X129.304 Y106.109 E0.01719
G1 X128.700 Y105.505 E0.02715
G1 F8640
G1 X129.304 Y106.109 E-0.19715
G1 X129.845 Y106.109 E-0.12487
G1 X128.870 Y105.134 E-0.31832
G1 X128.870 Y104.616 E-0.11967
G1 E-0.04000 F2100.00000
G1 Z0.800 F10800.000
G1 X128.700 Y92.392
G1 Z0.200
G1 E0.80000 F2100.00000
G1 F1200
G1 X128.587 Y92.392 E0.00355
G1 X128.587 Y87.587 E0.15064
G1 X147.413 Y87.587 E0.59027
G1 X147.413 Y92.392 E0.15064
G1 X141.587 Y92.392 E0.18267
G1 X141.587 Y88.413 E0.12475
G1 X134.413 Y88.413 E0.22494
G1 X134.413 Y92.392 E0.12475
G1 X128.760 Y92.392 E0.17724
G1 F8640
G1 X128.587 Y92.392 E-0.03997
G1 X128.587 Y89.273 E-0.72003
G1 E-0.04000 F2100.00000
G1 Z0.800 F10800.000
G1 X141.210 Y88.790
G1 Z0.200
G1 E0.80000 F2100.00000
G1 F1200
G1 X134.790 Y88.790 E0.20129
G1 X134.790 Y92.769 E0.12475
G1 X128.210 Y92.769 E0.20631
G1 X128.210 Y87.210 E0.17429
G1 X147.790 Y87.210 E0.61392
G1 X147.790 Y92.769 E0.17429
G1 X141.210 Y92.769 E0.20631
G1 X141.210 Y88.850 E0.12287
G1 X141.076 Y88.413 F10800.000
G1 F8640
G1 X137.919 Y88.819 E-0.76000
G1 E-0.04000 F2100.00000
G1 Z0.800 F10800.000
G1 X142.452 Y92.279
G1 Z0.200
G1 E0.80000 F2100.00000
G1 F1200
G1 X141.870 Y91.696 E0.02619
G1 X141.870 Y91.155 E0.01719
G1 X142.823 Y92.109 E0.04287
G1 X143.364 Y92.109 E0.01719
G1 X141.870 Y90.615 E0.06719
G1 X141.870 Y90.074 E0.01719
G1 X143.905 Y92.109 E0.09150
G1 X144.446 Y92.109 E0.01719
G1 X141.870 Y89.533 E0.11582
G1 X141.870 Y88.992 E0.01719
G1 X145.156 Y92.279 E0.14777
G1 F8640
G1 X142.829 Y89.951 E-0.76000
G1 E-0.04000 F2100.00000
G1 Z0.800 F10800.000
G1 X147.300 Y88.474
G1 Z0.200
G1 E0.80000 F2100.00000
G1 F1200
G1 X146.696 Y87.870 E0.02715
G1 X146.155 Y87.870 E0.01719
G1 X147.130 Y88.845 E0.04384
G1 X147.130 Y89.386 E0.01719
G1 X145.614 Y87.870 E0.06815
G1 X145.074 Y87.870 E0.01719
G1 X147.130 Y89.926 E0.09247
G1 X147.130 Y90.467 E0.01719
G1 X144.533 Y87.870 E0.11679
G1 X143.992 Y87.870 E0.01719
G1 X147.130 Y91.008 E0.14110
G1 X147.130 Y91.549 E0.01719
G1 X143.451 Y87.870 E0.16542
G1 X142.911 Y87.870 E0.01719
G1 X147.130 Y92.089 E0.18974
G1 X147.130 Y92.109 E0.00062
G1 X146.609 Y92.109 E0.01658
G1 X142.370 Y87.870 E0.19061
G1 X141.829 Y87.870 E0.01719
G1 X146.068 Y92.109 E0.19061
G1 X145.527 Y92.109 E0.01719
G1 X141.288 Y87.870 E0.19061
G1 X140.747 Y87.870 E0.01719
G1 X141.008 Y88.130 E0.01170
G1 X140.467 Y88.130 E0.01719
G1 X140.207 Y87.870 E0.01170
G1 X139.666 Y87.870 E0.01719
G1 X139.926 Y88.130 E0.01170
G1 X139.385 Y88.130 E0.01719
G1 X139.125 Y87.870 E0.01170
G1 X138.584 Y87.870 E0.01719
G1 X138.845 Y88.130 E0.01170
G1 X138.304 Y88.130 E0.01719
G1 X138.044 Y87.870 E0.01170
G1 X137.503 Y87.870 E0.01719
G1 X137.763 Y88.130 E0.01170
G1 X137.222 Y88.130 E0.01719
G1 X136.962 Y87.870 E0.01170
G1 X136.421 Y87.870 E0.01719
G1 X136.682 Y88.130 E0.01170
G1 X136.141 Y88.130 E0.01719
G1 X135.880 Y87.870 E0.01170
G1 X135.340 Y87.870 E0.01719
G1 X135.600 Y88.130 E0.01170
G1 X135.059 Y88.130 E0.01719
G1 X134.799 Y87.870 E0.01170
G1 X134.258 Y87.870 E0.01719
G1 X134.518 Y88.130 E0.01170
G1 X134.130 Y88.130 E0.01235
G1 X134.130 Y88.283 E0.00485
G1 X133.717 Y87.870 E0.01856
G1 X133.177 Y87.870 E0.01719
G1 X134.130 Y88.823 E0.04288
G1 X134.130 Y89.364 E0.01719
G1 X132.636 Y87.870 E0.06719
G1 X132.095 Y87.870 E0.01719
G1 X134.130 Y89.905 E0.09151
G1 X134.130 Y90.446 E0.01719
G1 X131.554 Y87.870 E0.11583
G1 X131.013 Y87.870 E0.01719
G1 X134.130 Y90.987 E0.14014
G1 X134.130 Y91.527 E0.01719
G1 X130.473 Y87.870 E0.16446
G1 X129.932 Y87.870 E0.01719
G1 X134.130 Y92.068 E0.18877
G1 X134.130 Y92.109 E0.00130
G1 X133.630 Y92.109 E0.01590
G1 X129.391 Y87.870 E0.19061
G1 X128.870 Y87.870 E0.01657
G1 X128.870 Y87.889 E0.00062
G1 X133.089 Y92.109 E0.18973
G1 X132.549 Y92.109 E0.01719
G1 X128.870 Y88.430 E0.16541
G1 X128.870 Y88.971 E0.01719
G1 X132.008 Y92.109 E0.14110
G1 X131.467 Y92.109 E0.01719
G1 X128.870 Y89.512 E0.11678
G1 X128.870 Y90.052 E0.01719
G1 X130.926 Y92.109 E0.09247
G1 X130.385 Y92.109 E0.01719
G1 X128.870 Y90.593 E0.06815
G1 X128.870 Y91.134 E0.01719
G1 X129.845 Y92.109 E0.04383
G1 X129.304 Y92.109 E0.01719
G1 X128.700 Y91.505 E0.02715
G1 F8640
G1 X129.304 Y92.109 E-0.19715
G1 X129.845 Y92.109 E-0.12487
G1 X128.870 Y91.134 E-0.31832
G1 X128.870 Y90.616 E-0.11967
G1 E-0.04000 F2100.00000
G1 Z0.800 F10800.000
G1 X128.700 Y78.392
G1 Z0.200
G1 E0.80000 F2100.00000
G1 F1200
G1 X128.587 Y78.392 E0.00355
G1 X128.587 Y73.587 E0.15064
G1 X147.413 Y73.587 E0.59027
G1 X147.413 Y78.392 E0.15064
G1 X141.587 Y78.392 E0.18267
G1 X141.587 Y74.413 E0.12475
G1 X134.413 Y74.413 E0.22494
G1 X134.413 Y78.392 E0.12475
G1 X128.760 Y78.392 E0.17724
G1 F8640
G1 X128.587 Y78.392 E-0.03997
G1 X128.587 Y75.273 E-0.72003
G1 E-0.04000 F2100.00000
G1 Z0.800 F10800.000
G1 X141.210 Y74.790
G1 Z0.200
G1 E0.80000 F2100.00000
G1 F1200
G1 X134.790 Y74.790 E0.20129
G1 X134.790 Y78.769 E0.12475
G1 X128.210 Y78.769 E0.20631
G1 X128.210 Y73.210 E0.17429
G1 X147.790 Y73.210 E0.61392
G1 X147.790 Y78.769 E0.17429
G1 X141.210 Y78.769 E0.20631
G1 X141.210 Y74.850 E0.12287
G1 X141.076 Y74.413 F10800.000
G1 F8640
G1 X137.919 Y74.819 E-0.76000
G1 E-0.04000 F2100.00000
G1 Z0.800 F10800.000
G1 X142.452 Y78.279
G1 Z0.200
G1 E0.80000 F2100.00000
G1 F1200
G1 X141.870 Y77.696 E0.02619
G1 X141.870 Y77.155 E0.01719
G1 X142.823 Y78.109 E0.04287
G1 X143.364 Y78.109 E0.01719
G1 X141.870 Y76.615 E0.06719
G1 X141.870 Y76.074 E0.01719
G1 X143.905 Y78.109 E0.09150
G1 X144.446 Y78.109 E0.01719
G1 X141.870 Y75.533 E0.11582
G1 X141.870 Y74.992 E0.01719
G1 X145.156 Y78.279 E0.14777
G1 F8640
G1 X142.829 Y75.951 E-0.76000
G1 E-0.04000 F2100.00000
G1 Z0.800 F10800.000
G1 X147.300 Y74.474
G1 Z0.200
G1 E0.80000 F2100.00000
G1 F1200
G1 X146.696 Y73.870 E0.02715
G1 X146.155 Y73.870 E0.01719
G1 X147.130 Y74.845 E0.04384
G1 X147.130 Y75.386 E0.01719
G1 X145.614 Y73.870 E0.06815
G1 X145.074 Y73.870 E0.01719
G1 X147.130 Y75.926 E0.09247
G1 X147.130 Y76.467 E0.01719
G1 X144.533 Y73.870 E0.11679
G1 X143.992 Y73.870 E0.01719
G1 X147.130 Y77.008 E0.14110
G1 X147.130 Y77.549 E0.01719
G1 X143.451 Y73.870 E0.16542
G1 X142.911 Y73.870 E0.01719
G1 X147.130 Y78.089 E0.18974
G1 X147.130 Y78.109 E0.00062
G1 X146.609 Y78.109 E0.01658
G1 X142.370 Y73.870 E0.19061
G1 X141.829 Y73.870 E0.01719
G1 X146.068 Y78.109 E0.19061
G1 X145.527 Y78.109 E0.01719
G1 X141.288 Y73.870 E0.19061
G1 X140.747 Y73.870 E0.01719
G1 X141.008 Y74.130 E0.01170
G1 X140.467 Y74.130 E0.01719
G1 X140.207 Y73.870 E0.01170
G1 X139.666 Y73.870 E0.01719
G1 X139.926 Y74.130 E0.01170
G1 X139.385 Y74.130 E0.01719
G1 X139.125 Y73.870 E0.01170
G1 X138.584 Y73.870 E0.01719
G1 X138.845 Y74.130 E0.01170
G1 X138.304 Y74.130 E0.01719
G1 X138.044 Y73.870 E0.01170
G1 X137.503 Y73.870 E0.01719
G1 X137.763 Y74.130 E0.01170
G1 X137.222 Y74.130 E0.01719
G1 X136.962 Y73.870 E0.01170
G1 X136.421 Y73.870 E0.01719
G1 X136.682 Y74.130 E0.01170
G1 X136.141 Y74.130 E0.01719
G1 X135.880 Y73.870 E0.01170
G1 X135.340 Y73.870 E0.01719
G1 X135.600 Y74.130 E0.01170
G1 X135.059 Y74.130 E0.01719
G1 X134.799 Y73.870 E0.01170
G1 X134.258 Y73.870 E0.01719
G1 X134.518 Y74.130 E0.01170
G1 X134.130 Y74.130 E0.01235
G1 X134.130 Y74.283 E0.00485
G1 X133.717 Y73.870 E0.01856
G1 X133.177 Y73.870 E0.01719
G1 X134.130 Y74.823 E0.04288
G1 X134.130 Y75.364 E0.01719
G1 X132.636 Y73.870 E0.06719
G1 X132.095 Y73.870 E0.01719
G1 X134.130 Y75.905 E0.09151
G1 X134.130 Y76.446 E0.01719
G1 X131.554 Y73.870 E0.11583
G1 X131.013 Y73.870 E0.01719
G1 X134.130 Y76.987 E0.14014
G1 X134.130 Y77.527 E0.01719
G1 X130.473 Y73.870 E0.16446
G1 X129.932 Y73.870 E0.01719
G1 X134.130 Y78.068 E0.18877
M73 Q2 S42
G1 X134.130 Y78.109 E0.00130
G1 X133.630 Y78.109 E0.01590
G1 X129.391 Y73.870 E0.19061
M73 P2 R42
G1 X128.870 Y73.870 E0.01657
G1 X128.870 Y73.889 E0.00062
G1 X133.089 Y78.109 E0.18973
G1 X132.549 Y78.109 E0.01719
G1 X128.870 Y74.430 E0.16541
G1 X128.870 Y74.971 E0.01719
G1 X132.008 Y78.109 E0.14110
G1 X131.467 Y78.109 E0.01719
G1 X128.870 Y75.512 E0.11678
G1 X128.870 Y76.052 E0.01719
G1 X130.926 Y78.109 E0.09247
G1 X130.385 Y78.109 E0.01719
G1 X128.870 Y76.593 E0.06815
G1 X128.870 Y77.134 E0.01719
G1 X129.845 Y78.109 E0.04383
G1 X129.304 Y78.109 E0.01719
G1 X128.700 Y77.505 E0.02715
G1 F8640
G1 X129.304 Y78.109 E-0.19715
G1 X129.845 Y78.109 E-0.12487
G1 X128.870 Y77.134 E-0.31832
G1 X128.870 Y76.616 E-0.11967
G1 E-0.04000 F2100.00000
G1 Z0.800 F10800.000
G1 X115.587 Y74.413
G1 Z0.200
G1 E0.80000 F2100.00000
G1 F1200
G1 X108.413 Y74.413 E0.22494
G1 X108.413 Y78.392 E0.12475
G1 X102.587 Y78.392 E0.18267
G1 X102.587 Y73.587 E0.15064
G1 X121.413 Y73.587 E0.59027
G1 X121.413 Y78.392 E0.15064
G1 X115.587 Y78.392 E0.18267
G1 X115.587 Y74.473 E0.12287
G1 X115.210 Y74.790 F10800.000
G1 F1200
G1 X108.790 Y74.790 E0.20129
G1 X108.790 Y78.769 E0.12475
G1 X102.210 Y78.769 E0.20631
G1 X102.210 Y73.210 E0.17429
G1 X121.790 Y73.210 E0.61392
G1 X121.790 Y78.769 E0.17429
G1 X115.210 Y78.769 E0.20631
G1 X115.210 Y74.850 E0.12287
G1 X115.076 Y74.413 F10800.000
G1 F8640
G1 X111.919 Y74.819 E-0.76000
G1 E-0.04000 F2100.00000
G1 Z0.800 F10800.000
G1 X116.452 Y78.279
G1 Z0.200
G1 E0.80000 F2100.00000
G1 F1200
G1 X115.870 Y77.696 E0.02619
G1 X115.870 Y77.155 E0.01719
G1 X116.823 Y78.109 E0.04287
G1 X117.364 Y78.109 E0.01719
G1 X115.870 Y76.615 E0.06719
G1 X115.870 Y76.074 E0.01719
G1 X117.905 Y78.109 E0.09150
G1 X118.446 Y78.109 E0.01719
G1 X115.870 Y75.533 E0.11582
G1 X115.870 Y74.992 E0.01719
G1 X119.156 Y78.279 E0.14777
G1 F8640
G1 X116.829 Y75.951 E-0.76000
G1 E-0.04000 F2100.00000
G1 Z0.800 F10800.000
G1 X121.300 Y74.474
G1 Z0.200
G1 E0.80000 F2100.00000
G1 F1200
G1 X120.696 Y73.870 E0.02715
G1 X120.155 Y73.870 E0.01719
G1 X121.130 Y74.845 E0.04384
G1 X121.130 Y75.386 E0.01719
G1 X119.614 Y73.870 E0.06815
G1 X119.074 Y73.870 E0.01719
G1 X121.130 Y75.926 E0.09247
