; generated by PrusaSlicer 2.0.0+win64 on 2020-03-04 at 14:16:13

; 

; external perimeters extrusion width = 0.45mm
; perimeters extrusion width = 0.45mm
; infill extrusion width = 0.45mm
; solid infill extrusion width = 0.45mm
; top infill extrusion width = 0.40mm
; first layer extrusion width = 0.42mm

M73 P0 R151
M73 Q0 S152
M201 X1000 Y1000 Z1000 E5000 ; sets maximum accelerations, mm/sec^2
M203 X200 Y200 Z12 E120 ; sets maximum feedrates, mm/sec
M204 P1250 R1250 T1250 ; sets acceleration (P, T) and retract acceleration (R), mm/sec^2
M205 X8.00 Y8.00 Z0.40 E1.50 ; sets the jerk limits, mm/sec
M205 S0 T0 ; sets the minimum extruding and travel feed rate, mm/sec
M107
M115 U3.8.1 ; tell printer latest fw version
G90 ; use absolute coordinates
M83 ; extruder relative mode
M104 S230 ; set extruder temp
M140 S85 ; set bed temp
M190 S85 ; wait for bed temp
M109 S230 ; wait for extruder temp
G28 W ; home all without mesh bed level
G80 ; mesh bed leveling
G1 Y-3.0 F1000.0 ; go outside print area
G92 E0.0
G1 X60.0 E9.0 F1000.0 ; intro line
M73 Q0 S152
M73 P0 R151
G1 X100.0 E12.5 F1000.0 ; intro line
G92 E0.0
M221 S95
M900 K45 ; Filament gcode
G21 ; set units to millimeters
G90 ; use absolute coordinates
M83 ; use relative distances for extrusion
;BEFORE_LAYER_CHANGE
G92 E0.0
;0.2


G1 E-0.80000 F2100.00000
G1 Z0.600 F10800.000
;AFTER_LAYER_CHANGE
;0.2
G1 X77.344 Y65.401
G1 Z0.200
G1 E0.80000 F2100.00000
M204 S1000
G1 F1200
G1 X80.815 Y61.567 E0.17350
G1 X84.411 Y58.188 E0.16555
G1 X88.267 Y55.109 E0.16555
G1 X92.459 Y52.281 E0.16966
G1 X96.965 Y49.752 E0.17336
G1 X101.566 Y47.651 E0.16967
G1 X106.318 Y45.934 E0.16953
G1 X111.309 Y44.586 E0.17345
G1 X116.159 Y43.688 E0.16545
G1 X121.067 Y43.183 E0.16555
G1 X126.183 Y43.070 E0.17165
G1 X131.285 Y43.380 E0.17152
G1 X136.399 Y44.122 E0.17336
G1 X141.209 Y45.222 E0.16555
G1 X145.915 Y46.707 E0.16555
G1 X150.601 Y48.609 E0.16966
G1 X155.213 Y50.939 E0.17336
G1 X159.519 Y53.584 E0.16953
G1 X163.598 Y56.573 E0.16967
G1 X167.501 Y59.964 E0.17345
G1 X170.951 Y63.489 E0.16545
G1 X174.107 Y67.281 E0.16555
G1 X177.020 Y71.415 E0.16966
G1 X179.639 Y75.865 E0.17322
G1 X181.835 Y80.425 E0.16981
G1 X183.683 Y85.251 E0.17336
G1 X185.071 Y89.986 E0.16555
G1 X186.073 Y94.818 E0.16555
G1 X186.712 Y99.945 E0.17336
G1 X186.918 Y104.999 E0.16967
G1 X186.712 Y110.052 E0.16967
G1 X186.073 Y115.182 E0.17345
G1 X185.072 Y120.011 E0.16545
G1 X183.683 Y124.751 E0.16569
G1 X181.834 Y129.576 E0.17336
G1 X179.640 Y134.132 E0.16967
G1 X177.020 Y138.586 E0.17336
G1 X174.107 Y142.719 E0.16961
G1 X170.952 Y146.509 E0.16545
G1 X167.501 Y150.036 E0.16555
G1 X163.597 Y153.428 E0.17350
G1 X159.521 Y156.415 E0.16953
G1 X155.212 Y159.062 E0.16967
G1 X150.600 Y161.392 E0.17336
G1 X146.030 Y163.255 E0.16555
G1 X141.326 Y164.743 E0.16555
G1 X136.398 Y165.878 E0.16966
G1 X131.284 Y166.621 E0.17336
G1 X126.177 Y166.930 E0.17166
G1 X121.070 Y166.817 E0.17137
G1 X116.161 Y166.312 E0.16555
G1 X111.309 Y165.414 E0.16555
G1 X106.321 Y164.067 E0.17336
G1 X101.561 Y162.347 E0.16981
G1 X96.863 Y160.194 E0.17336
G1 X92.558 Y157.783 E0.16555
G1 X88.461 Y155.033 E0.16555
G1 X84.416 Y151.817 E0.17336
G1 X80.732 Y148.352 E0.16967
G1 X77.343 Y144.598 E0.16967
G1 X74.208 Y140.487 E0.17345
G1 X71.544 Y136.337 E0.16545
G1 X69.221 Y131.983 E0.16555
G1 X67.163 Y127.239 E0.17350
G1 X65.541 Y122.449 E0.16967
G1 X64.296 Y117.434 E0.17336
G1 X63.484 Y112.443 E0.16961
G1 X63.084 Y107.528 E0.16545
G1 X63.082 Y102.593 E0.16555
G1 X63.496 Y97.439 E0.17350
G1 X64.317 Y92.453 E0.16953
G1 X65.543 Y87.546 E0.16967
G1 X67.207 Y82.651 E0.17345
G1 X69.166 Y78.125 E0.16545
G1 X71.485 Y73.769 E0.16555
G1 X74.211 Y69.510 E0.16966
G1 X77.307 Y65.448 E0.17135
G1 X77.607 Y65.677 F10800.000
G1 F1200
G1 X81.072 Y61.842 E0.17340
G1 X84.739 Y58.405 E0.16861
G1 X88.584 Y55.341 E0.16492
G1 X92.666 Y52.596 E0.16504
G1 X97.136 Y50.089 E0.17194
G1 X101.708 Y48.001 E0.16863
G1 X106.431 Y46.294 E0.16850
G1 X111.378 Y44.957 E0.17193
G1 X116.212 Y44.061 E0.16492
G1 X121.106 Y43.558 E0.16504
G1 X126.182 Y43.447 E0.17035
G1 X131.246 Y43.755 E0.17022
G1 X136.314 Y44.490 E0.17181
G1 X141.212 Y45.616 E0.16861
G1 X145.899 Y47.099 E0.16492
G1 X150.455 Y48.956 E0.16504
G1 X155.029 Y51.268 E0.17194
G1 X159.308 Y53.896 E0.16849
G1 X163.363 Y56.867 E0.16863
G1 X167.231 Y60.228 E0.17193
G1 X170.670 Y63.741 E0.16492
G1 X173.817 Y67.522 E0.16504
G1 X176.712 Y71.631 E0.16862
G1 X179.308 Y76.046 E0.17181
G1 X181.488 Y80.574 E0.16863
G1 X183.322 Y85.360 E0.17193
G1 X184.705 Y90.077 E0.16492
G1 X185.704 Y94.894 E0.16504
G1 X186.336 Y99.980 E0.17194
G1 X186.541 Y105.002 E0.16863
G1 X186.326 Y110.119 E0.17181
G1 X185.723 Y115.001 E0.16504
G1 X184.753 Y119.701 E0.16101
G1 X183.292 Y124.735 E0.17583
G1 X181.488 Y129.426 E0.16863
G1 X179.307 Y133.955 E0.16863
G1 X176.711 Y138.369 E0.17181
G1 X173.817 Y142.478 E0.16861
G1 X170.673 Y146.256 E0.16492
G1 X167.231 Y149.772 E0.16504
G1 X163.362 Y153.133 E0.17194
G1 X159.311 Y156.102 E0.16850
G1 X155.028 Y158.732 E0.16863
G1 X150.455 Y161.044 E0.17193
G1 X145.903 Y162.900 E0.16493
G1 X141.212 Y164.384 E0.16504
G1 X136.314 Y165.511 E0.16862
G1 X131.246 Y166.245 E0.17181
G1 X126.178 Y166.553 E0.17035
G1 X121.106 Y166.442 E0.17020
G1 X116.216 Y165.939 E0.16492
G1 X111.378 Y165.043 E0.16504
G1 X106.431 Y163.706 E0.17194
G1 X101.704 Y161.998 E0.16863
G1 X97.048 Y159.865 E0.17181
G1 X92.752 Y157.459 E0.16518
G1 X88.671 Y154.720 E0.16491
G1 X84.660 Y151.529 E0.17194
G1 X81.001 Y148.088 E0.16850
G1 X77.633 Y144.358 E0.16863
G1 X74.526 Y140.283 E0.17193
G1 X71.868 Y136.143 E0.16506
G1 X69.554 Y131.806 E0.16491
G1 X67.515 Y127.104 E0.17194
G1 X65.903 Y122.343 E0.16863
G1 X64.668 Y117.373 E0.17181
G1 X63.860 Y112.413 E0.16861
G1 X63.461 Y107.513 E0.16492
G1 X63.459 Y102.593 E0.16504
G1 X63.870 Y97.485 E0.17194
G1 X64.686 Y92.529 E0.16850
G1 X65.904 Y87.653 E0.16863
G1 X67.554 Y82.801 E0.17193
G1 X69.506 Y78.289 E0.16492
G1 X71.818 Y73.947 E0.16504
G1 X74.528 Y69.714 E0.16862
G1 X77.570 Y65.724 E0.16833
G1 X77.870 Y65.953 F10800.000
G1 F1200
G1 X81.331 Y62.116 E0.17335
G1 X84.974 Y58.700 E0.16756
G1 X88.807 Y55.646 E0.16442
G1 X92.876 Y52.909 E0.16452
G1 X97.306 Y50.425 E0.17040
G1 X101.850 Y48.350 E0.16759
G1 X106.545 Y46.653 E0.16746
G1 X111.447 Y45.327 E0.17038
G1 X116.266 Y44.434 E0.16442
G1 X121.144 Y43.933 E0.16452
G1 X126.182 Y43.824 E0.16905
G1 X131.208 Y44.130 E0.16893
G1 X136.231 Y44.857 E0.17028
G1 X141.099 Y45.976 E0.16756
G1 X145.771 Y47.454 E0.16442
G1 X150.312 Y49.306 E0.16452
G1 X154.845 Y51.597 E0.17040
G1 X159.101 Y54.212 E0.16759
G1 X163.128 Y57.162 E0.16746
G1 X166.962 Y60.492 E0.17038
G1 X170.391 Y63.994 E0.16442
G1 X173.527 Y67.764 E0.16452
G1 X176.401 Y71.845 E0.16746
G1 X178.975 Y76.223 E0.17040
G1 X181.142 Y80.724 E0.16759
G1 X182.959 Y85.463 E0.17028
G1 X184.339 Y90.169 E0.16452
G1 X185.335 Y94.971 E0.16452
G1 X185.960 Y100.011 E0.17040
G1 X186.164 Y105.002 E0.16759
G1 X185.952 Y110.073 E0.17028
G1 X185.351 Y114.940 E0.16452
G1 X184.384 Y119.625 E0.16048
G1 X182.935 Y124.614 E0.17430
G1 X181.142 Y129.277 E0.16759
G1 X178.975 Y133.777 E0.16759
G1 X176.401 Y138.155 E0.17038
G1 X173.527 Y142.236 E0.16746
G1 X170.393 Y146.004 E0.16442
G1 X166.962 Y149.508 E0.16452
G1 X163.127 Y152.838 E0.17040
G1 X159.101 Y155.789 E0.16746
G1 X154.844 Y158.403 E0.16759
G1 X150.312 Y160.694 E0.17038
G1 X145.774 Y162.545 E0.16442
G1 X141.099 Y164.024 E0.16452
G1 X136.231 Y165.143 E0.16758
G1 X131.207 Y165.870 E0.17028
G1 X126.178 Y166.176 E0.16906
G1 X121.144 Y166.067 E0.16891
G1 X116.269 Y165.566 E0.16442
G1 X111.447 Y164.673 E0.16452
G1 X106.544 Y163.347 E0.17040
G1 X101.846 Y161.649 E0.16759
G1 X97.229 Y159.534 E0.17038
G1 X92.953 Y157.140 E0.16442
G1 X88.881 Y154.407 E0.16452
G1 X84.907 Y151.244 E0.17040
G1 X81.271 Y147.824 E0.16746
G1 X77.923 Y144.117 E0.16759
G1 X74.843 Y140.079 E0.17038
G1 X72.195 Y135.955 E0.16442
G1 X69.887 Y131.628 E0.16452
G1 X67.867 Y126.968 E0.17040
G1 X66.265 Y122.237 E0.16759
G1 X65.039 Y117.308 E0.17038
G1 X64.245 Y112.472 E0.16442
G1 X63.873 Y107.945 E0.15241
G1 X63.836 Y102.593 E0.17953
G1 X64.245 Y97.531 E0.17040
G1 X65.055 Y92.606 E0.16746
G1 X66.266 Y87.759 E0.16759
M73 Q0 S151
M73 P0 R150
G1 X67.900 Y82.950 E0.17038
G1 X69.846 Y78.453 E0.16442
G1 X72.150 Y74.124 E0.16452
G1 X74.845 Y69.918 E0.16758
G1 X77.834 Y66.001 E0.16531
G1 F8640
G1 X80.036 Y63.555 E-0.76000
G1 E-0.04000 F2100.00000
G1 Z0.800 F10800.000
G1 X80.037 Y67.685
G1 Z0.200
G1 E0.80000 F2100.00000
G1 F1200
G1 X83.172 Y64.208 E0.15707
G1 X86.724 Y60.854 E0.16389
G1 X90.449 Y57.884 E0.15985
G1 X94.404 Y55.226 E0.15987
G1 X98.563 Y52.900 E0.15987
G1 X102.789 Y50.970 E0.15585
G1 X107.379 Y49.301 E0.16389
G1 X111.977 Y48.052 E0.15985
G1 X116.662 Y47.182 E0.15987
G1 X121.403 Y46.697 E0.15987
G1 X126.167 Y46.600 E0.15987
G1 X130.804 Y46.884 E0.15585
G1 X135.640 Y47.569 E0.16389
G1 X140.285 Y48.630 E0.15985
G1 X144.829 Y50.065 E0.15987
G1 X149.241 Y51.866 E0.15987
G1 X153.491 Y54.021 E0.15987
G1 X157.551 Y56.515 E0.15987
G1 X161.298 Y59.261 E0.15585
G1 X164.997 Y62.452 E0.16389
G1 X168.331 Y65.855 E0.15985
G1 X171.378 Y69.520 E0.15987
G1 X174.115 Y73.420 E0.15987
G1 X176.465 Y77.427 E0.15585
G1 X178.593 Y81.824 E0.16389
G1 X180.304 Y86.271 E0.15985
G1 X181.646 Y90.843 E0.15987
G1 X182.612 Y95.509 E0.15987
G1 X183.179 Y100.120 E0.15585
G1 X183.388 Y105.001 E0.16389
G1 X183.194 Y109.761 E0.15985
G1 X182.612 Y114.491 E0.15987
G1 X181.646 Y119.157 E0.15987
G1 X180.338 Y123.614 E0.15585
G1 X178.593 Y128.177 E0.16389
G1 X176.526 Y132.470 E0.15985
G1 X174.115 Y136.580 E0.15987
G1 X171.378 Y140.480 E0.15987
G1 X168.331 Y144.145 E0.15987
G1 X164.996 Y147.548 E0.15987
G1 X161.395 Y150.669 E0.15987
G1 X157.551 Y153.485 E0.15987
G1 X153.491 Y155.979 E0.15987
G1 X149.241 Y158.134 E0.15987
G1 X144.829 Y159.935 E0.15987
G1 X140.285 Y161.370 E0.15987
G1 X135.640 Y162.431 E0.15987
G1 X130.923 Y163.109 E0.15987
G1 X126.167 Y163.400 E0.15987
G1 X121.403 Y163.303 E0.15987
G1 X116.662 Y162.818 E0.15987
G1 X111.977 Y161.948 E0.15987
G1 X107.379 Y160.699 E0.15987
G1 X102.897 Y159.079 E0.15987
G1 X98.563 Y157.100 E0.15987
G1 X94.404 Y154.774 E0.15987
G1 X90.449 Y152.116 E0.15987
G1 X86.723 Y149.145 E0.15987
G1 X83.252 Y145.880 E0.15987
G1 X80.059 Y142.344 E0.15987
G1 X77.165 Y138.558 E0.15987
G1 X74.589 Y134.550 E0.15987
G1 X72.348 Y130.344 E0.15987
G1 X70.457 Y125.970 E0.15987
G1 X68.929 Y121.457 E0.15987
G1 X67.774 Y116.834 E0.15987
G1 X67.000 Y112.132 E0.15987
G1 X66.612 Y107.383 E0.15987
G1 X66.612 Y102.617 E0.15987
G1 X67.000 Y97.868 E0.15987
G1 X67.774 Y93.166 E0.15987
G1 X68.900 Y88.659 E0.15585
G1 X70.457 Y84.029 E0.16389
G1 X72.348 Y79.656 E0.15985
G1 X74.589 Y75.450 E0.15987
G1 X77.165 Y71.442 E0.15987
G1 X80.001 Y67.733 E0.15663
G1 X79.701 Y67.504 F10800.000
G1 F1200
G1 X82.902 Y63.945 E0.16061
G1 X86.476 Y60.569 E0.16492
G1 X90.226 Y57.579 E0.16089
G1 X94.207 Y54.905 E0.16090
G1 X98.392 Y52.564 E0.16090
G1 X102.646 Y50.621 E0.15687
G1 X107.265 Y48.941 E0.16492
G1 X111.893 Y47.684 E0.16089
G1 X116.609 Y46.809 E0.16090
G1 X121.380 Y46.320 E0.16090
G1 X126.175 Y46.222 E0.16090
G1 X130.842 Y46.508 E0.15687
G1 X135.709 Y47.198 E0.16492
G1 X140.384 Y48.265 E0.16089
G1 X144.957 Y49.710 E0.16090
G1 X149.398 Y51.523 E0.16090
G1 X153.675 Y53.691 E0.16090
G1 X157.762 Y56.201 E0.16090
G1 X161.533 Y58.965 E0.15687
G1 X165.255 Y62.177 E0.16492
G1 X168.611 Y65.603 E0.16089
G1 X171.677 Y69.290 E0.16090
G1 X174.433 Y73.216 E0.16090
G1 X176.798 Y77.249 E0.15687
G1 X178.940 Y81.674 E0.16492
G1 X180.661 Y86.150 E0.16089
G1 X182.013 Y90.752 E0.16090
G1 X182.984 Y95.448 E0.16090
G1 X183.555 Y100.089 E0.15687
G1 X183.765 Y105.000 E0.16492
G1 X183.570 Y109.792 E0.16089
G1 X182.984 Y114.552 E0.16090
G1 X182.013 Y119.248 E0.16090
G1 X180.695 Y123.735 E0.15687
G1 X178.940 Y128.326 E0.16492
G1 X176.859 Y132.647 E0.16089
G1 X174.433 Y136.784 E0.16090
G1 X171.677 Y140.710 E0.16090
G1 X168.611 Y144.397 E0.16090
G1 X165.255 Y147.823 E0.16090
G1 X161.630 Y150.964 E0.16090
G1 X157.762 Y153.799 E0.16090
G1 X153.675 Y156.309 E0.16090
G1 X149.398 Y158.477 E0.16090
G1 X144.957 Y160.290 E0.16090
G1 X140.384 Y161.735 E0.16090
G1 X135.709 Y162.802 E0.16090
G1 X130.962 Y163.484 E0.16090
G1 X126.175 Y163.778 E0.16090
G1 X121.380 Y163.680 E0.16090
G1 X116.609 Y163.191 E0.16090
G1 X111.893 Y162.316 E0.16090
G1 X107.265 Y161.059 E0.16090
G1 X102.755 Y159.429 E0.16090
G1 X98.392 Y157.436 E0.16090
G1 X94.207 Y155.095 E0.16090
G1 X90.226 Y152.421 E0.16090
G1 X86.476 Y149.430 E0.16090
G1 X82.983 Y146.145 E0.16090
G1 X79.769 Y142.585 E0.16090
G1 X76.856 Y138.775 E0.16090
G1 X74.263 Y134.740 E0.16090
G1 X72.008 Y130.508 E0.16090
G1 X70.105 Y126.106 E0.16090
G1 X68.567 Y121.563 E0.16090
G1 X67.405 Y116.910 E0.16090
G1 X66.625 Y112.178 E0.16090
G1 X66.235 Y107.398 E0.16090
G1 X66.235 Y102.602 E0.16090
G1 X66.625 Y97.822 E0.16090
G1 X67.405 Y93.090 E0.16090
G1 X68.538 Y88.554 E0.15687
G1 X70.105 Y83.894 E0.16492
G1 X72.008 Y79.492 E0.16089
G1 X74.263 Y75.260 E0.16090
G1 X76.856 Y71.225 E0.16090
G1 X79.665 Y67.552 E0.15513
G1 X80.095 Y67.571 F10800.000
G1 F8640
G1 X81.863 Y65.102 E-0.76000
G1 E-0.04000 F2100.00000
G1 Z0.800 F10800.000
G1 X72.129 Y129.554
G1 Z0.200
G1 E0.80000 F2100.00000
G1 F1200
G1 X100.038 Y157.463 E1.32515
G1 X101.020 Y157.911 E0.03626
G1 X72.049 Y128.939 E1.37562
G1 X71.642 Y127.999 E0.03438
G1 X102.003 Y158.360 E1.44155
G1 X102.985 Y158.808 E0.03626
G1 X71.236 Y127.059 E1.50749
G1 X70.830 Y126.119 E0.03438
G1 X103.823 Y159.113 E1.56660
G1 X104.659 Y159.415 E0.02983
G1 X70.521 Y125.277 E1.62093
G1 X70.248 Y124.470 E0.02860
G1 X105.495 Y159.717 E1.67358
G1 X106.331 Y160.019 E0.02983
G1 X69.975 Y123.664 E1.72623
G1 X69.702 Y122.857 E0.02860
G1 X107.166 Y160.321 E1.77888
M73 Q1 S150
M73 P1 R149
G1 X107.464 Y160.429 E0.01064
G1 X107.936 Y160.557 E0.01640
G1 X69.429 Y122.050 E1.82838
G1 X69.171 Y121.259 E0.02793
G1 X108.668 Y160.756 E1.87538
G1 X109.401 Y160.955 E0.02549
G1 X68.994 Y120.548 E1.91861
G1 X68.816 Y119.836 E0.02462
G1 X110.134 Y161.154 E1.96183
G1 X110.866 Y161.353 E0.02549
G1 X68.638 Y119.125 E2.00506
G1 X68.460 Y118.414 E0.02462
G1 X111.599 Y161.552 E2.04828
G1 X112.040 Y161.672 E0.01536
G1 X112.301 Y161.720 E0.00889
G1 X68.283 Y117.702 E2.09005
G1 X68.105 Y116.991 E0.02462
G1 X112.956 Y161.842 E2.12961
G1 X113.612 Y161.964 E0.02238
G1 X67.978 Y116.330 E2.16676
G1 X67.873 Y115.691 E0.02174
G1 X114.267 Y162.085 E2.20287
G1 X114.922 Y162.207 E0.02238
G1 X67.768 Y115.052 E2.23898
G1 X67.662 Y114.413 E0.02174
G1 X115.578 Y162.329 E2.27510
G1 X116.233 Y162.451 E0.02238
G1 X67.557 Y113.775 E2.31121
G1 X67.452 Y113.136 E0.02174
G1 X116.871 Y162.555 E2.34650
G1 X117.466 Y162.616 E0.02007
G1 X67.347 Y112.497 E2.37973
G1 X67.263 Y111.879 E0.02091
G1 X118.060 Y162.677 E2.41193
G1 X118.655 Y162.738 E0.02007
G1 X67.216 Y111.298 E2.44241
G1 X67.168 Y110.717 E0.01958
G1 X119.249 Y162.798 E2.47290
G1 X119.844 Y162.859 E0.02007
G1 X67.121 Y110.136 E2.50338
M73 Q2 S149
M73 P2 R148
G1 X67.073 Y109.555 E0.01958
G1 X120.438 Y162.920 E2.53387
G1 X121.033 Y162.981 E0.02007
G1 X67.025 Y108.973 E2.56436
G1 X66.978 Y108.392 E0.01958
G1 X121.610 Y163.024 E2.59402
G1 X122.155 Y163.036 E0.01829
G1 X66.930 Y107.811 E2.62214
G1 X66.894 Y107.241 E0.01916
G1 X122.700 Y163.047 E2.64972
G1 X123.245 Y163.058 E0.01829
G1 X66.894 Y106.708 E2.67559
G1 X66.894 Y106.174 E0.01792
G1 X123.789 Y163.069 E2.70145
G1 X124.334 Y163.080 E0.01829
G1 X66.894 Y105.640 E2.72732
G1 X66.894 Y105.107 E0.01792
G1 X124.879 Y163.091 E2.75319
G1 X125.424 Y163.102 E0.01829
G1 X66.894 Y104.573 E2.77906
G1 X66.894 Y104.039 E0.01792
G1 X125.968 Y163.113 E2.80492
G1 X126.486 Y163.097 E0.01739
G1 X66.894 Y103.506 E2.82950
G1 X66.894 Y102.972 E0.01792
G1 X126.989 Y163.067 E2.85338
G1 X127.492 Y163.036 E0.01692
G1 X66.909 Y102.453 E2.87657
G1 X66.949 Y101.959 E0.01662
G1 X127.995 Y163.005 E2.89853
M73 Q2 S148
M73 P2 R147
G1 X128.498 Y162.974 E0.01691
G1 X66.990 Y101.466 E2.92050
G1 X67.030 Y100.973 E0.01662
G1 X129.000 Y162.943 E2.94246
G1 X129.503 Y162.913 E0.01692
G1 X67.070 Y100.479 E2.96442
G1 X67.111 Y99.986 E0.01662
