; generated by Slic3r Prusa Edition 1.41.2+win64 on 2019-05-07 at 11:13:39

; 

; external perimeters extrusion width = 0.45mm
; perimeters extrusion width = 0.45mm
; infill extrusion width = 0.45mm
; solid infill extrusion width = 0.45mm
; top infill extrusion width = 0.40mm
; support material extrusion width = 0.35mm
; first layer extrusion width = 0.42mm

M73 P0 R15
M73 Q0 S15
M201 X1000 Y1000 Z1000 E5000 ; sets maximum accelerations, mm/sec^2
M203 X200 Y200 Z12 E120 ; sets maximum feedrates, mm/sec
M204 P1250 R1250 T1250 ; sets acceleration (P, T) and retract acceleration (R), mm/sec^2
M205 X8.00 Y8.00 Z0.40 E1.50 ; sets the jerk limits, mm/sec
M205 S0 T0 ; sets the minimum extruding and travel feed rate, mm/sec
M107
M115 U3.5.1 ; tell printer latest fw version
M83  ; extruder relative mode
M104 S240 ; set extruder temp
M140 S85 ; set bed temp
M190 S85 ; wait for bed temp
M109 S240 ; wait for extruder temp
G28 W ; home all without mesh bed level
G80 ; mesh bed leveling
G1 Y-3.0 F1000.0 ; go outside print area
G92 E0.0
G1 X60.0 E9.0  F1000.0 ; intro line
M73 Q0 S15
M73 P0 R15
G1 X100.0 E12.5  F1000.0 ; intro line
G92 E0.0
M221 S95
M900 K45; Filament gcode
G21 ; set units to millimeters
G90 ; use absolute coordinates
M83 ; use relative distances for extrusion
;BEFORE_LAYER_CHANGE
G92 E0.0
;0.2


G1 E-0.80000 F2100.00000
G1 Z0.600 F10800.000
;AFTER_LAYER_CHANGE
;0.2
G1 X110.039 Y91.085
G1 Z0.200
G1 E0.80000 F2100.00000
M204 S1000
G1 F1200
G1 X110.613 Y90.547 E0.02466
G1 X111.363 Y90.117 E0.02712
G1 X112.054 Y89.903 E0.02268
G1 X118.542 Y88.764 E0.20652
G1 X130.908 Y88.952 E0.38779
G1 X138.114 Y89.941 E0.22804
G1 X138.759 Y90.170 E0.02146
G1 X139.324 Y90.502 E0.02054
G1 X140.155 Y91.338 E0.03698
G1 X140.661 Y92.371 E0.03607
G1 X140.814 Y93.330 E0.03045
G1 X140.815 Y116.675 E0.73197
G1 X140.712 Y117.452 E0.02457
G1 X140.419 Y118.233 E0.02615
G1 X139.969 Y118.905 E0.02536
G1 X139.311 Y119.507 E0.02797
G1 X138.275 Y120.012 E0.03613
G1 X137.316 Y120.164 E0.03045
G1 X112.675 Y120.165 E0.77260
G1 X111.894 Y120.061 E0.02470
G1 X111.114 Y119.767 E0.02614
G1 X110.441 Y119.316 E0.02540
G1 X109.842 Y118.660 E0.02786
G1 X109.337 Y117.621 E0.03621
G1 X109.185 Y116.654 E0.03069
G1 X109.184 Y93.388 E0.72950
G1 X109.312 Y92.460 E0.02937
G1 X109.581 Y91.767 E0.02330
G1 X110.006 Y91.135 E0.02389
G1 X110.316 Y91.342 F10800.000
G1 F1200
G1 X110.837 Y90.850 E0.02246
G1 X111.523 Y90.459 E0.02477
G1 X112.122 Y90.274 E0.01964
G1 X118.541 Y89.142 E0.20438
G1 X130.850 Y89.325 E0.38597
G1 X137.994 Y90.300 E0.22609
G1 X138.590 Y90.507 E0.01977
G1 X139.096 Y90.803 E0.01837
G1 X139.836 Y91.538 E0.03271
G1 X140.301 Y92.486 E0.03311
G1 X140.438 Y93.345 E0.02726
G1 X140.438 Y116.658 E0.73099
G1 X140.348 Y117.355 E0.02202
G1 X140.090 Y118.048 E0.02318
G1 X139.692 Y118.649 E0.02259
G1 X139.110 Y119.188 E0.02488
G1 X138.164 Y119.651 E0.03301
G1 X137.305 Y119.788 E0.02726
G1 X112.695 Y119.788 E0.77164
G1 X111.998 Y119.699 E0.02202
G1 X111.302 Y119.440 E0.02330
G1 X110.698 Y119.040 E0.02273
G1 X110.162 Y118.459 E0.02477
G1 X109.696 Y117.507 E0.03323
G1 X109.562 Y116.641 E0.02749
G1 X109.561 Y93.389 E0.72905
G1 X109.670 Y92.578 E0.02566
G1 X109.910 Y91.952 E0.02102
G1 X110.283 Y91.392 E0.02110
; PURGING FINISHED
G1 F8640
G1 X110.837 Y90.850 E-0.17896
G1 X111.523 Y90.459 E-0.18239
G1 X112.122 Y90.274 E-0.14466
G1 X113.205 Y90.083 E-0.25399
G1 E-0.04000 F2100.00000
G1 Z0.800 F10800.000
G1 X118.537 Y91.330
G1 Z0.200
G1 E0.80000 F2100.00000
G1 F1200
G1 X118.537 Y92.124 E0.02490
G1 X119.292 Y92.124 E0.02365
G1 X119.292 Y91.500 E0.01958
G1 X120.046 Y91.500 E0.02365
G1 X120.046 Y92.124 E0.01958
G1 X120.800 Y92.124 E0.02365
G1 X120.800 Y91.500 E0.01958
G1 X121.554 Y91.500 E0.02365
G1 X121.554 Y92.124 E0.01958
G1 X122.308 Y92.124 E0.02365
G1 X122.308 Y91.500 E0.01958
G1 X123.062 Y91.500 E0.02365
G1 X123.062 Y92.124 E0.01958
G1 X123.817 Y92.124 E0.02365
G1 X123.817 Y91.500 E0.01958
G1 X124.571 Y91.500 E0.02365
G1 X124.571 Y92.124 E0.01958
G1 X125.325 Y92.124 E0.02365
G1 X125.325 Y91.500 E0.01958
G1 X126.079 Y91.500 E0.02365
G1 X126.079 Y92.124 E0.01958
G1 X126.833 Y92.124 E0.02365
G1 X126.833 Y91.500 E0.01958
G1 X127.587 Y91.500 E0.02365
G1 X127.587 Y92.124 E0.01958
G1 X128.341 Y92.124 E0.02365
G1 X128.341 Y91.500 E0.01958
G1 X129.096 Y91.500 E0.02365
G1 X129.096 Y92.124 E0.01958
G1 X129.850 Y92.124 E0.02365
G1 X129.850 Y91.500 E0.01958
G1 X130.604 Y91.500 E0.02365
G1 X130.604 Y92.294 E0.02490
G1 F8640
G1 X130.604 Y91.500 E-0.18340
G1 X129.850 Y91.500 E-0.17414
G1 X129.850 Y92.124 E-0.14421
G1 X129.096 Y92.124 E-0.17414
G1 X129.096 Y91.760 E-0.08412
G1 E-0.04000 F2100.00000
G1 Z0.800 F10800.000
G1 X130.604 Y100.149
G1 Z0.200
G1 E0.80000 F2100.00000
G1 F1200
G1 X130.604 Y94.376 E0.18101
G1 X129.850 Y94.376 E0.02365
G1 X129.850 Y99.979 E0.17569
G1 X129.096 Y99.979 E0.02365
G1 X129.096 Y94.376 E0.17569
G1 X128.341 Y94.376 E0.02365
G1 X128.341 Y99.979 E0.17569
G1 X127.587 Y99.979 E0.02365
G1 X127.587 Y94.376 E0.17569
G1 X126.833 Y94.376 E0.02365
G1 X126.833 Y99.979 E0.17569
G1 X126.079 Y99.979 E0.02365
G1 X126.079 Y94.376 E0.17569
G1 X125.325 Y94.376 E0.02365
G1 X125.325 Y99.979 E0.17569
G1 X124.571 Y99.979 E0.02365
G1 X124.571 Y94.376 E0.17569
G1 X123.817 Y94.376 E0.02365
G1 X123.817 Y99.979 E0.17569
G1 X123.062 Y99.979 E0.02365
G1 X123.062 Y94.376 E0.17569
G1 X122.308 Y94.376 E0.02365
G1 X122.308 Y99.979 E0.17569
G1 X121.554 Y99.979 E0.02365
G1 X121.554 Y94.376 E0.17569
G1 X120.800 Y94.376 E0.02365
G1 X120.800 Y99.979 E0.17569
G1 X120.046 Y99.979 E0.02365
G1 X120.046 Y94.376 E0.17569
G1 X119.292 Y94.376 E0.02365
G1 X119.292 Y99.979 E0.17569
G1 X118.537 Y99.979 E0.02365
G1 X118.537 Y94.206 E0.18101
G1 F8640
G1 X118.537 Y97.497 E-0.76000
G1 E-0.04000 F2100.00000
G1 Z0.800 F10800.000
G1 X114.065 Y93.415
G1 Z0.200
G1 E0.80000 F2100.00000
G1 F1200
G1 X114.417 Y93.375 E0.01110
G1 X135.583 Y93.375 E0.66364
G1 X135.935 Y93.415 E0.01110
G1 X136.300 Y93.543 E0.01214
G1 X136.577 Y93.717 E0.01027
G1 X136.896 Y94.013 E0.01364
G1 X137.107 Y94.350 E0.01247
G1 X137.235 Y94.715 E0.01214
G1 X137.275 Y95.067 E0.01110
G1 X137.275 Y99.333 E0.13376
G1 X137.235 Y99.685 E0.01110
G1 X137.107 Y100.050 E0.01214
G1 X136.902 Y100.378 E0.01214
G1 X136.628 Y100.652 E0.01214
G1 X136.300 Y100.857 E0.01214
G1 X135.935 Y100.985 E0.01214
G1 X135.583 Y101.025 E0.01110
G1 X114.417 Y101.025 E0.66364
G1 X114.065 Y100.985 E0.01110
G1 X113.700 Y100.857 E0.01214
G1 X113.372 Y100.652 E0.01214
G1 X113.098 Y100.378 E0.01214
G1 X112.893 Y100.050 E0.01214
G1 X112.765 Y99.685 E0.01214
G1 X112.725 Y99.333 E0.01110
G1 X112.725 Y95.067 E0.13376
G1 X112.765 Y94.715 E0.01110
G1 X112.893 Y94.350 E0.01214
G1 X113.098 Y94.022 E0.01214
G1 X113.372 Y93.748 E0.01214
G1 X113.700 Y93.543 E0.01214
G1 X114.009 Y93.434 E0.01026
G1 X114.133 Y93.790 F10800.000
G1 F1200
G1 X114.438 Y93.752 E0.00964
G1 X135.562 Y93.752 E0.66232
G1 X135.850 Y93.785 E0.00910
G1 X136.135 Y93.884 E0.00947
G1 X136.347 Y94.017 E0.00782
G1 X136.603 Y94.256 E0.01098
G1 X136.766 Y94.515 E0.00959
G1 X136.865 Y94.800 E0.00947
G1 X136.898 Y95.088 E0.00910
G1 X136.898 Y99.312 E0.13243
G1 X136.865 Y99.600 E0.00910
G1 X136.766 Y99.885 E0.00947
G1 X136.605 Y100.141 E0.00947
G1 X136.391 Y100.355 E0.00947
G1 X136.135 Y100.516 E0.00947
G1 X135.850 Y100.615 E0.00947
G1 X135.562 Y100.648 E0.00910
G1 X114.438 Y100.648 E0.66232
G1 X114.150 Y100.615 E0.00910
G1 X113.865 Y100.516 E0.00947
G1 X113.609 Y100.355 E0.00947
G1 X113.395 Y100.141 E0.00947
G1 X113.234 Y99.885 E0.00947
G1 X113.135 Y99.600 E0.00947
G1 X113.102 Y99.312 E0.00910
G1 X113.102 Y95.088 E0.13243
G1 X113.135 Y94.800 E0.00910
G1 X113.234 Y94.515 E0.00947
G1 X113.395 Y94.259 E0.00947
G1 X113.609 Y94.045 E0.00947
G1 X113.865 Y93.884 E0.00947
G1 X114.077 Y93.810 E0.00704
G1 X114.221 Y93.496 F10800.000
G1 F8640
G1 X114.438 Y93.752 E-0.08456
G1 X117.363 Y93.752 E-0.67544
G1 E-0.04000 F2100.00000
G1 Z0.800 F10800.000
G1 X112.581 Y93.188
G1 Z0.200
G1 E0.80000 F2100.00000
G1 F1200
G1 X112.690 Y93.135 E0.00379
G1 X112.783 Y93.125 E0.00295
G1 X137.217 Y93.125 E0.76611
G1 X137.378 Y93.162 E0.00517
G1 X137.462 Y93.231 E0.00342
G1 X137.494 Y93.282 E0.00191
G1 X137.525 Y93.433 E0.00482
G1 X137.515 Y101.060 E0.23915
G1 X137.468 Y101.159 E0.00342
G1 X137.394 Y101.228 E0.00316
G1 X137.310 Y101.265 E0.00287
G1 X137.217 Y101.275 E0.00295
G1 X112.690 Y101.265 E0.76904
G1 X112.632 Y101.244 E0.00191
G1 X112.538 Y101.169 E0.00379
G1 X112.485 Y101.060 E0.00379
G1 X112.475 Y100.967 E0.00295
G1 X112.475 Y93.445 E0.23586
G1 X112.495 Y93.312 E0.00421
G1 X112.538 Y93.230 E0.00289
G1 X112.128 Y93.220 F10800.000
G1 F1200
G1 X112.164 Y93.118 E0.00341
G1 X112.241 Y92.994 E0.00457
G1 X112.344 Y92.891 E0.00457
G1 X112.468 Y92.814 E0.00457
G1 X112.605 Y92.766 E0.00457
G1 X112.762 Y92.748 E0.00494
G1 X137.238 Y92.748 E0.76744
G1 X137.358 Y92.761 E0.00378
G1 X137.536 Y92.816 E0.00583
G1 X137.656 Y92.891 E0.00444
G1 X137.759 Y92.994 E0.00457
G1 X137.836 Y93.118 E0.00457
G1 X137.884 Y93.255 E0.00457
G1 X137.902 Y93.412 E0.00494
G1 X137.902 Y100.988 E0.23755
G1 X137.884 Y101.145 E0.00494
G1 X137.836 Y101.282 E0.00457
G1 X137.761 Y101.402 E0.00444
G1 X137.625 Y101.528 E0.00583
G1 X137.532 Y101.586 E0.00341
G1 X137.395 Y101.634 E0.00457
G1 X137.238 Y101.652 E0.00494
G1 X112.762 Y101.652 E0.76744
G1 X112.605 Y101.634 E0.00494
G1 X112.468 Y101.586 E0.00457
G1 X112.344 Y101.509 E0.00457
G1 X112.241 Y101.406 E0.00457
G1 X112.164 Y101.282 E0.00457
G1 X112.116 Y101.145 E0.00457
G1 X112.098 Y100.988 E0.00494
G1 X112.098 Y93.416 E0.23742
G1 X112.119 Y93.280 E0.00432
G1 X112.232 Y93.188 F10800.000
G1 F8640
G1 X112.164 Y93.118 E-0.03882
G1 X112.241 Y92.994 E-0.03365
G1 X112.344 Y92.891 E-0.03365
G1 X112.468 Y92.814 E-0.03365
G1 X112.605 Y92.766 E-0.03365
G1 X112.762 Y92.748 E-0.03639
G1 X115.145 Y92.748 E-0.55018
G1 E-0.04000 F2100.00000
G1 Z0.800 F10800.000
G1 X112.825 Y94.060
G1 Z0.200
G1 E0.80000 F2100.00000
G1 F1200
G1 X112.707 Y94.209 E0.00138
G1 X112.695 Y94.251 E0.00032
G1 X112.684 Y94.310 E0.00031
G1 F8640
G1 X112.695 Y94.251 E-0.01390
G1 E-0.78610 F2100.00000
G1 Z0.800 F10800.000
G1 X113.410 Y93.475
G1 Z0.200
G1 E0.80000 F2100.00000
G1 F1200
G1 X113.559 Y93.357 E0.00094
G1 X113.660 Y93.334 E0.00052
G1 F8640
G1 X113.559 Y93.357 E-0.02403
G1 X113.410 Y93.475 E-0.04384
G1 E-0.73213 F2100.00000
G1 Z0.800 F10800.000
G1 X112.684 Y100.090
G1 Z0.200
G1 E0.80000 F2100.00000
G1 F1200
G1 X112.695 Y100.149 E0.00031
G1 X112.707 Y100.191 E0.00032
G1 X112.825 Y100.340 E0.00138
G1 X112.811 Y100.496 F10800.000
G1 F1200
G1 X113.254 Y100.939 E0.02012
G1 X113.410 Y100.925 F10800.000
G1 F1200
G1 X113.559 Y101.043 E0.00094
G1 X113.660 Y101.066 E0.00052
G1 F8640
G1 X113.559 Y101.043 E-0.02403
G1 X113.410 Y100.925 E-0.04384
G1 E-0.73214 F2100.00000
G1 Z0.800 F10800.000
G1 X136.340 Y101.066
G1 Z0.200
G1 E0.80000 F2100.00000
G1 F1200
G1 X136.399 Y101.055 E0.00032
G1 X136.441 Y101.043 E0.00032
G1 X136.590 Y100.925 E0.00138
G1 X137.174 Y100.340 F10800.000
G1 F1200
G1 X137.293 Y100.191 E0.00094
G1 X137.316 Y100.090 E0.00052
G1 F8640
G1 X137.293 Y100.191 E-0.02403
G1 X137.174 Y100.340 E-0.04384
G1 E-0.73213 F2100.00000
G1 Z0.800 F10800.000
G1 X137.316 Y94.310
G1 Z0.200
G1 E0.80000 F2100.00000
G1 F1200
G1 X137.272 Y94.105 E0.00104
G1 X137.150 Y94.022 F10800.000
G1 F1200
G1 X137.337 Y94.247 E0.00242
G1 X137.412 Y93.604 F10800.000
G1 F1200
G1 X137.054 Y93.245 E0.01712
G1 X136.500 Y93.419 F10800.000
G1 F1200
G1 X136.392 Y93.343 E0.00074
G1 X136.340 Y93.334 E0.00026
G1 F8640
G1 X136.392 Y93.343 E-0.01228
G1 E-0.78772 F2100.00000
G1 Z0.800 F10800.000
G1 X136.896 Y109.613
G1 Z0.200
G1 E0.80000 F2100.00000
G1 F1200
G1 X137.107 Y109.950 E0.01247
G1 X137.235 Y110.315 E0.01214
G1 X137.275 Y110.667 E0.01110
G1 X137.275 Y114.933 E0.13376
G1 X137.235 Y115.285 E0.01110
G1 X137.107 Y115.650 E0.01214
G1 X136.902 Y115.978 E0.01214
G1 X136.628 Y116.252 E0.01214
G1 X136.300 Y116.457 E0.01214
G1 X135.935 Y116.585 E0.01214
G1 X135.583 Y116.625 E0.01110
G1 X114.417 Y116.625 E0.66364
G1 X114.065 Y116.585 E0.01110
G1 X113.700 Y116.457 E0.01214
G1 X113.372 Y116.252 E0.01214
G1 X113.098 Y115.978 E0.01214
G1 X112.893 Y115.650 E0.01214
G1 X112.765 Y115.285 E0.01214
G1 X112.725 Y114.933 E0.01110
G1 X112.725 Y110.667 E0.13376
G1 X112.765 Y110.315 E0.01110
G1 X112.893 Y109.950 E0.01214
G1 X113.098 Y109.622 E0.01214
G1 X113.372 Y109.348 E0.01214
G1 X113.700 Y109.143 E0.01214
G1 X114.065 Y109.015 E0.01214
G1 X114.417 Y108.975 E0.01110
G1 X135.583 Y108.975 E0.66364
G1 X135.935 Y109.015 E0.01110
G1 X136.300 Y109.143 E0.01214
G1 X136.577 Y109.317 E0.01027
G1 X136.852 Y109.572 E0.01176
G1 X136.595 Y109.848 F10800.000
G1 F1200
G1 X136.766 Y110.115 E0.00992
G1 X136.865 Y110.400 E0.00947
G1 X136.898 Y110.688 E0.00910
G1 X136.898 Y114.912 E0.13243
G1 X136.865 Y115.200 E0.00910
G1 X136.766 Y115.485 E0.00947
G1 X136.605 Y115.741 E0.00947
G1 X136.391 Y115.955 E0.00947
G1 X136.135 Y116.116 E0.00947
G1 X135.850 Y116.215 E0.00947
G1 X135.562 Y116.248 E0.00910
G1 X114.438 Y116.248 E0.66232
G1 X114.150 Y116.215 E0.00910
G1 X113.865 Y116.116 E0.00947
G1 X113.609 Y115.955 E0.00947
G1 X113.395 Y115.741 E0.00947
G1 X113.234 Y115.485 E0.00947
G1 X113.135 Y115.200 E0.00947
G1 X113.102 Y114.912 E0.00910
G1 X113.102 Y110.688 E0.13243
G1 X113.135 Y110.400 E0.00910
G1 X113.234 Y110.115 E0.00947
G1 X113.395 Y109.859 E0.00947
G1 X113.609 Y109.645 E0.00947
G1 X113.865 Y109.484 E0.00947
G1 X114.150 Y109.385 E0.00947
G1 X114.438 Y109.352 E0.00910
G1 X135.562 Y109.352 E0.66232
G1 X135.850 Y109.385 E0.00910
G1 X136.135 Y109.484 E0.00947
G1 X136.347 Y109.617 E0.00782
G1 X136.551 Y109.807 E0.00876
G1 X136.907 Y109.799 F10800.000
G1 F8640
G1 X136.766 Y110.115 E-0.08651
G1 X136.865 Y110.400 E-0.06976
G1 X136.898 Y110.688 E-0.06702
G1 X136.898 Y113.013 E-0.53671
G1 E-0.04000 F2100.00000
G1 Z0.800 F10800.000
G1 X137.494 Y108.882
G1 Z0.200
G1 E0.80000 F2100.00000
G1 F1200
G1 X137.525 Y109.033 E0.00482
G1 X137.525 Y116.567 E0.23623
G1 X137.515 Y116.660 E0.00295
G1 X137.468 Y116.759 E0.00342
G1 X137.394 Y116.828 E0.00316
G1 X137.310 Y116.865 E0.00287
G1 X112.783 Y116.875 E0.76904
G1 X112.690 Y116.865 E0.00295
G1 X112.581 Y116.812 E0.00379
G1 X112.538 Y116.769 E0.00190
G1 X112.485 Y116.660 E0.00379
G1 X112.475 Y109.045 E0.23879
G1 X112.495 Y108.912 E0.00421
G1 X112.538 Y108.831 E0.00287
G1 X112.581 Y108.788 E0.00191
G1 X112.690 Y108.735 E0.00379
G1 X137.217 Y108.725 E0.76904
G1 X137.378 Y108.762 E0.00517
G1 X137.463 Y108.831 E0.00345
G1 X137.656 Y108.491 F10800.000
G1 F1200
G1 X137.759 Y108.594 E0.00457
G1 X137.836 Y108.718 E0.00457
G1 X137.884 Y108.855 E0.00457
G1 X137.902 Y109.012 E0.00494
G1 X137.902 Y116.588 E0.23755
G1 X137.884 Y116.745 E0.00494
G1 X137.836 Y116.882 E0.00457
G1 X137.761 Y117.002 E0.00444
G1 X137.625 Y117.128 E0.00583
G1 X137.532 Y117.186 E0.00341
G1 X137.395 Y117.234 E0.00457
G1 X137.238 Y117.252 E0.00494
G1 X112.762 Y117.252 E0.76744
G1 X112.605 Y117.234 E0.00494
G1 X112.468 Y117.186 E0.00457
G1 X112.344 Y117.109 E0.00457
G1 X112.241 Y117.006 E0.00457
G1 X112.164 Y116.882 E0.00457
G1 X112.116 Y116.745 E0.00457
G1 X112.098 Y116.588 E0.00494
G1 X112.098 Y109.016 E0.23742
G1 X112.128 Y108.820 E0.00620
G1 X112.164 Y108.718 E0.00341
G1 X112.241 Y108.594 E0.00457
G1 X112.344 Y108.491 E0.00457
G1 X112.468 Y108.414 E0.00457
G1 X112.605 Y108.366 E0.00457
G1 X112.762 Y108.348 E0.00494
G1 X137.238 Y108.348 E0.76744
G1 X137.358 Y108.361 E0.00378
G1 X137.536 Y108.416 E0.00583
G1 X137.605 Y108.459 E0.00256
G1 X137.636 Y108.636 F10800.000
G1 X137.054 Y108.845
G1 F1200
G1 X137.412 Y109.204 E0.01712
G1 X137.150 Y109.622 F10800.000
G1 F1200
G1 X137.337 Y109.847 E0.00242
G1 X137.316 Y109.910 F10800.000
G1 F1200
G1 X137.272 Y109.705 E0.00104
G1 F8640
G1 X137.316 Y109.910 E-0.04836
G1 E-0.75164 F2100.00000
G1 Z0.800 F10800.000
G1 X136.500 Y109.019
G1 Z0.200
G1 E0.80000 F2100.00000
G1 F1200
G1 X136.392 Y108.943 E0.00074
G1 X136.340 Y108.934 E0.00026
G1 F8640
G1 X136.392 Y108.943 E-0.01228
G1 E-0.78772 F2100.00000
G1 Z0.800 F10800.000
G1 X137.316 Y115.690
G1 Z0.200
G1 E0.80000 F2100.00000
G1 F1200
G1 X137.293 Y115.791 E0.00052
