; generated by PrusaSlicer 2.8.0+win64 on 2024-09-19 at 20:10:24 UTC


;
;
; 

; external perimeters extrusion width = 0.45mm
; perimeters extrusion width = 0.45mm
; infill extrusion width = 0.45mm
; solid infill extrusion width = 0.45mm
; top infill extrusion width = 0.40mm
; support material extrusion width = 0.35mm
; first layer extrusion width = 0.42mm

M73 P0 R229
M73 Q0 S232
M201 X1000 Y1000 Z200 E5000 ; sets maximum accelerations, mm/sec^2
M203 X200 Y200 Z12 E120 ; sets maximum feedrates, mm / sec
M204 S1250 T1250 ; sets acceleration (S) and retract acceleration (R), mm/sec^2
M205 X8.00 Y8.00 Z0.40 E4.50 ; sets the jerk limits, mm/sec
M205 S0 T0 ; sets the minimum extruding and travel feed rate, mm/sec

; printing object LoxoneTouchCoverTrio id:0 copy 0
; stop printing object LoxoneTouchCoverTrio id:0 copy 0

;TYPE:Custom
M862.3 P "MK3S" ; printer model check
M862.1 P0.4 ; nozzle diameter check
M115 U3.13.3 ; tell printer latest fw version
G90 ; use absolute coordinates
M83 ; extruder relative mode
M104 S230 ; set extruder temp
M140 S85 ; set bed temp
M190 S85 ; wait for bed temp
M109 S230 ; wait for extruder temp
G28 W ; home all without mesh bed level
G80 X12.3399 Y63.5899 W225.32 H82.8202 ; mesh bed levelling

G1 Z0.2 F720
G1 Y-3 F1000 ; go outside print area
G92 E0
G1 X60 E9 F1000 ; intro line
G1 X100 E12.5 F1000 ; intro line

G92 E0
M221 S95

; Don't change E values below. Excessive value can damage the printer.
M907 E430 ; set extruder motor current
G21 ; set units to millimeters
G90 ; use absolute coordinates
M83 ; use relative distances for extrusion
M900 K45 ; Filament gcode
M107
;LAYER_CHANGE
;Z:0.2
;HEIGHT:0.2
G1 E-.8 F2100
G1 Z.6 F720
G1 X14.806 Y63.912 F10800
G1 Z.2 F720
G1 E.8 F2100
M204 S800
;TYPE:Skirt/Brim
;WIDTH:0.42
G1 F1200
G1 X15.711 Y63.778 E.02754
G1 X234.478 Y63.787 E6.58491
G1 X235.026 Y63.867 E.01667
G1 X235.706 Y64.114 E.02178
G1 X236.598 Y64.774 E.0334
G1 X237.208 Y65.698 E.03333
G1 X237.383 Y66.224 E.01669
G1 X237.472 Y66.961 E.02234
G1 X237.472 Y143.039 E2.28996
G1 X237.338 Y143.944 E.02754
G1 X236.849 Y144.926 E.03302
G1 X236.183 Y145.595 E.02841
G1 X235.194 Y146.088 E.03326
M73 Q0 S231
G1 X234.289 Y146.222 E.02754
G1 X15.711 Y146.222 E6.57923
G1 X14.81 Y146.089 E.02741
G1 X13.824 Y145.599 E.03314
G1 X13.155 Y144.933 E.02841
G1 X12.662 Y143.943 E.03329
G1 X12.528 Y143.039 E.02751
G1 X12.528 Y66.961 E2.28996
G1 X12.661 Y66.06 E.02741
G1 X13.151 Y65.074 E.03314
G1 X13.817 Y64.406 E.02839
G1 X14.753 Y63.939 E.03149
M204 S1000
;WIPE_START
G1 F8640
G1 X14.806 Y63.912 E-.01373
G1 X15.711 Y63.778 E-.21125
G1 X18.201 Y63.778 E-.57502
;WIPE_END
G1 Z.6 F720
; printing object LoxoneTouchCoverTrio id:0 copy 0
G1 X223.925 Y132.675 F10800
G1 Z.2 F720
G1 E.8 F2100
M204 S800
;TYPE:Support material
G1 F1200
G1 X168.575 Y132.675 E1.66604
G1 X168.575 Y77.325 E1.66604
G1 X223.925 Y77.325 E1.66604
M73 P0 R228
G1 X223.925 Y132.618 E1.66433
M204 S1000
;WIPE_START
G1 F8640
G1 X223.925 Y129.153 E-.8
;WIPE_END
G1 Z.6 F720
G1 X175.55 Y82.794 F10800
G1 Z.2 F720
G1 E.8 F2100
M204 S800
G1 F1200
G1 X216.655 Y82.794 E1.23727
G1 X216.655 Y96.022 E.39816
G1 X219.962 Y96.022 E.09954
G1 X219.962 Y113.978 E.54048
G1 X216.655 Y113.978 E.09954
G1 X216.655 Y127.206 E.39816
G1 X175.55 Y127.206 E1.23727
G1 X175.55 Y113.978 E.39816
G1 X172.243 Y113.978 E.09954
G1 X172.243 Y96.022 E.54048
G1 X175.55 Y96.022 E.09954
G1 X175.55 Y82.85 E.39648
M204 S1000
;WIPE_START
G1 F8640
G1 X175.55 Y86.315 E-.8
;WIPE_END
G1 Z.6 F720
G1 X223.46 Y132.505 F10800
G1 Z.2 F720
G1 E.8 F2100
M204 S800
G1 F1200
G1 X223.46 Y77.664 E1.65072
G1 X223.041 Y77.664 E.01261
G1 X223.041 Y132.336 E1.64563
G1 X222.622 Y132.336 E.01261
G1 X222.622 Y77.664 E1.64563
G1 X222.203 Y77.664 E.01261
G1 X222.203 Y132.336 E1.64563
G1 X221.784 Y132.336 E.01261
G1 X221.784 Y77.664 E1.64563
G1 X221.365 Y77.664 E.01261
G1 X221.365 Y132.336 E1.64563
G1 X220.946 Y132.336 E.01261
G1 X220.946 Y77.664 E1.64563
G1 X220.527 Y77.664 E.01261
G1 X220.527 Y132.336 E1.64563
G1 X220.108 Y132.336 E.01261
M73 Q0 S230
G1 X220.108 Y114.317 E.54237
G1 X219.689 Y114.317 E.01261
G1 X219.689 Y132.336 E.54237
G1 X219.27 Y132.336 E.01261
G1 X219.27 Y114.317 E.54237
G1 X218.851 Y114.317 E.01261
G1 X218.851 Y132.336 E.54237
G1 X218.432 Y132.336 E.01261
G1 X218.432 Y114.317 E.54237
G1 X218.013 Y114.317 E.01261
G1 X218.013 Y132.336 E.54237
G1 X217.594 Y132.336 E.01261
G1 X217.594 Y114.317 E.54237
G1 X217.175 Y114.317 E.01261
G1 X217.175 Y132.336 E.54237
G1 X216.756 Y132.336 E.01261
G1 X216.756 Y127.545 E.14421
G1 X216.337 Y127.545 E.01261
G1 X216.337 Y132.336 E.14421
G1 X215.918 Y132.336 E.01261
G1 X215.918 Y127.545 E.14421
G1 X215.499 Y127.545 E.01261
G1 X215.499 Y132.336 E.14421
G1 X215.08 Y132.336 E.01261
G1 X215.08 Y127.545 E.14421
G1 X214.661 Y127.545 E.01261
G1 X214.661 Y132.336 E.14421
G1 X214.242 Y132.336 E.01261
G1 X214.242 Y127.545 E.14421
G1 X213.823 Y127.545 E.01261
G1 X213.823 Y132.336 E.14421
G1 X213.404 Y132.336 E.01261
G1 X213.404 Y127.545 E.14421
G1 X212.985 Y127.545 E.01261
G1 X212.985 Y132.336 E.14421
G1 X212.566 Y132.336 E.01261
G1 X212.566 Y127.545 E.14421
G1 X212.147 Y127.545 E.01261
G1 X212.147 Y132.336 E.14421
G1 X211.728 Y132.336 E.01261
G1 X211.728 Y127.545 E.14421
G1 X211.309 Y127.545 E.01261
G1 X211.309 Y132.336 E.14421
G1 X210.89 Y132.336 E.01261
G1 X210.89 Y127.545 E.14421
G1 X210.471 Y127.545 E.01261
G1 X210.471 Y132.336 E.14421
G1 X210.052 Y132.336 E.01261
G1 X210.052 Y127.545 E.14421
G1 X209.633 Y127.545 E.01261
G1 X209.633 Y132.336 E.14421
G1 X209.214 Y132.336 E.01261
G1 X209.214 Y127.545 E.14421
G1 X208.795 Y127.545 E.01261
G1 X208.795 Y132.336 E.14421
G1 X208.376 Y132.336 E.01261
G1 X208.376 Y127.545 E.14421
G1 X207.957 Y127.545 E.01261
G1 X207.957 Y132.336 E.14421
G1 X207.538 Y132.336 E.01261
G1 X207.538 Y127.545 E.14421
G1 X207.119 Y127.545 E.01261
G1 X207.119 Y132.336 E.14421
G1 X206.701 Y132.336 E.01258
G1 X206.701 Y127.545 E.14421
G1 X206.282 Y127.545 E.01261
G1 X206.282 Y132.336 E.14421
G1 X205.863 Y132.336 E.01261
G1 X205.863 Y127.545 E.14421
G1 X205.444 Y127.545 E.01261
G1 X205.444 Y132.336 E.14421
G1 X205.025 Y132.336 E.01261
G1 X205.025 Y127.545 E.14421
G1 X204.606 Y127.545 E.01261
G1 X204.606 Y132.336 E.14421
G1 X204.187 Y132.336 E.01261
G1 X204.187 Y127.545 E.14421
G1 X203.768 Y127.545 E.01261
G1 X203.768 Y132.336 E.14421
G1 X203.349 Y132.336 E.01261
G1 X203.349 Y127.545 E.14421
G1 X202.93 Y127.545 E.01261
G1 X202.93 Y132.336 E.14421
G1 X202.511 Y132.336 E.01261
G1 X202.511 Y127.545 E.14421
G1 X202.092 Y127.545 E.01261
G1 X202.092 Y132.336 E.14421
G1 X201.673 Y132.336 E.01261
G1 X201.673 Y127.545 E.14421
G1 X201.254 Y127.545 E.01261
G1 X201.254 Y132.336 E.14421
G1 X200.835 Y132.336 E.01261
G1 X200.835 Y127.545 E.14421
G1 X200.416 Y127.545 E.01261
G1 X200.416 Y132.336 E.14421
G1 X199.997 Y132.336 E.01261
G1 X199.997 Y127.545 E.14421
G1 X199.578 Y127.545 E.01261
G1 X199.578 Y132.336 E.14421
G1 X199.159 Y132.336 E.01261
G1 X199.159 Y127.545 E.14421
G1 X198.74 Y127.545 E.01261
M73 P0 R227
G1 X198.74 Y132.336 E.14421
G1 X198.321 Y132.336 E.01261
G1 X198.321 Y127.545 E.14421
G1 X197.902 Y127.545 E.01261
G1 X197.902 Y132.336 E.14421
G1 X197.483 Y132.336 E.01261
G1 X197.483 Y127.545 E.14421
G1 X197.064 Y127.545 E.01261
G1 X197.064 Y132.336 E.14421
G1 X196.645 Y132.336 E.01261
G1 X196.645 Y127.545 E.14421
G1 X196.226 Y127.545 E.01261
G1 X196.226 Y132.336 E.14421
G1 X195.807 Y132.336 E.01261
G1 X195.807 Y127.545 E.14421
G1 X195.388 Y127.545 E.01261
G1 X195.388 Y132.336 E.14421
G1 X194.969 Y132.336 E.01261
G1 X194.969 Y127.545 E.14421
G1 X194.55 Y127.545 E.01261
G1 X194.55 Y132.336 E.14421
G1 X194.131 Y132.336 E.01261
G1 X194.131 Y127.545 E.14421
G1 X193.712 Y127.545 E.01261
G1 X193.712 Y132.336 E.14421
G1 X193.293 Y132.336 E.01261
G1 X193.293 Y127.545 E.14421
G1 X192.874 Y127.545 E.01261
G1 X192.874 Y132.336 E.14421
G1 X192.455 Y132.336 E.01261
G1 X192.455 Y127.545 E.14421
G1 X192.036 Y127.545 E.01261
G1 X192.036 Y132.336 E.14421
G1 X191.617 Y132.336 E.01261
G1 X191.617 Y127.545 E.14421
G1 X191.198 Y127.545 E.01261
G1 X191.198 Y132.336 E.14421
G1 X190.779 Y132.336 E.01261
G1 X190.779 Y127.545 E.14421
G1 X190.36 Y127.545 E.01261
G1 X190.36 Y132.336 E.14421
G1 X189.941 Y132.336 E.01261
G1 X189.941 Y127.545 E.14421
G1 X189.522 Y127.545 E.01261
G1 X189.522 Y132.336 E.14421
G1 X189.103 Y132.336 E.01261
G1 X189.103 Y127.545 E.14421
G1 X188.684 Y127.545 E.01261
G1 X188.684 Y132.336 E.14421
G1 X188.266 Y132.336 E.01258
G1 X188.266 Y127.545 E.14421
G1 X187.847 Y127.545 E.01261
G1 X187.847 Y132.336 E.14421
G1 X187.428 Y132.336 E.01261
G1 X187.428 Y127.545 E.14421
G1 X187.009 Y127.545 E.01261
G1 X187.009 Y132.336 E.14421
G1 X186.59 Y132.336 E.01261
G1 X186.59 Y127.545 E.14421
G1 X186.171 Y127.545 E.01261
G1 X186.171 Y132.336 E.14421
G1 X185.752 Y132.336 E.01261
G1 X185.752 Y127.545 E.14421
G1 X185.333 Y127.545 E.01261
G1 X185.333 Y132.336 E.14421
G1 X184.914 Y132.336 E.01261
G1 X184.914 Y127.545 E.14421
G1 X184.495 Y127.545 E.01261
G1 X184.495 Y132.336 E.14421
G1 X184.076 Y132.336 E.01261
G1 X184.076 Y127.545 E.14421
G1 X183.657 Y127.545 E.01261
G1 X183.657 Y132.336 E.14421
G1 X183.238 Y132.336 E.01261
G1 X183.238 Y127.545 E.14421
G1 X182.819 Y127.545 E.01261
G1 X182.819 Y132.336 E.14421
G1 X182.4 Y132.336 E.01261
G1 X182.4 Y127.545 E.14421
G1 X181.981 Y127.545 E.01261
G1 X181.981 Y132.336 E.14421
G1 X181.562 Y132.336 E.01261
G1 X181.562 Y127.545 E.14421
G1 X181.143 Y127.545 E.01261
G1 X181.143 Y132.336 E.14421
G1 X180.724 Y132.336 E.01261
G1 X180.724 Y127.545 E.14421
G1 X180.305 Y127.545 E.01261
G1 X180.305 Y132.336 E.14421
G1 X179.886 Y132.336 E.01261
G1 X179.886 Y127.545 E.14421
G1 X179.467 Y127.545 E.01261
G1 X179.467 Y132.336 E.14421
G1 X179.048 Y132.336 E.01261
G1 X179.048 Y127.545 E.14421
G1 X178.629 Y127.545 E.01261
G1 X178.629 Y132.336 E.14421
G1 X178.21 Y132.336 E.01261
G1 X178.21 Y127.545 E.14421
G1 X177.791 Y127.545 E.01261
G1 X177.791 Y132.336 E.14421
G1 X177.372 Y132.336 E.01261
G1 X177.372 Y127.545 E.14421
G1 X176.953 Y127.545 E.01261
G1 X176.953 Y132.336 E.14421
G1 X176.534 Y132.336 E.01261
G1 X176.534 Y127.545 E.14421
G1 X176.115 Y127.545 E.01261
G1 X176.115 Y132.336 E.14421
G1 X175.696 Y132.336 E.01261
G1 X175.696 Y127.545 E.14421
G1 X175.277 Y127.545 E.01261
G1 X175.277 Y132.336 E.14421
G1 X174.858 Y132.336 E.01261
G1 X174.858 Y114.317 E.54237
G1 X174.439 Y114.317 E.01261
G1 X174.439 Y132.336 E.54237
G1 X174.02 Y132.336 E.01261
G1 X174.02 Y114.317 E.54237
G1 X173.601 Y114.317 E.01261
G1 X173.601 Y132.336 E.54237
G1 X173.182 Y132.336 E.01261
G1 X173.182 Y114.317 E.54237
G1 X172.763 Y114.317 E.01261
G1 X172.763 Y132.336 E.54237
G1 X172.344 Y132.336 E.01261
G1 X172.344 Y114.147 E.54749
M204 S1000
;WIPE_START
G1 F8640
G1 X172.344 Y117.612 E-.8
;WIPE_END
G1 Z.6 F720
G1 X220.108 Y95.853 F10800
G1 Z.2 F720
G1 E.8 F2100
M204 S800
G1 F1200
G1 X220.108 Y77.664 E.54749
G1 X219.689 Y77.664 E.01261
G1 X219.689 Y95.683 E.54237
G1 X219.27 Y95.683 E.01261
G1 X219.27 Y77.664 E.54237
G1 X218.851 Y77.664 E.01261
G1 X218.851 Y95.683 E.54237
G1 X218.432 Y95.683 E.01261
G1 X218.432 Y77.664 E.54237
G1 X218.013 Y77.664 E.01261
G1 X218.013 Y95.683 E.54237
G1 X217.594 Y95.683 E.01261
G1 X217.594 Y77.664 E.54237
G1 X217.175 Y77.664 E.01261
G1 X217.175 Y95.683 E.54237
G1 X216.994 Y95.683 E.00545
G1 X216.994 Y82.455 E.39816
G1 X216.756 Y82.455 E.00716
G1 X216.756 Y77.664 E.14421
G1 X216.337 Y77.664 E.01261
G1 X216.337 Y82.455 E.14421
G1 X215.918 Y82.455 E.01261
G1 X215.918 Y77.664 E.14421
G1 X215.499 Y77.664 E.01261
G1 X215.499 Y82.455 E.14421
G1 X215.08 Y82.455 E.01261
G1 X215.08 Y77.664 E.14421
G1 X214.661 Y77.664 E.01261
G1 X214.661 Y82.455 E.14421
G1 X214.242 Y82.455 E.01261
G1 X214.242 Y77.664 E.14421
G1 X213.823 Y77.664 E.01261
G1 X213.823 Y82.455 E.14421
G1 X213.404 Y82.455 E.01261
G1 X213.404 Y77.664 E.14421
G1 X212.985 Y77.664 E.01261
G1 X212.985 Y82.455 E.14421
G1 X212.566 Y82.455 E.01261
G1 X212.566 Y77.664 E.14421
G1 X212.147 Y77.664 E.01261
G1 X212.147 Y82.455 E.14421
G1 X211.728 Y82.455 E.01261
G1 X211.728 Y77.664 E.14421
M73 P1 R227
G1 X211.309 Y77.664 E.01261
G1 X211.309 Y82.455 E.14421
M73 Q1 S230
G1 X210.89 Y82.455 E.01261
G1 X210.89 Y77.664 E.14421
G1 X210.471 Y77.664 E.01261
G1 X210.471 Y82.455 E.14421
G1 X210.052 Y82.455 E.01261
G1 X210.052 Y77.664 E.14421
G1 X209.633 Y77.664 E.01261
G1 X209.633 Y82.455 E.14421
G1 X209.214 Y82.455 E.01261
G1 X209.214 Y77.664 E.14421
G1 X208.795 Y77.664 E.01261
G1 X208.795 Y82.455 E.14421
G1 X208.376 Y82.455 E.01261
G1 X208.376 Y77.664 E.14421
G1 X207.957 Y77.664 E.01261
G1 X207.957 Y82.455 E.14421
G1 X207.538 Y82.455 E.01261
G1 X207.538 Y77.664 E.14421
G1 X207.119 Y77.664 E.01261
G1 X207.119 Y82.455 E.14421
G1 X206.701 Y82.455 E.01258
G1 X206.701 Y77.664 E.14421
G1 X206.282 Y77.664 E.01261
M73 Q1 S229
G1 X206.282 Y82.455 E.14421
G1 X205.863 Y82.455 E.01261
G1 X205.863 Y77.664 E.14421
G1 X205.444 Y77.664 E.01261
G1 X205.444 Y82.455 E.14421
G1 X205.025 Y82.455 E.01261
G1 X205.025 Y77.664 E.14421
G1 X204.606 Y77.664 E.01261
G1 X204.606 Y82.455 E.14421
G1 X204.187 Y82.455 E.01261
G1 X204.187 Y77.664 E.14421
G1 X203.768 Y77.664 E.01261
G1 X203.768 Y82.455 E.14421
G1 X203.349 Y82.455 E.01261
G1 X203.349 Y77.664 E.14421
G1 X202.93 Y77.664 E.01261
G1 X202.93 Y82.455 E.14421
G1 X202.511 Y82.455 E.01261
G1 X202.511 Y77.664 E.14421
G1 X202.092 Y77.664 E.01261
G1 X202.092 Y82.455 E.14421
G1 X201.673 Y82.455 E.01261
G1 X201.673 Y77.664 E.14421
G1 X201.254 Y77.664 E.01261
G1 X201.254 Y82.455 E.14421
G1 X200.835 Y82.455 E.01261
G1 X200.835 Y77.664 E.14421
G1 X200.416 Y77.664 E.01261
G1 X200.416 Y82.455 E.14421
G1 X199.997 Y82.455 E.01261
G1 X199.997 Y77.664 E.14421
G1 X199.578 Y77.664 E.01261
G1 X199.578 Y82.455 E.14421
G1 X199.159 Y82.455 E.01261
G1 X199.159 Y77.664 E.14421
G1 X198.74 Y77.664 E.01261
G1 X198.74 Y82.455 E.14421
G1 X198.321 Y82.455 E.01261
G1 X198.321 Y77.664 E.14421
G1 X197.902 Y77.664 E.01261
G1 X197.902 Y82.455 E.14421
G1 X197.483 Y82.455 E.01261
G1 X197.483 Y77.664 E.14421
G1 X197.064 Y77.664 E.01261
G1 X197.064 Y82.455 E.14421
G1 X196.645 Y82.455 E.01261
G1 X196.645 Y77.664 E.14421
G1 X196.226 Y77.664 E.01261
G1 X196.226 Y82.455 E.14421
G1 X195.807 Y82.455 E.01261
G1 X195.807 Y77.664 E.14421
G1 X195.388 Y77.664 E.01261
G1 X195.388 Y82.455 E.14421
G1 X194.969 Y82.455 E.01261
G1 X194.969 Y77.664 E.14421
G1 X194.55 Y77.664 E.01261
G1 X194.55 Y82.455 E.14421
G1 X194.131 Y82.455 E.01261
G1 X194.131 Y77.664 E.14421
G1 X193.712 Y77.664 E.01261
G1 X193.712 Y82.455 E.14421
G1 X193.293 Y82.455 E.01261
G1 X193.293 Y77.664 E.14421
G1 X192.874 Y77.664 E.01261
G1 X192.874 Y82.455 E.14421
G1 X192.455 Y82.455 E.01261
G1 X192.455 Y77.664 E.14421
G1 X192.036 Y77.664 E.01261
G1 X192.036 Y82.455 E.14421
G1 X191.617 Y82.455 E.01261
G1 X191.617 Y77.664 E.14421
G1 X191.198 Y77.664 E.01261
G1 X191.198 Y82.455 E.14421
G1 X190.779 Y82.455 E.01261
G1 X190.779 Y77.664 E.14421
G1 X190.36 Y77.664 E.01261
G1 X190.36 Y82.455 E.14421
G1 X189.941 Y82.455 E.01261
G1 X189.941 Y77.664 E.14421
G1 X189.522 Y77.664 E.01261
G1 X189.522 Y82.455 E.14421
G1 X189.103 Y82.455 E.01261
G1 X189.103 Y77.664 E.14421
G1 X188.684 Y77.664 E.01261
G1 X188.684 Y82.455 E.14421
G1 X188.266 Y82.455 E.01258
G1 X188.266 Y77.664 E.14421
G1 X187.847 Y77.664 E.01261
G1 X187.847 Y82.455 E.14421
G1 X187.428 Y82.455 E.01261
G1 X187.428 Y77.664 E.14421
G1 X187.009 Y77.664 E.01261
G1 X187.009 Y82.455 E.14421
G1 X186.59 Y82.455 E.01261
G1 X186.59 Y77.664 E.14421
G1 X186.171 Y77.664 E.01261
G1 X186.171 Y82.455 E.14421
G1 X185.752 Y82.455 E.01261
G1 X185.752 Y77.664 E.14421
G1 X185.333 Y77.664 E.01261
G1 X185.333 Y82.455 E.14421
G1 X184.914 Y82.455 E.01261
G1 X184.914 Y77.664 E.14421
G1 X184.495 Y77.664 E.01261
G1 X184.495 Y82.455 E.14421
G1 X184.076 Y82.455 E.01261
G1 X184.076 Y77.664 E.14421
G1 X183.657 Y77.664 E.01261
G1 X183.657 Y82.455 E.14421
G1 X183.238 Y82.455 E.01261
G1 X183.238 Y77.664 E.14421
G1 X182.819 Y77.664 E.01261
G1 X182.819 Y82.455 E.14421
G1 X182.4 Y82.455 E.01261
G1 X182.4 Y77.664 E.14421
G1 X181.981 Y77.664 E.01261
G1 X181.981 Y82.455 E.14421
