; generated by Slic3r Prusa Edition 1.41.2+win64 on 2019-02-07 at 17:31:55

; 

; external perimeters extrusion width = 0.45mm
; perimeters extrusion width = 0.45mm
; infill extrusion width = 0.45mm
; solid infill extrusion width = 0.45mm
; top infill extrusion width = 0.40mm
; support material extrusion width = 0.35mm
; first layer extrusion width = 0.42mm

M73 P0 R57
M73 Q0 S58
M201 X1000 Y1000 Z1000 E5000 ; sets maximum accelerations, mm/sec^2
M203 X200 Y200 Z12 E120 ; sets maximum feedrates, mm/sec
M204 P1250 R1250 T1250 ; sets acceleration (P, T) and retract acceleration (R), mm/sec^2
M205 X8.00 Y8.00 Z0.40 E1.50 ; sets the jerk limits, mm/sec
M205 S0 T0 ; sets the minimum extruding and travel feed rate, mm/sec
M107
M115 U3.5.1 ; tell printer latest fw version
M83  ; extruder relative mode
M104 S215 ; set extruder temp
M140 S60 ; set bed temp
M190 S60 ; wait for bed temp
M109 S215 ; wait for extruder temp
G28 W ; home all without mesh bed level
G80 ; mesh bed leveling
G1 Y-3.0 F1000.0 ; go outside print area
G92 E0.0
G1 X60.0 E9.0  F1000.0 ; intro line
M73 Q0 S58
M73 P0 R57
G1 X100.0 E12.5  F1000.0 ; intro line
G92 E0.0
M221 S95
M900 K30; Filament gcode
G21 ; set units to millimeters
G90 ; use absolute coordinates
M83 ; use relative distances for extrusion
;BEFORE_LAYER_CHANGE
G92 E0.0
;0.2


G1 E-0.80000 F2100.00000
G1 Z0.600 F10800.000
;AFTER_LAYER_CHANGE
;0.2
G1 X110.549 Y99.467
G1 Z0.200
G1 E0.80000 F2100.00000
M204 S1000
G1 F1200
G1 X111.367 Y98.589 E0.03762
G1 X111.994 Y98.205 E0.02304
G1 X127.188 Y92.808 E0.50557
G1 X141.974 Y92.760 E0.46361
G1 X142.811 Y92.926 E0.02676
G1 X143.521 Y93.400 E0.02676
G1 X143.996 Y94.109 E0.02676
G1 X144.163 Y94.949 E0.02683
G1 X144.160 Y108.118 E0.41292
G1 X142.326 Y138.066 E0.94076
G1 X142.218 Y138.609 E0.01737
G1 X141.977 Y139.108 E0.01737
G1 X137.894 Y144.329 E0.20779
G1 X137.274 Y144.798 E0.02439
G1 X136.529 Y145.021 E0.02439
G1 X118.003 Y144.858 E0.58088
G1 X110.120 Y143.039 E0.25367
G1 X109.449 Y142.748 E0.02293
G1 X109.051 Y142.416 E0.01623
G1 X108.743 Y142.001 E0.01623
G1 X108.541 Y141.524 E0.01623
G1 X108.456 Y141.013 E0.01623
G1 X108.455 Y121.109 E0.62407
G1 X110.205 Y100.451 E0.65004
G1 X110.318 Y99.938 E0.01646
G1 X110.523 Y99.521 E0.01458
; PURGING FINISHED
G1 F8640
G1 X111.367 Y98.589 E-0.29036
G1 X111.994 Y98.205 E-0.16966
G1 X113.218 Y97.770 E-0.29997
G1 E-0.04000 F2100.00000
G1 Z0.800 F10800.000
G1 X118.184 Y120.920
G1 Z0.200
G1 E0.80000 F2100.00000
G1 F1200
G1 X118.184 Y120.512 E0.01281
G1 X118.938 Y120.512 E0.02365
G1 X118.938 Y120.750 E0.00749
G1 X119.693 Y120.750 E0.02365
G1 X119.693 Y120.512 E0.00749
G1 X120.447 Y120.512 E0.02365
G1 X120.447 Y120.750 E0.00749
G1 X120.564 Y120.750 E0.00368
G1 X120.806 Y120.993 E0.01074
G1 X120.806 Y126.750 E0.18053
G1 X121.201 Y126.750 E0.01238
G1 X121.201 Y120.512 E0.19562
G1 X121.955 Y120.512 E0.02365
G1 X121.955 Y126.750 E0.19562
G1 X122.709 Y126.750 E0.02365
G1 X122.709 Y120.512 E0.19562
G1 X123.463 Y120.512 E0.02365
G1 X123.463 Y126.750 E0.19562
G1 X124.218 Y126.750 E0.02365
G1 X124.218 Y120.512 E0.19562
G1 X124.972 Y120.512 E0.02365
G1 X124.972 Y126.750 E0.19562
G1 X125.726 Y126.750 E0.02365
G1 X125.726 Y120.512 E0.19562
G1 X126.480 Y120.512 E0.02365
G1 X126.480 Y123.750 E0.10156
G1 X127.234 Y123.750 E0.02365
G1 X127.234 Y120.512 E0.10156
G1 X127.988 Y120.512 E0.02365
G1 X127.988 Y123.750 E0.10156
G1 X128.743 Y123.750 E0.02365
G1 X128.743 Y120.512 E0.10156
G1 X129.497 Y120.512 E0.02365
G1 X129.497 Y123.920 E0.10688
G1 F8640
G1 X129.497 Y120.629 E-0.76000
G1 E-0.04000 F2100.00000
G1 Z0.800 F10800.000
G1 X136.284 Y142.846
G1 Z0.200
G1 E0.80000 F2100.00000
G1 F1200
G1 X136.284 Y138.328 E0.14169
G1 X135.530 Y138.328 E0.02365
G1 X135.530 Y142.677 E0.13637
G1 X134.776 Y142.677 E0.02365
G1 X134.776 Y138.328 E0.13637
G1 X134.022 Y138.328 E0.02365
G1 X134.022 Y142.677 E0.13637
G1 X133.267 Y142.677 E0.02365
G1 X133.267 Y138.328 E0.13637
G1 X132.513 Y138.328 E0.02365
G1 X132.513 Y142.677 E0.13637
G1 X131.759 Y142.677 E0.02365
G1 X131.759 Y135.328 E0.23043
G1 X131.005 Y135.328 E0.02365
G1 X131.005 Y142.677 E0.23043
G1 X130.251 Y142.677 E0.02365
G1 X130.251 Y135.328 E0.23043
G1 X129.497 Y135.328 E0.02365
G1 X129.497 Y142.677 E0.23043
G1 X128.743 Y142.677 E0.02365
G1 X128.743 Y135.328 E0.23043
G1 X127.988 Y135.328 E0.02365
G1 X127.988 Y142.677 E0.23043
G1 X127.234 Y142.677 E0.02365
G1 X127.234 Y135.328 E0.23043
G1 X126.480 Y135.328 E0.02365
G1 X126.480 Y142.677 E0.23043
G1 X125.726 Y142.677 E0.02365
G1 X125.726 Y135.328 E0.23043
G1 X124.972 Y135.328 E0.02365
G1 X124.972 Y142.677 E0.23043
G1 X124.218 Y142.677 E0.02365
G1 X124.218 Y135.328 E0.23043
G1 X123.463 Y135.328 E0.02365
G1 X123.463 Y142.677 E0.23043
G1 X122.709 Y142.677 E0.02365
G1 X122.709 Y135.328 E0.23043
G1 X121.955 Y135.328 E0.02365
G1 X121.955 Y142.677 E0.23043
G1 X121.201 Y142.677 E0.02365
G1 X121.201 Y135.328 E0.23043
G1 X120.806 Y135.328 E0.01238
G1 X120.806 Y141.085 E0.18053
G1 X120.564 Y141.328 E0.01074
G1 X120.447 Y141.328 E0.00368
G1 X120.447 Y142.677 E0.04230
G1 X119.693 Y142.677 E0.02365
G1 X119.693 Y141.328 E0.04230
G1 X118.938 Y141.328 E0.02365
G1 X118.938 Y142.677 E0.04230
G1 X118.184 Y142.677 E0.02365
G1 X118.184 Y141.158 E0.04762
G1 F8640
G1 X118.184 Y142.677 E-0.35072
G1 X118.938 Y142.677 E-0.17414
G1 X118.938 Y141.658 E-0.23515
G1 E-0.04000 F2100.00000
G1 Z0.800 F10800.000
G1 X116.465 Y138.695
G1 Z0.200
G1 E0.80000 F2100.00000
G1 F1200
G1 X116.104 Y138.884 E0.01278
G1 X115.708 Y138.982 E0.01278
G1 X115.300 Y138.982 E0.01278
G1 X114.904 Y138.884 E0.01278
G1 X114.543 Y138.695 E0.01278
G1 X114.238 Y138.424 E0.01278
G1 X114.006 Y138.089 E0.01278
G1 X113.862 Y137.707 E0.01278
G1 X113.813 Y137.303 E0.01278
G1 X113.862 Y136.898 E0.01278
G1 X114.006 Y136.517 E0.01278
G1 X114.238 Y136.181 E0.01278
G1 X114.543 Y135.911 E0.01278
G1 X114.904 Y135.721 E0.01278
G1 X115.300 Y135.624 E0.01278
G1 X115.708 Y135.624 E0.01278
G1 X116.104 Y135.721 E0.01278
G1 X116.465 Y135.911 E0.01278
G1 X116.770 Y136.181 E0.01278
G1 X117.002 Y136.517 E0.01278
G1 X117.146 Y136.898 E0.01278
G1 X117.195 Y137.303 E0.01278
G1 X117.146 Y137.707 E0.01278
G1 X117.002 Y138.089 E0.01278
G1 X116.770 Y138.424 E0.01278
G1 X116.510 Y138.655 E0.01090
G1 X116.260 Y138.373 F10800.000
G1 F1200
G1 X115.969 Y138.529 E0.01035
G1 X115.662 Y138.605 E0.00991
G1 X115.346 Y138.605 E0.00991
G1 X115.039 Y138.529 E0.00991
G1 X114.759 Y138.382 E0.00991
G1 X114.522 Y138.172 E0.00991
G1 X114.343 Y137.912 E0.00991
G1 X114.231 Y137.617 E0.00991
G1 X114.193 Y137.303 E0.00991
G1 X114.231 Y136.989 E0.00991
G1 X114.343 Y136.693 E0.00991
G1 X114.522 Y136.433 E0.00991
G1 X114.759 Y136.223 E0.00991
G1 X115.039 Y136.076 E0.00991
G1 X115.346 Y136.001 E0.00991
G1 X115.662 Y136.001 E0.00991
G1 X115.969 Y136.076 E0.00991
G1 X116.249 Y136.223 E0.00991
G1 X116.486 Y136.433 E0.00991
G1 X116.665 Y136.693 E0.00991
G1 X116.777 Y136.989 E0.00991
G1 X116.816 Y137.303 E0.00991
G1 X116.777 Y137.617 E0.00991
G1 X116.665 Y137.912 E0.00991
G1 X116.486 Y138.172 E0.00991
G1 X116.305 Y138.333 E0.00759
G1 X116.289 Y138.701 F10800.000
G1 F8640
G1 X115.969 Y138.529 E-0.08974
G1 X115.662 Y138.605 E-0.07301
G1 X115.346 Y138.605 E-0.07301
G1 X115.039 Y138.529 E-0.07301
G1 X114.759 Y138.382 E-0.07301
G1 X114.522 Y138.172 E-0.07301
G1 X114.343 Y137.912 E-0.07301
G1 X114.231 Y137.617 E-0.07301
G1 X114.193 Y137.303 E-0.07301
G1 X114.231 Y136.989 E-0.07301
G1 X114.251 Y136.935 E-0.01320
G1 E-0.04000 F2100.00000
G1 Z0.800 F10800.000
G1 X115.708 Y126.454
G1 Z0.200
G1 E0.80000 F2100.00000
G1 F1200
G1 X115.300 Y126.454 E0.01278
G1 X114.904 Y126.357 E0.01278
G1 X114.543 Y126.167 E0.01278
G1 X114.238 Y125.897 E0.01278
G1 X114.006 Y125.561 E0.01278
G1 X113.862 Y125.180 E0.01278
G1 X113.813 Y124.775 E0.01278
G1 X113.862 Y124.371 E0.01278
G1 X114.006 Y123.989 E0.01278
G1 X114.238 Y123.654 E0.01278
G1 X114.543 Y123.383 E0.01278
G1 X114.904 Y123.194 E0.01278
G1 X115.300 Y123.096 E0.01278
G1 X115.708 Y123.096 E0.01278
G1 X116.104 Y123.194 E0.01278
G1 X116.465 Y123.383 E0.01278
G1 X116.770 Y123.654 E0.01278
G1 X117.002 Y123.989 E0.01278
G1 X117.146 Y124.371 E0.01278
G1 X117.195 Y124.775 E0.01278
G1 X117.146 Y125.180 E0.01278
G1 X117.002 Y125.561 E0.01278
G1 X116.770 Y125.897 E0.01278
G1 X116.465 Y126.167 E0.01278
G1 X116.104 Y126.357 E0.01278
G1 X115.766 Y126.440 E0.01090
G1 X115.676 Y126.074 F10800.000
G1 F1200
G1 X115.346 Y126.077 E0.01035
G1 X115.039 Y126.002 E0.00991
G1 X114.759 Y125.855 E0.00991
G1 X114.522 Y125.645 E0.00991
G1 X114.343 Y125.385 E0.00991
G1 X114.231 Y125.089 E0.00991
G1 X114.193 Y124.775 E0.00991
G1 X114.231 Y124.461 E0.00991
G1 X114.343 Y124.166 E0.00991
G1 X114.522 Y123.906 E0.00991
G1 X114.759 Y123.696 E0.00991
G1 X115.039 Y123.549 E0.00991
G1 X115.346 Y123.473 E0.00991
G1 X115.662 Y123.473 E0.00991
G1 X115.969 Y123.549 E0.00991
G1 X116.249 Y123.696 E0.00991
G1 X116.486 Y123.906 E0.00991
G1 X116.665 Y124.166 E0.00991
G1 X116.777 Y124.461 E0.00991
G1 X116.816 Y124.775 E0.00991
G1 X116.777 Y125.089 E0.00991
G1 X116.665 Y125.385 E0.00991
G1 X116.486 Y125.645 E0.00991
G1 X116.249 Y125.855 E0.00991
G1 X115.969 Y126.002 E0.00991
G1 X115.734 Y126.060 E0.00759
G1 X115.549 Y126.379 F10800.000
G1 F8640
G1 X115.346 Y126.077 E-0.08974
G1 X115.039 Y126.002 E-0.07301
G1 X114.759 Y125.855 E-0.07301
G1 X114.522 Y125.645 E-0.07301
G1 X114.343 Y125.385 E-0.07301
G1 X114.231 Y125.089 E-0.07301
G1 X114.193 Y124.775 E-0.07301
G1 X114.231 Y124.461 E-0.07301
G1 X114.343 Y124.166 E-0.07301
G1 X114.522 Y123.906 E-0.07301
G1 X114.565 Y123.868 E-0.01320
G1 E-0.04000 F2100.00000
G1 Z0.800 F10800.000
G1 X134.681 Y130.634
G1 Z0.200
G1 E0.80000 F2100.00000
G1 F1200
G1 X134.826 Y130.253 E0.01278
G1 X135.057 Y129.917 E0.01278
G1 X135.363 Y129.647 E0.01278
G1 X135.724 Y129.458 E0.01278
G1 X136.120 Y129.360 E0.01278
G1 X136.527 Y129.360 E0.01278
G1 X136.923 Y129.458 E0.01278
G1 X137.284 Y129.647 E0.01278
G1 X137.590 Y129.917 E0.01278
G1 X137.821 Y130.253 E0.01278
G1 X137.966 Y130.634 E0.01278
G1 X138.015 Y131.039 E0.01278
G1 X137.966 Y131.444 E0.01278
G1 X137.821 Y131.825 E0.01278
G1 X137.590 Y132.161 E0.01278
G1 X137.284 Y132.431 E0.01278
G1 X136.923 Y132.620 E0.01278
G1 X136.527 Y132.718 E0.01278
G1 X136.120 Y132.718 E0.01278
G1 X135.724 Y132.620 E0.01278
G1 X135.363 Y132.431 E0.01278
G1 X135.057 Y132.161 E0.01278
G1 X134.826 Y131.825 E0.01278
G1 X134.681 Y131.444 E0.01278
G1 X134.632 Y131.039 E0.01278
G1 X134.674 Y130.694 E0.01090
G1 X135.048 Y130.739 F10800.000
G1 F1200
G1 X135.162 Y130.429 E0.01035
G1 X135.342 Y130.169 E0.00991
G1 X135.578 Y129.960 E0.00991
G1 X135.858 Y129.813 E0.00991
G1 X136.165 Y129.737 E0.00991
G1 X136.482 Y129.737 E0.00991
G1 X136.789 Y129.813 E0.00991
G1 X137.069 Y129.960 E0.00991
G1 X137.305 Y130.169 E0.00991
G1 X137.485 Y130.429 E0.00991
G1 X137.597 Y130.725 E0.00991
G1 X137.635 Y131.039 E0.00991
G1 X137.597 Y131.353 E0.00991
G1 X137.485 Y131.649 E0.00991
G1 X137.305 Y131.909 E0.00991
G1 X137.069 Y132.118 E0.00991
G1 X136.789 Y132.265 E0.00991
G1 X136.482 Y132.341 E0.00991
G1 X136.165 Y132.341 E0.00991
G1 X135.858 Y132.265 E0.00991
G1 X135.578 Y132.118 E0.00991
G1 X135.342 Y131.909 E0.00991
G1 X135.162 Y131.649 E0.00991
G1 X135.050 Y131.353 E0.00991
G1 X135.012 Y131.039 E0.00991
G1 X135.041 Y130.799 E0.00759
G1 X134.809 Y130.513 F10800.000
G1 F8640
G1 X135.162 Y130.429 E-0.08974
G1 X135.342 Y130.169 E-0.07301
G1 X135.578 Y129.960 E-0.07301
G1 X135.858 Y129.813 E-0.07301
G1 X136.165 Y129.737 E-0.07301
G1 X136.482 Y129.737 E-0.07301
G1 X136.789 Y129.813 E-0.07301
G1 X137.069 Y129.960 E-0.07301
G1 X137.305 Y130.169 E-0.07301
G1 X137.485 Y130.429 E-0.07301
G1 X137.505 Y130.483 E-0.01321
G1 E-0.04000 F2100.00000
G1 Z0.800 F10800.000
G1 X119.806 Y127.751
G1 Z0.200
G1 E0.80000 F2100.00000
G1 F1200
G1 X126.980 Y127.751 E0.22494
G1 X126.980 Y124.751 E0.09406
G1 X128.906 Y124.751 E0.06038
G1 X128.906 Y129.002 E0.13328
G1 X126.006 Y129.002 E0.09093
G1 X126.006 Y133.076 E0.12774
G1 X132.980 Y133.076 E0.21867
G1 X132.980 Y124.751 E0.26102
G1 X139.556 Y124.751 E0.20618
G1 X139.556 Y137.327 E0.39431
G1 X132.980 Y137.327 E0.20618
G1 X132.980 Y134.327 E0.09406
G1 X119.806 Y134.327 E0.41307
G1 X119.806 Y140.327 E0.18813
G1 X111.230 Y140.327 E0.26889
G1 X111.230 Y121.751 E0.58243
G1 X119.806 Y121.751 E0.26889
G1 X119.806 Y127.691 E0.18624
G1 X120.183 Y127.374 F10800.000
G1 F1200
G1 X126.603 Y127.374 E0.20129
G1 X126.603 Y124.374 E0.09406
G1 X129.283 Y124.374 E0.08403
G1 X129.283 Y129.379 E0.15693
G1 X126.383 Y129.379 E0.09093
G1 X126.383 Y132.699 E0.10410
G1 X132.603 Y132.699 E0.19502
G1 X132.603 Y124.374 E0.26102
G1 X139.933 Y124.374 E0.22983
G1 X139.933 Y137.704 E0.41795
G1 X132.603 Y137.704 E0.22983
G1 X132.603 Y134.704 E0.09406
G1 X120.183 Y134.704 E0.38942
G1 X120.183 Y140.704 E0.18813
G1 X110.853 Y140.704 E0.29254
G1 X110.853 Y121.374 E0.60608
G1 X120.183 Y121.374 E0.29254
G1 X120.183 Y127.314 E0.18624
G1 X120.314 Y127.752 F10800.000
G1 X119.693 Y127.376
G1 F1200
G1 X117.438 Y125.122 E0.10072
G1 X117.480 Y124.775 E0.01103
G1 X117.460 Y124.606 E0.00539
G1 X119.523 Y126.669 E0.09218
G1 X119.523 Y126.132 E0.01698
G1 X115.425 Y122.034 E0.18310
G1 X115.962 Y122.034 E0.01698
G1 X119.523 Y125.595 E0.15909
G1 X119.523 Y125.057 E0.01698
G1 X116.500 Y122.034 E0.13508
G1 X117.037 Y122.034 E0.01698
G1 X119.523 Y124.520 E0.11107
G1 X119.523 Y123.982 E0.01698
G1 X117.574 Y122.034 E0.08706
G1 X118.112 Y122.034 E0.01698
G1 X119.523 Y123.445 E0.06306
G1 X119.523 Y122.908 E0.01698
G1 X118.649 Y122.034 E0.03905
G1 X119.186 Y122.034 E0.01698
G1 X119.693 Y122.540 E0.02262
G1 F8640
G1 X119.186 Y122.034 E-0.16533
G1 X118.649 Y122.034 E-0.12407
G1 X119.523 Y122.908 E-0.28538
G1 X119.523 Y123.445 E-0.12407
G1 X119.336 Y123.258 E-0.06115
G1 E-0.04000 F2100.00000
G1 Z0.800 F10800.000
G1 X117.183 Y125.404
G1 Z0.200
G1 E0.80000 F2100.00000
G1 F1200
G1 X125.823 Y134.044 E0.38606
G1 X125.286 Y134.044 E0.01698
G1 X117.124 Y125.882 E0.36468
G1 X116.983 Y126.086 E0.00782
G1 X116.881 Y126.177 E0.00432
G1 X124.748 Y134.044 E0.35152
G1 X124.211 Y134.044 E0.01698
G1 X116.589 Y126.422 E0.34057
G1 X116.236 Y126.607 E0.01257
G1 X123.674 Y134.044 E0.33231
G1 X123.136 Y134.044 E0.01698
G1 X115.812 Y126.720 E0.32725
G1 X115.742 Y126.737 E0.00228
G1 X115.292 Y126.737 E0.01422
G1 X122.599 Y134.044 E0.32648
G1 X122.062 Y134.044 E0.01698
G1 X111.513 Y123.495 E0.47134
G1 X111.513 Y122.958 E0.01698
G1 X113.555 Y125.000 E0.09126
G1 X113.528 Y124.775 E0.00716
G1 X113.565 Y124.472 E0.00964
G1 X111.513 Y122.420 E0.09168
G1 X111.513 Y122.034 E0.01221
G1 X111.663 Y122.034 E0.00477
G1 X113.681 Y124.051 E0.09012
G1 X113.754 Y123.857 E0.00656
G1 X113.864 Y123.697 E0.00613
G1 X112.201 Y122.034 E0.07432
G1 X112.738 Y122.034 E0.01698
G1 X114.101 Y123.397 E0.06091
G1 X114.387 Y123.146 E0.01203
G1 X113.276 Y122.034 E0.04968
G1 X113.813 Y122.034 E0.01698
G1 X114.740 Y122.961 E0.04142
G1 X114.803 Y122.928 E0.00226
G1 X115.157 Y122.840 E0.01150
G1 X114.350 Y122.034 E0.03604
G1 X114.888 Y122.034 E0.01698
G1 X115.875 Y123.021 E0.04410
G1 F8640
G1 X114.888 Y122.034 E-0.32230
G1 X114.350 Y122.034 E-0.12407
G1 X115.157 Y122.840 E-0.26337
G1 X114.945 Y122.892 E-0.05026
G1 E-0.04000 F2100.00000
G1 Z0.800 F10800.000
G1 X120.181 Y127.864
G1 Z0.200
G1 E0.80000 F2100.00000
G1 F1200
G1 X126.530 Y134.214 E0.28370
G1 F8640
G1 X124.203 Y131.886 E-0.76000
G1 E-0.04000 F2100.00000
G1 Z0.800 F10800.000
G1 X121.694 Y134.214
G1 Z0.200
G1 E0.80000 F2100.00000
G1 F1200
G1 X111.513 Y124.032 E0.45491
G1 X111.513 Y124.570 E0.01698
G1 X120.987 Y134.044 E0.42332
G1 X120.450 Y134.044 E0.01698
G1 X111.513 Y125.107 E0.39931
G1 X111.513 Y125.644 E0.01698
G1 X119.912 Y134.044 E0.37530
G1 X119.523 Y134.044 E0.01231
G1 X119.523 Y134.192 E0.00467
G1 X111.513 Y126.182 E0.35790
G1 X111.513 Y126.719 E0.01698
G1 X119.523 Y134.729 E0.35790
G1 X119.523 Y135.267 E0.01698
G1 X111.513 Y127.256 E0.35790
G1 X111.513 Y127.794 E0.01698
G1 X119.523 Y135.804 E0.35790
G1 X119.523 Y136.341 E0.01698
G1 X111.513 Y128.331 E0.35790
G1 X111.513 Y128.868 E0.01698
M73 Q1 S57
G1 X119.523 Y136.879 E0.35790
M73 P1 R56
G1 X119.523 Y137.416 E0.01698
