; generated by Slic3r Prusa Edition 1.41.2+win64 on 2019-02-08 at 09:37:27

; 

; external perimeters extrusion width = 0.45mm
; perimeters extrusion width = 0.45mm
; infill extrusion width = 0.45mm
; solid infill extrusion width = 0.45mm
; top infill extrusion width = 0.40mm
; support material extrusion width = 0.35mm
; first layer extrusion width = 0.42mm

M73 P0 R32
M73 Q0 S32
M201 X1000 Y1000 Z1000 E5000 ; sets maximum accelerations, mm/sec^2
M203 X200 Y200 Z12 E120 ; sets maximum feedrates, mm/sec
M204 P1250 R1250 T1250 ; sets acceleration (P, T) and retract acceleration (R), mm/sec^2
M205 X8.00 Y8.00 Z0.40 E1.50 ; sets the jerk limits, mm/sec
M205 S0 T0 ; sets the minimum extruding and travel feed rate, mm/sec
M107
M115 U3.5.1 ; tell printer latest fw version
M83  ; extruder relative mode
M104 S215 ; set extruder temp
M140 S60 ; set bed temp
M190 S60 ; wait for bed temp
M109 S215 ; wait for extruder temp
G28 W ; home all without mesh bed level
G80 ; mesh bed leveling
G1 Y-3.0 F1000.0 ; go outside print area
G92 E0.0
G1 X60.0 E9.0  F1000.0 ; intro line
M73 Q0 S32
M73 P0 R31
G1 X100.0 E12.5  F1000.0 ; intro line
G92 E0.0
M221 S95
M900 K30; Filament gcode
G21 ; set units to millimeters
G90 ; use absolute coordinates
M83 ; use relative distances for extrusion
;BEFORE_LAYER_CHANGE
G92 E0.0
;0.2


G1 E-0.80000 F2100.00000
G1 Z0.600 F10800.000
;AFTER_LAYER_CHANGE
;0.2
G1 X109.946 Y97.118
G1 Z0.200
G1 E0.80000 F2100.00000
M204 S1000
G1 F1200
G1 X110.898 Y96.121 E0.04321
G1 X111.762 Y95.668 E0.03058
G1 X124.987 Y92.488 E0.42650
G1 X125.580 Y92.419 E0.01869
G1 X142.268 Y92.591 E0.52327
G1 X143.064 Y92.751 E0.02545
G1 X143.767 Y93.149 E0.02533
G1 X144.159 Y93.539 E0.01734
G1 X144.457 Y94.000 E0.01721
G1 X144.651 Y94.513 E0.01721
G1 X144.730 Y95.061 E0.01734
G1 X144.730 Y105.992 E0.34273
G1 X144.607 Y106.691 E0.02226
G1 X144.295 Y107.333 E0.02238
G1 X139.969 Y113.395 E0.23351
G1 X139.312 Y113.955 E0.02704
G1 X138.504 Y114.266 E0.02717
G1 X132.018 Y114.441 E0.20344
G1 X112.476 Y114.441 E0.61271
G1 X111.740 Y114.325 E0.02337
G1 X111.068 Y114.004 E0.02337
G1 X110.252 Y113.256 E0.03469
G1 X109.925 Y112.850 E0.01635
G1 X109.642 Y112.264 E0.02042
G1 X109.515 Y111.621 E0.02054
G1 X109.510 Y98.475 E0.41218
G1 X109.633 Y97.764 E0.02263
G1 X109.920 Y97.172 E0.02063
G1 F8640
G1 X110.898 Y96.121 E-0.33144
G1 X111.762 Y95.668 E-0.22522
G1 X112.618 Y95.462 E-0.20334
G1 E-0.04000 F2100.00000
G1 Z0.800 F10800.000
G1 X111.135 Y96.414
G1 Z0.200
G1 E0.80000 F2100.00000
G1 F1200
G1 X111.879 Y96.026 E0.02631
G1 X125.071 Y92.855 E0.42541
G1 X125.578 Y92.796 E0.01601
G1 X142.244 Y92.968 E0.52256
G1 X142.912 Y93.097 E0.02134
G1 X143.511 Y93.428 E0.02146
G1 X143.854 Y93.761 E0.01498
G1 X144.116 Y94.160 E0.01498
G1 X144.285 Y94.607 E0.01498
G1 X144.354 Y95.080 E0.01498
G1 X144.354 Y105.970 E0.34145
G1 X144.246 Y106.583 E0.01953
G1 X143.971 Y107.138 E0.01942
G1 X139.692 Y113.139 E0.23108
G1 X139.127 Y113.626 E0.02338
G1 X138.428 Y113.896 E0.02349
G1 X132.013 Y114.064 E0.20123
G1 X112.482 Y114.063 E0.61238
G1 X111.845 Y113.963 E0.02021
G1 X111.262 Y113.680 E0.02032
G1 X110.242 Y112.646 E0.04552
G1 X109.997 Y112.137 E0.01771
G1 X109.890 Y111.583 E0.01771
G1 X109.887 Y98.492 E0.41046
G1 X109.993 Y97.874 E0.01964
G1 X110.270 Y97.312 E0.01964
G1 X111.093 Y96.458 E0.03720
; PURGING FINISHED
G1 F8640
G1 X111.879 Y96.026 E-0.20692
G1 X114.208 Y95.467 E-0.55308
G1 E-0.04000 F2100.00000
G1 Z0.800 F10800.000
G1 X125.575 Y94.985
G1 Z0.200
G1 E0.80000 F2100.00000
G1 F1200
G1 X125.575 Y95.358 E0.01168
G1 X126.329 Y96.112 E0.03344
G1 X126.329 Y95.155 E0.03001
G1 X127.083 Y95.155 E0.02365
G1 X127.083 Y96.866 E0.05365
G1 X127.837 Y97.620 E0.03344
G1 X127.837 Y95.155 E0.07730
G1 X128.591 Y95.155 E0.02365
G1 X128.591 Y97.711 E0.08017
G1 X129.346 Y97.711 E0.02365
G1 X129.346 Y95.155 E0.08017
G1 X130.100 Y95.155 E0.02365
G1 X130.100 Y97.711 E0.08017
G1 X130.854 Y97.711 E0.02365
G1 X130.854 Y95.155 E0.08017
G1 X131.608 Y95.155 E0.02365
G1 X131.608 Y97.711 E0.08017
G1 X132.171 Y97.711 E0.01766
G1 X132.362 Y97.902 E0.00847
G1 X132.362 Y95.155 E0.08615
G1 X133.116 Y95.155 E0.02365
G1 X133.116 Y100.836 E0.17814
G1 X133.871 Y100.836 E0.02365
G1 X133.871 Y95.155 E0.17814
G1 X134.625 Y95.155 E0.02365
G1 X134.625 Y100.836 E0.17814
G1 X135.379 Y100.836 E0.02365
G1 X135.379 Y95.155 E0.17814
G1 X136.133 Y95.155 E0.02365
G1 X136.133 Y105.731 E0.33161
G1 X136.887 Y105.731 E0.02365
G1 X136.887 Y95.155 E0.33161
G1 X137.641 Y95.155 E0.02365
G1 X137.641 Y105.731 E0.33161
G1 X138.396 Y105.731 E0.02365
G1 X138.396 Y95.155 E0.33161
G1 X139.150 Y95.155 E0.02365
G1 X139.150 Y105.731 E0.33161
G1 X139.904 Y105.731 E0.02365
G1 X139.904 Y95.155 E0.33161
G1 X140.658 Y95.155 E0.02365
G1 X140.658 Y105.731 E0.33161
G1 X141.412 Y105.731 E0.02365
G1 X141.412 Y95.155 E0.33161
G1 X142.166 Y95.155 E0.02365
G1 X142.166 Y105.901 E0.33693
G1 F8640
G1 X142.166 Y102.609 E-0.76000
G1 E-0.04000 F2100.00000
G1 Z0.800 F10800.000
G1 X131.413 Y111.288
G1 Z0.200
G1 E0.80000 F2100.00000
G1 F1200
G1 X112.987 Y111.288 E0.57773
G1 X112.987 Y98.712 E0.39431
G1 X131.413 Y98.712 E0.57773
G1 X131.413 Y111.228 E0.39243
G1 X131.790 Y111.665 F10800.000
G1 F1200
G1 X112.610 Y111.665 E0.60138
G1 X112.610 Y98.335 E0.41795
G1 X131.790 Y98.335 E0.60138
G1 X131.790 Y111.605 E0.41607
G1 X131.398 Y111.585 F10800.000
G1 F8640
G1 X128.499 Y111.615 E-0.76000
G1 E-0.04000 F2100.00000
G1 Z0.800 F10800.000
G1 X131.300 Y99.593
G1 Z0.200
G1 E0.80000 F2100.00000
G1 F1200
G1 X130.701 Y98.995 E0.02674
G1 X130.164 Y98.995 E0.01697
G1 X131.130 Y99.961 E0.04316
G1 X131.130 Y100.498 E0.01697
G1 X129.627 Y98.995 E0.06717
G1 X129.089 Y98.995 E0.01697
G1 X131.130 Y101.036 E0.09117
G1 X131.130 Y101.573 E0.01697
G1 X128.552 Y98.995 E0.11517
G1 X128.015 Y98.995 E0.01697
G1 X131.130 Y102.110 E0.13917
G1 X131.130 Y102.647 E0.01697
G1 X127.478 Y98.995 E0.16318
G1 X126.940 Y98.995 E0.01697
G1 X131.130 Y103.185 E0.18718
G1 X131.130 Y103.722 E0.01697
G1 X126.403 Y98.995 E0.21118
G1 X125.866 Y98.995 E0.01697
G1 X131.130 Y104.259 E0.23518
G1 X131.130 Y104.797 E0.01697
G1 X125.328 Y98.995 E0.25919
G1 X124.791 Y98.995 E0.01697
G1 X131.130 Y105.334 E0.28319
G1 X131.130 Y105.871 E0.01697
G1 X124.254 Y98.995 E0.30719
G1 X123.717 Y98.995 E0.01697
G1 X131.130 Y106.408 E0.33119
G1 X131.130 Y106.946 E0.01697
G1 X123.179 Y98.995 E0.35520
G1 X122.642 Y98.995 E0.01697
G1 X131.130 Y107.483 E0.37920
G1 X131.130 Y108.020 E0.01697
G1 X122.105 Y98.995 E0.40320
G1 X121.568 Y98.995 E0.01697
G1 X131.130 Y108.557 E0.42720
G1 X131.130 Y109.095 E0.01697
G1 X121.030 Y98.995 E0.45121
G1 X120.493 Y98.995 E0.01697
G1 X131.130 Y109.632 E0.47521
G1 X131.130 Y110.169 E0.01697
G1 X119.956 Y98.995 E0.49921
G1 X119.418 Y98.995 E0.01697
G1 X131.130 Y110.707 E0.52322
G1 X131.130 Y111.005 E0.00943
G1 X130.891 Y111.005 E0.00754
G1 X118.881 Y98.995 E0.53655
G1 X118.344 Y98.995 E0.01697
G1 X130.354 Y111.005 E0.53655
G1 X129.817 Y111.005 E0.01697
G1 X117.807 Y98.995 E0.53655
G1 X117.269 Y98.995 E0.01697
G1 X129.280 Y111.005 E0.53655
G1 X128.742 Y111.005 E0.01697
G1 X116.732 Y98.995 E0.53655
G1 X116.195 Y98.995 E0.01697
G1 X128.205 Y111.005 E0.53655
G1 X127.668 Y111.005 E0.01697
G1 X115.658 Y98.995 E0.53655
G1 X115.120 Y98.995 E0.01697
G1 X127.131 Y111.005 E0.53655
G1 X126.593 Y111.005 E0.01697
G1 X114.583 Y98.995 E0.53655
G1 X114.046 Y98.995 E0.01697
G1 X126.056 Y111.005 E0.53655
G1 X125.519 Y111.005 E0.01697
G1 X113.508 Y98.995 E0.53655
G1 X113.270 Y98.995 E0.00754
G1 X113.270 Y99.294 E0.00944
G1 X124.981 Y111.005 E0.52321
G1 X124.444 Y111.005 E0.01697
G1 X113.270 Y99.831 E0.49921
G1 X113.270 Y100.368 E0.01697
G1 X123.907 Y111.005 E0.47520
G1 X123.370 Y111.005 E0.01697
G1 X113.270 Y100.905 E0.45120
G1 X113.270 Y101.443 E0.01697
G1 X122.832 Y111.005 E0.42720
G1 X122.295 Y111.005 E0.01697
G1 X113.270 Y101.980 E0.40320
G1 X113.270 Y102.517 E0.01697
G1 X121.758 Y111.005 E0.37919
G1 X121.220 Y111.005 E0.01697
G1 X113.270 Y103.055 E0.35519
G1 X113.270 Y103.592 E0.01697
G1 X120.683 Y111.005 E0.33119
G1 X120.146 Y111.005 E0.01697
G1 X113.270 Y104.129 E0.30719
G1 X113.270 Y104.666 E0.01697
G1 X119.609 Y111.005 E0.28318
G1 X119.071 Y111.005 E0.01697
G1 X113.270 Y105.204 E0.25918
G1 X113.270 Y105.741 E0.01697
G1 X118.534 Y111.005 E0.23518
G1 X117.997 Y111.005 E0.01697
G1 X113.270 Y106.278 E0.21118
G1 X113.270 Y106.815 E0.01697
G1 X117.460 Y111.005 E0.18717
G1 X116.922 Y111.005 E0.01697
G1 X113.270 Y107.353 E0.16317
G1 X113.270 Y107.890 E0.01697
G1 X116.385 Y111.005 E0.13917
M73 Q3 S31
G1 X115.848 Y111.005 E0.01697
G1 X113.270 Y108.427 E0.11517
G1 X113.270 Y108.965 E0.01697
G1 X115.310 Y111.005 E0.09116
M73 P3 R30
G1 X114.773 Y111.005 E0.01697
G1 X113.270 Y109.502 E0.06716
G1 X113.270 Y110.039 E0.01697
G1 X114.236 Y111.005 E0.04316
G1 X113.699 Y111.005 E0.01697
G1 X113.100 Y110.407 E0.02674
M106 S255
;BEFORE_LAYER_CHANGE
G92 E0.0
;0.35


G1 F8640
G1 X113.699 Y111.005 E-0.19542
G1 X114.236 Y111.005 E-0.12406
G1 X113.270 Y110.039 E-0.31546
G1 X113.270 Y109.502 E-0.12406
G1 X113.273 Y109.505 E-0.00100
G1 E-0.04000 F2100.00000
G1 Z0.800 F10800.000
;AFTER_LAYER_CHANGE
;0.35
G1 X111.068 Y114.004
G1 Z0.350
G1 E0.80000 F2100.00000
G1 F3000
G1 X110.252 Y113.256 E0.02676
G1 X109.925 Y112.850 E0.01261
G1 X109.642 Y112.264 E0.01575
G1 X109.515 Y111.621 E0.01584
G1 X109.510 Y98.475 E0.31794
G1 X109.633 Y97.764 E0.01746
G1 X109.946 Y97.118 E0.01736
G1 X110.898 Y96.121 E0.03333
G1 X111.762 Y95.668 E0.02359
G1 X124.987 Y92.488 E0.32897
G1 X125.580 Y92.419 E0.01442
G1 X142.268 Y92.591 E0.40362
G1 X143.064 Y92.751 E0.01963
G1 X143.767 Y93.149 E0.01954
G1 X144.159 Y93.539 E0.01337
G1 X144.457 Y94.000 E0.01328
G1 X144.651 Y94.513 E0.01328
G1 X144.730 Y95.061 E0.01337
G1 X144.730 Y105.992 E0.26436
G1 X144.607 Y106.691 E0.01717
G1 X144.295 Y107.333 E0.01727
G1 X139.969 Y113.395 E0.18012
G1 X139.312 Y113.955 E0.02086
G1 X138.504 Y114.266 E0.02095
G1 X132.018 Y114.441 E0.15692
G1 X112.476 Y114.441 E0.47261
G1 X111.740 Y114.325 E0.01802
G1 X111.122 Y114.030 E0.01657
; PURGING FINISHED
G1 F8640
G1 X110.252 Y113.256 E-0.26874
G1 X109.925 Y112.850 E-0.12040
G1 X109.642 Y112.264 E-0.15036
G1 X109.515 Y111.621 E-0.15126
G1 X109.515 Y111.321 E-0.06923
G1 E-0.04000 F2100.00000
G1 Z0.950 F10800.000
G1 X112.868 Y111.232
G1 Z0.350
G1 E0.80000 F2100.00000
M204 S800
G1 F2700
G1 X112.868 Y98.768 E0.32477
G1 X131.357 Y98.768 E0.48176
G1 X131.357 Y98.893 E0.00326
G1 X132.200 Y98.893 E0.02196
G1 F1800
G1 X137.357 Y98.893 E0.21555
G1 X137.357 Y105.557 E0.27854
G1 X132.200 Y105.557 E0.21555
G1 F2700
G1 X131.357 Y105.557 E0.02196
G1 X131.357 Y109.893 E0.11297
G1 X132.200 Y109.893 E0.02196
G1 F1800
G1 X137.357 Y109.893 E0.21555
G1 X137.357 Y111.107 E0.05076
G1 X132.200 Y111.107 E0.21555
G1 F2700
G1 X131.357 Y111.107 E0.02196
G1 X131.357 Y111.232 E0.00326
G1 X112.928 Y111.232 E0.48019
M204 S1000
G1 F8640
G1 X112.912 Y107.941 E-0.76000
G1 E-0.04000 F2100.00000
G1 Z0.950 F10800.000
G1 X131.775 Y105.975
G1 Z0.350
G1 E0.80000 F2100.00000
M204 S800
G1 X131.775 Y109.475 E0.09120
G1 X132.200 Y109.475 E0.01107
G1 F1800
G1 X137.775 Y109.475 E0.23301
G1 X137.775 Y111.525 E0.08568
G1 X132.200 Y111.525 E0.23301
G1 F2100
G1 X131.775 Y111.525 E0.01107
G1 X131.775 Y111.650 E0.00326
G1 X112.593 Y111.650 E0.49980
G1 X112.450 Y111.507 E0.00528
G1 X112.450 Y98.493 E0.33908
G1 X112.593 Y98.350 E0.00528
G1 X131.775 Y98.350 E0.49980
G1 X131.775 Y98.475 E0.00326
G1 X132.200 Y98.475 E0.01107
G1 F1800
G1 X137.775 Y98.475 E0.23301
G1 X137.775 Y105.975 E0.31347
G1 X132.200 Y105.975 E0.23301
G1 F2100
G1 X131.835 Y105.975 E0.00951
M204 S1000
G1 X131.394 Y106.097 F10800.000
G1 F8640
G1 X131.779 Y109.266 E-0.76000
G1 E-0.04000 F2100.00000
G1 Z0.950 F10800.000
G1 X129.735 Y107.402
G1 Z0.350
G1 E0.80000 F2100.00000
G1 F1800
G1 X130.464 Y99.076 E0.37716
G1 X130.041 Y99.076 E0.01911
G1 X129.367 Y106.774 E0.34871
G1 X129.204 Y106.611 E0.01041
G1 X129.204 Y103.800 E0.12685
G1 X129.633 Y98.893 E0.22230
G1 F8640
G1 X129.346 Y102.172 E-0.76000
G1 E-0.04000 F2100.00000
G1 Z0.950 F10800.000
G1 X129.674 Y108.110
G1 Z0.350
G1 E0.80000 F2100.00000
G1 F1800
G1 X129.427 Y110.924 E0.12747
G1 X129.851 Y110.924 E0.01911
G1 X130.887 Y99.076 E0.53670
G1 X131.049 Y99.076 E0.00729
G1 X131.049 Y99.201 E0.00564
G1 X131.300 Y99.201 E0.01132
G1 X130.258 Y111.107 E0.53935
G1 F8640
G1 X130.545 Y107.828 E-0.76000
G1 E-0.04000 F2100.00000
G1 Z0.950 F10800.000
G1 X128.118 Y111.107
G1 Z0.350
G1 E0.80000 F2100.00000
M204 S1250
G1 F6471
G1 X128.791 Y110.434 E0.02525
G1 X128.791 Y109.832 E0.01597
G1 X127.704 Y110.919 E0.04078
G1 X127.103 Y110.919 E0.01597
G1 X128.979 Y109.042 E0.07042
M204 S1000
G1 F8640
G1 X127.103 Y110.919 E-0.61275
G1 X127.704 Y110.919 E-0.13895
G1 X127.730 Y110.893 E-0.00829
G1 E-0.04000 F2100.00000
G1 Z0.950 F10800.000
G1 X126.313 Y111.107
G1 Z0.350
G1 E0.80000 F2100.00000
M204 S1250
G1 F6471
G1 X129.714 Y107.705 E0.12766
G1 X129.414 Y107.404 E0.01129
G1 X125.899 Y110.919 E0.13189
G1 X125.297 Y110.919 E0.01597
G1 X129.113 Y107.104 E0.14318
G1 X128.812 Y106.803 E0.01129
G1 X124.696 Y110.919 E0.15447
G1 X124.094 Y110.919 E0.01597
G1 X128.791 Y106.222 E0.17628
G1 X128.791 Y105.620 E0.01597
G1 X123.492 Y110.919 E0.19886
G1 X122.890 Y110.919 E0.01597
G1 X128.791 Y105.018 E0.22145
G1 X128.791 Y104.416 E0.01597
G1 X122.288 Y110.919 E0.24403
G1 X121.687 Y110.919 E0.01597
G1 X128.791 Y103.814 E0.26661
G1 X128.791 Y103.213 E0.01597
G1 X121.085 Y110.919 E0.28920
G1 X120.483 Y110.919 E0.01597
G1 X128.791 Y102.611 E0.31178
G1 X128.791 Y102.009 E0.01597
G1 X119.881 Y110.919 E0.33436
G1 X119.280 Y110.919 E0.01597
G1 X128.791 Y101.407 E0.35695
G1 X128.791 Y100.806 E0.01597
G1 X118.678 Y110.919 E0.37953
G1 X118.076 Y110.919 E0.01597
G1 X128.791 Y100.204 E0.40211
G1 X128.791 Y99.602 E0.01597
G1 X117.474 Y110.919 E0.42470
G1 X116.873 Y110.919 E0.01597
G1 X128.710 Y99.081 E0.44425
G1 X128.108 Y99.081 E0.01597
G1 X116.271 Y110.919 E0.44425
G1 X115.669 Y110.919 E0.01597
G1 X127.507 Y99.081 E0.44425
G1 X126.905 Y99.081 E0.01597
G1 X115.067 Y110.919 E0.44425
G1 X114.465 Y110.919 E0.01597
G1 X126.303 Y99.081 E0.44425
G1 X125.701 Y99.081 E0.01597
G1 X113.864 Y110.919 E0.44425
G1 X113.262 Y110.919 E0.01597
G1 X125.100 Y99.081 E0.44425
G1 X124.498 Y99.081 E0.01597
G1 X113.181 Y110.398 E0.42469
G1 X113.181 Y109.796 E0.01597
G1 X123.896 Y99.081 E0.40211
G1 X123.294 Y99.081 E0.01597
G1 X113.181 Y109.194 E0.37953
G1 X113.181 Y108.593 E0.01597
G1 X122.693 Y99.081 E0.35694
G1 X122.091 Y99.081 E0.01597
G1 X113.181 Y107.991 E0.33436
G1 X113.181 Y107.389 E0.01597
G1 X121.489 Y99.081 E0.31178
G1 X120.887 Y99.081 E0.01597
G1 X113.181 Y106.787 E0.28919
G1 X113.181 Y106.185 E0.01597
G1 X120.285 Y99.081 E0.26661
G1 X119.684 Y99.081 E0.01597
G1 X113.181 Y105.584 E0.24403
G1 X113.181 Y104.982 E0.01597
G1 X119.082 Y99.081 E0.22144
G1 X118.480 Y99.081 E0.01597
G1 X113.181 Y104.380 E0.19886
G1 X113.181 Y103.778 E0.01597
G1 X117.878 Y99.081 E0.17628
G1 X117.277 Y99.081 E0.01597
G1 X113.181 Y103.177 E0.15369
G1 X113.181 Y102.575 E0.01597
G1 X116.675 Y99.081 E0.13111
G1 X116.073 Y99.081 E0.01597
G1 X113.181 Y101.973 E0.10853
G1 X113.181 Y101.371 E0.01597
G1 X115.471 Y99.081 E0.08594
G1 X114.869 Y99.081 E0.01597
G1 X113.181 Y100.769 E0.06336
G1 X113.181 Y100.168 E0.01597
G1 X114.268 Y99.081 E0.04078
G1 X113.666 Y99.081 E0.01597
G1 X112.993 Y99.754 E0.02525
M204 S1000
G1 F8640
G1 X113.666 Y99.081 E-0.21970
G1 X114.268 Y99.081 E-0.13895
G1 X113.181 Y100.168 E-0.35481
G1 X113.181 Y100.369 E-0.04653
G1 E-0.04000 F2100.00000
G1 Z0.950 F10800.000
G1 X136.682 Y105.432
G1 Z0.350
G1 E0.80000 F2100.00000
G1 F1800
G1 X137.049 Y101.235 E0.19015
G1 X137.049 Y99.201 E0.09178
G1 X136.803 Y99.201 E0.01108
G1 X136.274 Y105.249 E0.27396
G1 X135.851 Y105.249 E0.01911
G1 X136.380 Y99.201 E0.27396
G1 X135.957 Y99.201 E0.01911
G1 X135.428 Y105.249 E0.27396
G1 X135.004 Y105.249 E0.01911
G1 X135.533 Y99.201 E0.27396
G1 X135.110 Y99.201 E0.01911
G1 X134.581 Y105.249 E0.27396
G1 X134.157 Y105.249 E0.01911
G1 X134.687 Y99.201 E0.27396
G1 X134.263 Y99.201 E0.01911
G1 X133.734 Y105.249 E0.27396
G1 X133.311 Y105.249 E0.01911
G1 X133.840 Y99.201 E0.27396
